;FLAVOR:Marlin
;TIME:6816
;Filament used: 3.72038m
;Layer height: 0.1
;Generated with Cura_SteamEngine 3.4.1
M190 S40
M104 S200
M109 S200
M82 ;absolute extrusion mode
G28 ;Home
G1 Z15.0 F6000 ;Move the platform down 15mm
G29 Z0.4 ;auto-level
G92 E0
G1 F200 E3
G92 E0
G92 E0
G1 F2400 E-4.5
;LAYER_COUNT:320
;LAYER:0
M107
M204 S5000
M205 X30 Y30
G0 F3600 X18.759 Y-20.199 Z0.3
M204 S3000
M205 X20 Y20
;TYPE:SKIRT
G1 F2400 E0
G1 F1500 X18.759 Y20.2 E2.01551
G1 X18.719 Y20.735 E2.04228
G1 X18.6 Y21.258 E2.06904
G1 X18.405 Y21.757 E2.09577
G1 X18.137 Y22.222 E2.12254
G1 X17.804 Y22.642 E2.14929
G1 X17.412 Y23.008 E2.17604
G1 X16.97 Y23.311 E2.20278
G1 X16.487 Y23.546 E2.22957
G1 X15.976 Y23.706 E2.25629
G1 X15.446 Y23.789 E2.28305
G1 X15.159 Y23.8 E2.29738
G1 X-15.159 Y23.8 E3.80995
G1 X-15.694 Y23.76 E3.83672
G1 X-16.217 Y23.641 E3.86348
G1 X-16.716 Y23.446 E3.89021
G1 X-17.181 Y23.178 E3.91698
G1 X-17.601 Y22.845 E3.94372
G1 X-17.967 Y22.453 E3.97048
G1 X-18.27 Y22.011 E3.99722
G1 X-18.505 Y21.528 E4.02401
G1 X-18.665 Y21.017 E4.05073
G1 X-18.748 Y20.487 E4.07749
G1 X-18.759 Y20.2 E4.09182
G1 X-18.759 Y-20.2 E6.10739
G1 X-18.719 Y-20.735 E6.13415
G1 X-18.6 Y-21.258 E6.16091
G1 X-18.405 Y-21.757 E6.18764
G1 X-18.137 Y-22.222 E6.21441
G1 X-17.804 Y-22.642 E6.24116
G1 X-17.412 Y-23.008 E6.26791
G1 X-16.97 Y-23.311 E6.29465
G1 X-16.487 Y-23.546 E6.32145
G1 X-15.976 Y-23.706 E6.34816
G1 X-15.446 Y-23.789 E6.37492
G1 X-15.159 Y-23.8 E6.38925
G1 X15.159 Y-23.799 E7.90182
G1 X15.694 Y-23.759 E7.92859
G1 X16.217 Y-23.64 E7.95535
G1 X16.716 Y-23.445 E7.98208
G1 X17.181 Y-23.177 E8.00885
G1 X17.601 Y-22.844 E8.03559
G1 X17.967 Y-22.452 E8.06235
G1 X18.271 Y-22.01 E8.08911
G1 X18.505 Y-21.527 E8.11589
G1 X18.665 Y-21.016 E8.1426
G1 X18.748 Y-20.486 E8.16937
G1 X18.759 Y-20.199 E8.1837
M204 S5000
M205 X30 Y30
G0 F3600 X18.359 Y-20.199
M204 S3000
M205 X20 Y20
G1 F1500 X18.359 Y20.2 E10.19921
G1 X18.319 Y20.704 E10.22444
G1 X18.2 Y21.195 E10.24964
G1 X18.006 Y21.662 E10.27487
G1 X17.74 Y22.092 E10.3001
G1 X17.41 Y22.475 E10.32532
G1 X17.023 Y22.801 E10.35056
G1 X16.59 Y23.062 E10.37579
G1 X16.122 Y23.252 E10.40099
G1 X15.629 Y23.365 E10.42622
G1 X15.159 Y23.4 E10.44973
G1 X-15.159 Y23.4 E11.9623
G1 X-15.663 Y23.36 E11.98753
G1 X-16.154 Y23.241 E12.01273
G1 X-16.621 Y23.047 E12.03796
G1 X-17.051 Y22.781 E12.06319
G1 X-17.434 Y22.451 E12.08841
G1 X-17.76 Y22.064 E12.11366
G1 X-18.021 Y21.631 E12.13888
G1 X-18.211 Y21.163 E12.16408
G1 X-18.324 Y20.67 E12.18931
G1 X-18.359 Y20.2 E12.21283
G1 X-18.359 Y-20.2 E14.22839
G1 X-18.319 Y-20.704 E14.25361
G1 X-18.2 Y-21.195 E14.27882
G1 X-18.006 Y-21.662 E14.30405
G1 X-17.74 Y-22.092 E14.32927
G1 X-17.41 Y-22.475 E14.3545
G1 X-17.023 Y-22.801 E14.37974
G1 X-16.59 Y-23.062 E14.40496
G1 X-16.122 Y-23.252 E14.43016
G1 X-15.629 Y-23.365 E14.4554
G1 X-15.159 Y-23.4 E14.47891
G1 X15.159 Y-23.399 E15.99148
G1 X15.663 Y-23.359 E16.01671
G1 X16.154 Y-23.24 E16.04191
G1 X16.621 Y-23.045 E16.06716
G1 X17.051 Y-22.78 E16.09236
G1 X17.434 Y-22.449 E16.11761
G1 X17.76 Y-22.063 E16.14282
G1 X18.021 Y-21.63 E16.16804
G1 X18.211 Y-21.162 E16.19324
G1 X18.324 Y-20.669 E16.21848
G1 X18.359 Y-20.199 E16.24199
M204 S5000
M205 X30 Y30
G1 F2400 E11.74199
G0 F3600 X15.833 Y-19.595
G0 X14.554 Y-19.595
G0 X-.714 Y-16.856
G0 X-.689 Y-16.76
M204 S3000
M205 X20 Y20
;TYPE:WALL-INNER
G1 F2400 E16.24199
G1 F1500 X-1.333 Y-16.493 E16.27677
G1 X-1.884 Y-16.07 E16.31143
G1 X-2.307 Y-15.519 E16.34608
G1 X-2.574 Y-14.875 E16.38086
G1 X-2.664 Y-14.186 E16.41553
G1 X-2.574 Y-13.497 E16.4502
G1 X-2.307 Y-12.853 E16.48498
G1 X-1.884 Y-12.302 E16.51963
G1 X-1.333 Y-11.879 E16.55429
G1 X-.689 Y-11.612 E16.58907
G1 X0.00 Y-11.522 E16.62374
G1 X0.689 Y-11.612 E16.6584
G1 X1.333 Y-11.879 E16.69319
G1 X1.884 Y-12.302 E16.72784
G1 X2.307 Y-12.853 E16.7625
G1 X2.574 Y-13.497 E16.79728
G1 X2.664 Y-14.186 E16.83194
G1 X2.574 Y-14.875 E16.86661
G1 X2.307 Y-15.519 E16.90139
G1 X1.884 Y-16.07 E16.93605
G1 X1.333 Y-16.493 E16.9707
G1 X0.689 Y-16.76 E17.00549
G1 X0.00 Y-16.85 E17.04015
G1 X-.689 Y-16.76 E17.07482
M204 S5000
M205 X30 Y30
G0 F3600 X-.714 Y-16.856
G0 X-1.353 Y-16.527
G0 X-1.912 Y-16.098
G0 X-2.341 Y-15.539
G0 X-2.612 Y-14.885
G0 X-2.685 Y-14.319
G0 X-2.726 Y13.47
G0 X-2.63 Y13.495
M204 S3000
M205 X20 Y20
G1 F1500 X-2.722 Y14.2 E17.11029
G1 X-2.63 Y14.904 E17.14571
G1 X-2.357 Y15.562 E17.18125
G1 X-1.925 Y16.125 E17.21666
G1 X-1.362 Y16.557 E17.25206
G1 X-.704 Y16.83 E17.2876
G1 X0.00 Y16.922 E17.32302
G1 X0.704 Y16.83 E17.35844
G1 X1.362 Y16.557 E17.39398
G1 X1.925 Y16.125 E17.42939
G1 X2.357 Y15.562 E17.46479
G1 X2.63 Y14.904 E17.50033
G1 X2.722 Y14.2 E17.53576
G1 X2.63 Y13.495 E17.57123
G1 X2.357 Y12.839 E17.60668
G1 X1.925 Y12.275 E17.64212
G1 X1.362 Y11.843 E17.67752
G1 X0.704 Y11.57 E17.71306
G1 X0.00 Y11.478 E17.74849
G1 X-.704 Y11.57 E17.78391
G1 X-1.362 Y11.843 E17.81945
G1 X-1.925 Y12.275 E17.85485
G1 X-2.357 Y12.839 E17.8903
G1 X-2.63 Y13.495 E17.92574
M204 S5000
M205 X30 Y30
G0 F3600 X-2.726 Y13.47
G0 X-2.762 Y14.2
G0 X-2.668 Y14.914
G0 X-2.391 Y15.582
G0 X-1.953 Y16.153
G0 X-1.382 Y16.591
G0 X-.842 Y16.815
G0 X14.498 Y19.539
G0 X14.568 Y19.609
M204 S3000
M205 X20 Y20
G1 F1500 X-14.568 Y19.609 E19.37935
G1 X-14.568 Y-19.609 E21.33594
G1 X14.568 Y-19.609 E22.78954
G1 X14.568 Y19.609 E24.74613
M204 S5000
M205 X30 Y30
G0 F3600 X14.968 Y20.009
M204 S3000
M205 X20 Y20
;TYPE:WALL-OUTER
G1 F1500 X-14.968 Y20.009 E26.23965
G1 X-14.968 Y-20.009 E28.23615
G1 X14.968 Y-20.009 E29.72967
G1 X14.968 Y20.009 E31.72617
M204 S5000
M205 X30 Y30
G0 F3600 X14.768 Y20.009
G0 X14.498 Y19.539
G0 X1.382 Y11.809
G0 X0.714 Y11.532
G0 X0.00 Y11.438
G0 X-.714 Y11.532
G0 X-1.254 Y11.756
G0 X-2.035 Y12.256
G0 X-1.64 Y12.56
M204 S3000
M205 X20 Y20
G1 F1500 X-2.008 Y13.041 E31.75639
G1 X-2.24 Y13.6 E31.78658
G1 X-2.319 Y14.2 E31.81678
G1 X-2.24 Y14.8 E31.84697
G1 X-2.008 Y15.36 E31.87721
G1 X-1.64 Y15.84 E31.90738
G1 X-1.16 Y16.208 E31.93756
G1 X-.6 Y16.44 E31.9678
G1 X0.00 Y16.519 E31.99799
G1 X0.6 Y16.44 E32.02819
G1 X1.16 Y16.208 E32.05843
G1 X1.64 Y15.84 E32.0886
G1 X2.008 Y15.36 E32.11878
G1 X2.24 Y14.8 E32.14902
G1 X2.319 Y14.2 E32.17921
G1 X2.24 Y13.6 E32.2094
G1 X2.008 Y13.041 E32.2396
G1 X1.64 Y12.56 E32.26981
G1 X1.16 Y12.192 E32.29999
G1 X0.6 Y11.96 E32.33023
G1 X0.00 Y11.881 E32.36042
G1 X-.6 Y11.96 E32.39062
G1 X-1.16 Y12.192 E32.42086
G1 X-1.64 Y12.56 E32.45103
M204 S5000
M205 X30 Y30
G0 F3600 X-1.761 Y12.719
G0 X-2.157 Y12.415
G0 X-2.704 Y-14.186
G0 X-2.612 Y-14.885
G0 X-2.46 Y-15.255
G0 X-1.994 Y-16.089
G0 X-1.599 Y-15.785
M204 S3000
M205 X20 Y20
G1 F1500 X-1.958 Y-15.317 E32.48046
G1 X-2.184 Y-14.771 E32.50994
G1 X-2.261 Y-14.186 E32.53938
G1 X-2.184 Y-13.601 E32.56882
G1 X-1.958 Y-13.055 E32.5983
G1 X-1.599 Y-12.587 E32.62772
G1 X-1.131 Y-12.228 E32.65715
G1 X-.585 Y-12.002 E32.68663
G1 X0.00 Y-11.925 E32.71607
G1 X0.585 Y-12.002 E32.74551
G1 X1.131 Y-12.228 E32.77499
G1 X1.599 Y-12.587 E32.80442
G1 X1.958 Y-13.055 E32.83384
G1 X2.184 Y-13.601 E32.86332
G1 X2.261 Y-14.186 E32.89276
G1 X2.184 Y-14.771 E32.9222
G1 X1.958 Y-15.317 E32.95168
G1 X1.599 Y-15.785 E32.98111
G1 X1.131 Y-16.144 E33.01053
G1 X0.585 Y-16.37 E33.04002
G1 X0.00 Y-16.447 E33.06945
G1 X-.585 Y-16.37 E33.09889
G1 X-1.131 Y-16.144 E33.12837
G1 X-1.599 Y-15.785 E33.1578
M204 S5000
M205 X30 Y30
G0 F3600 X-1.72 Y-15.627
G0 X-2.115 Y-15.931
G0 X-2.163 Y-16.349
M204 S3000
M205 X20 Y20
;TYPE:SKIN
G1 F1500 X-2.648 Y-15.716 E33.19758
G1 X-2.954 Y-14.977 E33.23749
G1 X-3.058 Y-14.186 E33.27729
G1 X-2.954 Y-13.395 E33.31709
G1 X-2.648 Y-12.656 E33.357
G1 X-2.163 Y-12.023 E33.39678
G1 X-1.53 Y-11.538 E33.43657
G1 X-.791 Y-11.232 E33.47647
G1 X0.00 Y-11.128 E33.51627
G1 X0.791 Y-11.232 E33.55608
G1 X1.53 Y-11.538 E33.59598
G1 X2.163 Y-12.023 E33.63577
G1 X2.648 Y-12.656 E33.67555
G1 X2.954 Y-13.395 E33.71546
G1 X3.058 Y-14.186 E33.75526
G1 X2.954 Y-14.977 E33.79506
G1 X2.648 Y-15.716 E33.83497
G1 X2.163 Y-16.349 E33.87475
G1 X1.53 Y-16.834 E33.91453
G1 X0.791 Y-17.14 E33.95444
G1 X0.00 Y-17.244 E33.99424
G1 X-.791 Y-17.14 E34.03404
G1 X-1.53 Y-16.834 E34.07395
G1 X-2.163 Y-16.349 E34.11373
M204 S5000
M205 X30 Y30
G0 F3600 X-14.178 Y-19.219
M204 S3000
M205 X20 Y20
G1 F1500 X14.178 Y-19.219 E35.52842
G1 X14.178 Y19.219 E37.4461
G1 X-14.178 Y19.219 E38.86079
G1 X-14.178 Y-19.219 E40.77847
M204 S5000
M205 X30 Y30
G0 F3600 X0.00 Y11.084
M204 S3000
M205 X20 Y20
G1 F1500 X-.806 Y11.19 E40.81902
G1 X-1.559 Y11.502 E40.85969
G1 X-2.204 Y11.997 E40.90025
G1 X-2.698 Y12.642 E40.94078
G1 X-3.01 Y13.393 E40.98136
G1 X-3.116 Y14.2 E41.02196
G1 X-3.01 Y15.006 E41.06252
G1 X-2.698 Y15.759 E41.10319
G1 X-2.204 Y16.404 E41.14372
G1 X-1.559 Y16.898 E41.18425
G1 X-.806 Y17.21 E41.22492
G1 X0.00 Y17.316 E41.26547
G1 X0.806 Y17.21 E41.30603
G1 X1.559 Y16.898 E41.3467
G1 X2.204 Y16.404 E41.38723
G1 X2.698 Y15.759 E41.42776
G1 X3.01 Y15.006 E41.46843
G1 X3.116 Y14.2 E41.50898
G1 X3.01 Y13.393 E41.54959
G1 X2.698 Y12.642 E41.59016
G1 X2.204 Y11.997 E41.6307
G1 X1.559 Y11.502 E41.67126
G1 X0.806 Y11.19 E41.71192
G1 X0.00 Y11.084 E41.75248
M204 S5000
M205 X30 Y30
G0 F3600 X-.782 Y11.494
G0 X-13.771 Y19.038
M204 S3000
M205 X20 Y20
G1 F1500 X-13.997 Y18.811 E41.76846
M204 S5000
M205 X30 Y30
G0 F3600 X-13.997 Y18.246
M204 S3000
M205 X20 Y20
G1 F1500 X-13.205 Y19.038 E41.82434
G1 X-13.135 Y19.108
M204 S5000
M205 X30 Y30
G0 F3600 X-12.64 Y19.038
M204 S3000
M205 X20 Y20
G1 F1500 X-13.997 Y17.68 E41.92012
G1 X-14.067 Y17.61
M204 S5000
M205 X30 Y30
G0 F3600 X-13.997 Y17.114
M204 S3000
M205 X20 Y20
G1 F1500 X-12.074 Y19.038 E42.05583
G1 X-12.004 Y19.108
M204 S5000
M205 X30 Y30
G0 F3600 X-11.508 Y19.038
M204 S3000
M205 X20 Y20
G1 F1500 X-13.997 Y16.549 E42.23145
G1 X-14.067 Y16.479
M204 S5000
M205 X30 Y30
G0 F3600 X-13.997 Y15.983
M204 S3000
M205 X20 Y20
G1 F1500 X-10.943 Y19.038 E42.44696
G1 X-10.873 Y19.108
M204 S5000
M205 X30 Y30
G0 F3600 X-10.377 Y19.038
M204 S3000
M205 X20 Y20
G1 F1500 X-13.997 Y15.417 E42.7024
G1 X-14.067 Y15.347
M204 S5000
M205 X30 Y30
G0 F3600 X-13.997 Y14.852
M204 S3000
M205 X20 Y20
G1 F1500 X-9.811 Y19.038 E42.99775
G1 X-9.741 Y19.108
M204 S5000
M205 X30 Y30
G0 F3600 X-9.246 Y19.038
M204 S3000
M205 X20 Y20
G1 F1500 X-13.997 Y14.286 E43.33299
G1 X-14.067 Y14.216
M204 S5000
M205 X30 Y30
G0 F3600 X-13.997 Y13.72
M204 S3000
M205 X20 Y20
G1 F1500 X-8.68 Y19.038 E43.70817
G1 X-8.61 Y19.108
M204 S5000
M205 X30 Y30
G0 F3600 X-8.114 Y19.038
M204 S3000
M205 X20 Y20
G1 F1500 X-13.997 Y13.155 E44.12325
G1 X-14.067 Y13.085
M204 S5000
M205 X30 Y30
G0 F3600 X-13.997 Y12.589
M204 S3000
M205 X20 Y20
G1 F1500 X-7.549 Y19.038 E44.57823
G1 X-7.479 Y19.108
M204 S5000
M205 X30 Y30
G0 F3600 X-6.983 Y19.038
M204 S3000
M205 X20 Y20
G1 F1500 X-13.997 Y12.023 E45.07314
G1 X-14.067 Y11.953
M204 S5000
M205 X30 Y30
G0 F3600 X-13.997 Y11.457
M204 S3000
M205 X20 Y20
G1 F1500 X-6.417 Y19.038 E45.60798
G1 X-6.347 Y19.108
M204 S5000
M205 X30 Y30
G0 F3600 X-5.852 Y19.038
M204 S3000
M205 X20 Y20
G1 F1500 X-13.997 Y10.892 E46.18269
G1 X-14.067 Y10.822
M204 S5000
M205 X30 Y30
G0 F3600 X-13.997 Y10.326
M204 S3000
M205 X20 Y20
G1 F1500 X-5.286 Y19.038 E46.79733
G1 X-5.216 Y19.108
M204 S5000
M205 X30 Y30
G0 F3600 X-4.72 Y19.038
M204 S3000
M205 X20 Y20
G1 F1500 X-13.997 Y9.76 E47.45191
G1 X-14.067 Y9.69
M204 S5000
M205 X30 Y30
G0 F3600 X-13.997 Y9.195
M204 S3000
M205 X20 Y20
G1 F1500 X-4.154 Y19.038 E48.14639
G1 X-4.084 Y19.108
M204 S5000
M205 X30 Y30
G0 F3600 X-3.589 Y19.038
M204 S3000
M205 X20 Y20
G1 F1500 X-13.997 Y8.629 E48.88076
G1 X-14.067 Y8.559
M204 S5000
M205 X30 Y30
G0 F3600 X-13.997 Y8.063
M204 S3000
M205 X20 Y20
G1 F1500 X-3.023 Y19.038 E49.65508
G1 X-2.953 Y19.108
M204 S5000
M205 X30 Y30
G0 F3600 X-2.457 Y19.038
M204 S3000
M205 X20 Y20
G1 F1500 X-13.997 Y7.498 E50.46928
G1 X-14.067 Y7.428
M204 S5000
M205 X30 Y30
G0 F3600 X-13.997 Y6.932
M204 S3000
M205 X20 Y20
G1 F1500 X-1.892 Y19.038 E51.32339
G1 X-1.822 Y19.108
M204 S5000
M205 X30 Y30
G0 F3600 X-1.326 Y19.038
M204 S3000
M205 X20 Y20
G1 F1500 X-13.997 Y6.366 E52.21744
G1 X-14.067 Y6.296
M204 S5000
M205 X30 Y30
G0 F3600 X-13.997 Y5.801
M204 S3000
M205 X20 Y20
G1 F1500 X-.76 Y19.038 E53.15138
G1 X-.69 Y19.108
M204 S5000
M205 X30 Y30
G0 F3600 X-.195 Y19.038
M204 S3000
M205 X20 Y20
G1 F1500 X-13.997 Y5.235 E54.12522
G1 X-14.067 Y5.165
M204 S5000
M205 X30 Y30
G0 F3600 X-13.997 Y4.669
M204 S3000
M205 X20 Y20
G1 F1500 X-2.882 Y15.785 E54.90948
G1 X-2.812 Y15.855
M204 S5000
M205 X30 Y30
G0 F3600 X-3.205 Y14.896
M204 S3000
M205 X20 Y20
G1 F1500 X-13.997 Y4.104 E55.67091
G1 X-14.067 Y4.034
M204 S5000
M205 X30 Y30
G0 F3600 X-13.997 Y3.538
M204 S3000
M205 X20 Y20
G1 F1500 X-3.291 Y14.244 E56.42628
G1 X-3.221 Y14.314
M204 S5000
M205 X30 Y30
G0 F3600 X-3.236 Y13.734
M204 S3000
M205 X20 Y20
G1 F1500 X-13.997 Y2.972 E57.18556
G1 X-14.067 Y2.902
M204 S5000
M205 X30 Y30
G0 F3600 X-13.997 Y2.406
M204 S3000
M205 X20 Y20
G1 F1500 X-3.148 Y13.256 E57.95105
G1 X-3.078 Y13.326
M204 S5000
M205 X30 Y30
G0 F3600 X-2.982 Y12.856
M204 S3000
M205 X20 Y20
G1 F1500 X-13.997 Y1.841 E58.72822
G1 X-14.067 Y1.771
M204 S5000
M205 X30 Y30
G0 F3600 X-13.997 Y1.275
M204 S3000
M205 X20 Y20
G1 F1500 X-2.797 Y12.476 E59.51847
G1 X-2.727 Y12.546
M204 S5000
M205 X30 Y30
G0 F3600 X-2.552 Y12.155
M204 S3000
M205 X20 Y20
G1 F1500 X-13.997 Y0.709 E60.32602
G1 X-14.067 Y0.639
M204 S5000
M205 X30 Y30
G0 F3600 X-13.997 Y0.144
M204 S3000
M205 X20 Y20
G1 F1500 X-2.3 Y11.841 E61.1513
G1 X-2.23 Y11.911
M204 S5000
M205 X30 Y30
G0 F3600 X-1.979 Y11.596
M204 S3000
M205 X20 Y20
G1 F1500 X-13.997 Y-.421 E61.9992
G1 X-14.067 Y-.491
M204 S5000
M205 X30 Y30
G0 F3600 X-13.997 Y-.987
M204 S3000
M205 X20 Y20
G1 F1500 X-1.659 Y11.351 E62.86971
G1 X-1.589 Y11.421
M204 S5000
M205 X30 Y30
G0 F3600 X-1.262 Y11.182
M204 S3000
M205 X20 Y20
G1 F1500 X-13.997 Y-1.552 E63.7682
G1 X-14.067 Y-1.622
M204 S5000
M205 X30 Y30
G0 F3600 X-13.997 Y-2.118
M204 S3000
M205 X20 Y20
G1 F1500 X-.861 Y11.017 E64.69498
G1 X-.791 Y11.087
M204 S5000
M205 X30 Y30
G0 F3600 X-.364 Y10.948
M204 S3000
M205 X20 Y20
G1 F1500 X-13.997 Y-2.684 E65.65683
G1 X-14.067 Y-2.754
M204 S5000
M205 X30 Y30
G0 F3600 X-13.997 Y-3.249
M204 S3000
M205 X20 Y20
G1 F1500 X0.176 Y10.924 E66.65681
G1 X0.246 Y10.994
M204 S5000
M205 X30 Y30
G0 F3600 X0.828 Y11.011
M204 S3000
M205 X20 Y20
G1 F1500 X-13.997 Y-3.815 E67.70283
G1 X-14.067 Y-3.885
M204 S5000
M205 X30 Y30
G0 F3600 X-13.997 Y-4.381
M204 S3000
M205 X20 Y20
G1 F1500 X1.981 Y11.597 E68.83016
G1 X2.051 Y11.667
M204 S5000
M205 X30 Y30
G0 F3600 X2.599 Y12.215
M204 S3000
M205 X20 Y20
G1 F1500 X9.421 Y19.038 E69.31153
G1 X9.491 Y19.108
M204 S5000
M205 X30 Y30
G0 F3600 X8.855 Y19.038
M204 S3000
M205 X20 Y20
G1 F1500 X3.188 Y13.37 E69.7114
G1 X3.118 Y13.3
M204 S5000
M205 X30 Y30
G0 F3600 X3.274 Y14.022
M204 S3000
M205 X20 Y20
G1 F1500 X8.29 Y19.038 E70.06531
G1 X8.36 Y19.108
M204 S5000
M205 X30 Y30
G0 F3600 X7.724 Y19.038
M204 S3000
M205 X20 Y20
G1 F1500 X3.249 Y14.562 E70.38108
G1 X3.179 Y14.492
M204 S5000
M205 X30 Y30
G0 F3600 X3.181 Y15.06
M204 S3000
M205 X20 Y20
G1 F1500 X7.158 Y19.038 E70.66171
G1 X7.228 Y19.108
M204 S5000
M205 X30 Y30
G0 F3600 X6.593 Y19.038
M204 S3000
M205 X20 Y20
G1 F1500 X3.015 Y15.46 E70.91416
G1 X2.945 Y15.39
M204 S5000
M205 X30 Y30
G0 F3600 X2.847 Y15.858
M204 S3000
M205 X20 Y20
G1 F1500 X6.027 Y19.038 E71.13852
G1 X6.097 Y19.108
M204 S5000
M205 X30 Y30
G0 F3600 X5.461 Y19.038
M204 S3000
