;FLAVOR:Marlin
;TIME:9757
;Filament used: 5.11153m
;Layer height: 0.1
;Generated with Cura_SteamEngine 3.4.1
M190 S40
M104 S200
M109 S200
M82 ;absolute extrusion mode
G28 ;Home
G1 Z15.0 F6000 ;Move the platform down 15mm
G29 Z0.4 ;auto-level
G92 E0
G1 F200 E3
G92 E0
G92 E0
G1 F2400 E-4.5
;LAYER_COUNT:306
;LAYER:0
M107
M204 S5000
M205 X30 Y30
G0 F3600 X32.44 Y-21.072 Z0.3
M204 S3000
M205 X20 Y20
;TYPE:SKIRT
G1 F2400 E0
G1 F1500 X32.975 Y-21.032 E0.02677
G1 X33.498 Y-20.913 E0.05353
G1 X33.997 Y-20.718 E0.08025
G1 X34.462 Y-20.45 E0.10703
G1 X34.882 Y-20.117 E0.13377
G1 X35.248 Y-19.725 E0.16053
G1 X35.551 Y-19.283 E0.18726
G1 X35.786 Y-18.8 E0.21406
G1 X35.946 Y-18.289 E0.24077
G1 X36.029 Y-17.759 E0.26754
G1 X36.04 Y-17.472 E0.28187
G1 X36.04 Y17.473 E2.02528
G1 X36 Y18.008 E2.05205
G1 X35.881 Y18.531 E2.07881
G1 X35.686 Y19.03 E2.10553
G1 X35.418 Y19.495 E2.13231
G1 X35.085 Y19.915 E2.15905
G1 X34.693 Y20.281 E2.18581
G1 X34.251 Y20.584 E2.21254
G1 X33.768 Y20.819 E2.23934
G1 X33.257 Y20.979 E2.26606
G1 X32.727 Y21.062 E2.29282
G1 X32.44 Y21.073 E2.30715
G1 X-32.44 Y21.073 E5.54402
G1 X-32.975 Y21.033 E5.57079
G1 X-33.498 Y20.914 E5.59755
G1 X-33.997 Y20.719 E5.62428
G1 X-34.462 Y20.451 E5.65105
G1 X-34.882 Y20.118 E5.6778
G1 X-35.248 Y19.726 E5.70455
G1 X-35.551 Y19.284 E5.73129
G1 X-35.786 Y18.801 E5.75809
G1 X-35.946 Y18.29 E5.7848
G1 X-36.029 Y17.76 E5.81156
G1 X-36.04 Y17.473 E5.82589
G1 X-36.04 Y-17.473 E7.56936
G1 X-36 Y-18.008 E7.59612
G1 X-35.881 Y-18.531 E7.62288
G1 X-35.686 Y-19.03 E7.64961
G1 X-35.418 Y-19.495 E7.67639
G1 X-35.085 Y-19.915 E7.70313
G1 X-34.693 Y-20.281 E7.72988
G1 X-34.251 Y-20.584 E7.75662
G1 X-33.768 Y-20.819 E7.78342
G1 X-33.257 Y-20.979 E7.81013
G1 X-32.727 Y-21.062 E7.83689
G1 X-32.44 Y-21.073 E7.85122
G1 X32.44 Y-21.072 E11.0881
M204 S5000
M205 X30 Y30
G0 F3600 X32.44 Y-20.672
M204 S3000
M205 X20 Y20
G1 F1500 X32.944 Y-20.632 E11.11332
G1 X33.435 Y-20.513 E11.13853
G1 X33.902 Y-20.318 E11.16378
G1 X34.332 Y-20.053 E11.18898
G1 X34.715 Y-19.723 E11.2142
G1 X35.041 Y-19.336 E11.23944
G1 X35.302 Y-18.903 E11.26467
G1 X35.492 Y-18.435 E11.28987
G1 X35.605 Y-17.942 E11.3151
G1 X35.64 Y-17.472 E11.33861
G1 X35.64 Y17.473 E13.08203
G1 X35.6 Y17.977 E13.10725
G1 X35.481 Y18.468 E13.13246
G1 X35.287 Y18.935 E13.15768
G1 X35.021 Y19.365 E13.18291
G1 X34.691 Y19.748 E13.20813
G1 X34.304 Y20.074 E13.23338
G1 X33.871 Y20.335 E13.2586
G1 X33.403 Y20.525 E13.2838
G1 X32.91 Y20.638 E13.30903
G1 X32.44 Y20.673 E13.33255
G1 X-32.44 Y20.673 E16.56942
G1 X-32.944 Y20.633 E16.59465
G1 X-33.435 Y20.514 E16.61985
G1 X-33.902 Y20.32 E16.64508
G1 X-34.332 Y20.054 E16.67031
G1 X-34.715 Y19.724 E16.69553
G1 X-35.041 Y19.337 E16.72078
G1 X-35.302 Y18.904 E16.746
G1 X-35.492 Y18.436 E16.7712
G1 X-35.605 Y17.943 E16.79643
G1 X-35.64 Y17.473 E16.81994
G1 X-35.64 Y-17.473 E18.56341
G1 X-35.6 Y-17.977 E18.58863
G1 X-35.481 Y-18.468 E18.61384
G1 X-35.287 Y-18.935 E18.63907
G1 X-35.021 Y-19.365 E18.66429
G1 X-34.691 Y-19.748 E18.68951
G1 X-34.304 Y-20.074 E18.71476
G1 X-33.871 Y-20.335 E18.73998
G1 X-33.403 Y-20.525 E18.76518
G1 X-32.91 Y-20.638 E18.79042
G1 X-32.44 Y-20.673 E18.81393
G1 X32.44 Y-20.672 E22.05081
M204 S5000
M205 X30 Y30
G1 F2400 E17.55081
G0 F3600 X31.835 Y-18.147
G0 X31.835 Y-16.868
G0 X23.709 Y-4.558
G0 X23.734 Y-4.462
M204 S3000
M205 X20 Y20
;TYPE:WALL-INNER
G1 F2400 E22.05081
G1 F1500 X22.619 Y-4 E22.11102
G1 X21.663 Y-3.266 E22.17115
G1 X20.929 Y-2.31 E22.23128
G1 X20.467 Y-1.195 E22.2915
G1 X20.31 Y0.00 E22.35163
G1 X20.467 Y1.195 E22.41176
G1 X20.929 Y2.31 E22.47197
G1 X21.663 Y3.266 E22.5321
G1 X22.619 Y4 E22.59223
G1 X23.734 Y4.462 E22.65245
G1 X24.929 Y4.618 E22.71257
G1 X26.123 Y4.462 E22.77265
G1 X27.238 Y4 E22.83286
G1 X28.195 Y3.266 E22.89303
G1 X28.928 Y2.31 E22.95313
G1 X29.39 Y1.195 E23.01335
G1 X29.547 Y0.00 E23.07348
G1 X29.39 Y-1.195 E23.13361
G1 X28.928 Y-2.31 E23.19382
G1 X28.195 Y-3.266 E23.25393
G1 X27.238 Y-4 E23.3141
G1 X26.123 Y-4.462 E23.37431
G1 X24.929 Y-4.618 E23.43439
G1 X23.734 Y-4.462 E23.49451
M204 S5000
M205 X30 Y30
G0 F3600 X23.709 Y-4.558
G0 X24.929 Y-4.658
G0 X26.133 Y-4.5
G0 X27.257 Y-4.034
G0 X28.223 Y-3.294
G0 X28.962 Y-2.329
G0 X29.381 Y-1.318
G0 X31.779 Y16.812
G0 X31.849 Y16.882
M204 S3000
M205 X20 Y20
G1 F1500 X-31.849 Y16.882 E26.67242
G1 X-31.849 Y-16.882 E28.35691
G1 X31.849 Y-16.882 E31.53481
G1 X31.849 Y16.882 E33.21931
M204 S5000
M205 X30 Y30
G0 F3600 X31.779 Y16.812
G0 X-23.742 Y4.549
G0 X-23.767 Y4.453
M204 S3000
M205 X20 Y20
G1 F1500 X-22.655 Y3.992 E33.27936
G1 X-21.7 Y3.259 E33.33943
G1 X-20.968 Y2.305 E33.39942
G1 X-20.507 Y1.192 E33.45952
G1 X-20.351 Y0.00 E33.5195
G1 X-20.507 Y-1.192 E33.57947
G1 X-20.968 Y-2.305 E33.63957
G1 X-21.7 Y-3.259 E33.69957
G1 X-22.655 Y-3.992 E33.75963
G1 X-23.767 Y-4.453 E33.81968
G1 X-24.96 Y-4.609 E33.87971
G1 X-26.152 Y-4.453 E33.93969
G1 X-27.265 Y-3.992 E33.99979
G1 X-28.219 Y-3.259 E34.05981
G1 X-28.952 Y-2.305 E34.11983
G1 X-29.413 Y-1.192 E34.17994
G1 X-29.569 Y0.00 E34.23991
G1 X-29.413 Y1.192 E34.29989
G1 X-28.952 Y2.305 E34.35999
G1 X-28.219 Y3.259 E34.42001
G1 X-27.265 Y3.992 E34.48003
G1 X-26.152 Y4.453 E34.54014
G1 X-24.96 Y4.609 E34.60011
G1 X-23.767 Y4.453 E34.66014
M204 S5000
M205 X30 Y30
G0 F3600 X-23.742 Y4.549
G0 X-24.96 Y4.649
G0 X-26.162 Y4.491
G0 X-27.285 Y4.026
G0 X-28.247 Y3.287
G0 X-28.986 Y2.325
G0 X-29.451 Y1.202
G0 X-29.609 Y0.00
G0 X-29.451 Y-1.202
G0 X-28.986 Y-2.325
G0 X-28.321 Y-3.19
G0 X-27.254 Y-4.104
G0 X-27.063 Y-3.643
M204 S3000
M205 X20 Y20
;TYPE:WALL-OUTER
G1 F1500 X-27.934 Y-2.974 E34.71493
G1 X-28.603 Y-2.103 E34.76972
G1 X-29.023 Y-1.088 E34.82453
G1 X-29.166 Y0.00 E34.87927
G1 X-29.023 Y1.088 E34.93402
G1 X-28.603 Y2.103 E34.98882
G1 X-27.934 Y2.974 E35.04362
G1 X-27.063 Y3.643 E35.09841
G1 X-26.048 Y4.063 E35.15321
G1 X-24.96 Y4.206 E35.20796
G1 X-23.871 Y4.063 E35.26276
G1 X-22.857 Y3.643 E35.31751
G1 X-21.985 Y2.974 E35.37235
G1 X-21.317 Y2.103 E35.42711
G1 X-20.897 Y1.088 E35.48191
G1 X-20.754 Y0.00 E35.53666
G1 X-20.897 Y-1.088 E35.59141
G1 X-21.317 Y-2.103 E35.64621
G1 X-21.985 Y-2.974 E35.70097
G1 X-22.857 Y-3.643 E35.7558
G1 X-23.871 Y-4.063 E35.81056
G1 X-24.96 Y-4.206 E35.86536
G1 X-26.048 Y-4.063 E35.92011
G1 X-27.063 Y-3.643 E35.97491
M204 S5000
M205 X30 Y30
G0 F3600 X-27.221 Y-3.522
G0 X-27.524 Y-3.919
G0 X-26.162 Y-4.491
G0 X-24.96 Y-4.649
G0 X20.907 Y2.33
G0 X21.635 Y3.294
G0 X22.599 Y4.034
G0 X23.724 Y4.5
G0 X24.929 Y4.658
G0 X26.133 Y4.5
G0 X27.144 Y4.081
G0 X28.305 Y3.285
G0 X27.91 Y2.981
M204 S3000
M205 X20 Y20
G1 F1500 X28.579 Y2.108 E36.02978
G1 X29 Y1.091 E36.08469
G1 X29.144 Y0.00 E36.1396
G1 X29 Y-1.091 E36.1945
G1 X28.579 Y-2.108 E36.24941
G1 X27.91 Y-2.981 E36.30428
G1 X27.036 Y-3.651 E36.35923
G1 X26.019 Y-4.072 E36.41414
G1 X24.929 Y-4.215 E36.46899
G1 X23.838 Y-4.072 E36.52388
G1 X22.821 Y-3.651 E36.5788
G1 X21.948 Y-2.981 E36.6337
G1 X21.278 Y-2.108 E36.6886
G1 X20.857 Y-1.091 E36.74352
G1 X20.713 Y0.00 E36.79842
G1 X20.857 Y1.091 E36.85332
G1 X21.278 Y2.108 E36.90823
G1 X21.948 Y2.981 E36.96314
G1 X22.821 Y3.651 E37.01804
G1 X23.838 Y4.072 E37.07295
G1 X24.929 Y4.215 E37.12785
G1 X26.019 Y4.072 E37.1827
G1 X27.036 Y3.651 E37.23761
G1 X27.91 Y2.981 E37.29255
M204 S5000
M205 X30 Y30
G0 F3600 X28.031 Y2.823
G0 X28.426 Y3.127
G0 X31.779 Y16.812
G0 X32.249 Y17.282
M204 S3000
M205 X20 Y20
G1 F1500 X-32.249 Y17.282 E40.51037
G1 X-32.249 Y-17.282 E42.23477
G1 X32.249 Y-17.282 E45.45259
G1 X32.249 Y17.282 E47.177
M204 S5000
M205 X30 Y30
G0 F3600 X32.049 Y17.282
G0 X31.779 Y16.812
G0 X31.459 Y16.492
M204 S3000
M205 X20 Y20
;TYPE:SKIN
G1 F1500 X-31.459 Y16.492 E50.31599
G1 X-31.459 Y-16.492 E51.96157
G1 X31.459 Y-16.492 E55.10056
G1 X31.459 Y16.492 E56.74614
M204 S5000
M205 X30 Y30
G0 F3600 X26.225 Y4.842
M204 S3000
M205 X20 Y20
G1 F1500 X27.435 Y4.341 E56.81148
G1 X28.474 Y3.545 E56.87678
G1 X29.269 Y2.507 E56.942
G1 X29.77 Y1.297 E57.00734
G1 X29.941 Y0.00 E57.07261
G1 X29.77 Y-1.297 E57.13788
G1 X29.269 Y-2.507 E57.20321
G1 X28.474 Y-3.545 E57.26844
G1 X27.435 Y-4.341 E57.33374
G1 X26.225 Y-4.842 E57.39908
G1 X24.929 Y-5.012 E57.46429
G1 X23.632 Y-4.842 E57.52955
G1 X22.422 Y-4.341 E57.59489
G1 X21.384 Y-3.545 E57.66015
G1 X20.588 Y-2.507 E57.72541
G1 X20.087 Y-1.297 E57.79075
G1 X19.916 Y0.00 E57.85602
G1 X20.087 Y1.297 E57.92128
G1 X20.588 Y2.507 E57.98662
G1 X21.384 Y3.545 E58.05188
G1 X22.422 Y4.341 E58.11714
G1 X23.632 Y4.842 E58.18248
G1 X24.929 Y5.012 E58.24774
G1 X26.225 Y4.842 E58.31295
M204 S5000
M205 X30 Y30
G0 F3600 X-20.127 Y1.294
M204 S3000
M205 X20 Y20
G1 F1500 X-19.957 Y0.00 E58.37806
G1 X-20.127 Y-1.294 E58.44318
G1 X-20.627 Y-2.502 E58.5084
G1 X-21.421 Y-3.538 E58.57352
G1 X-22.458 Y-4.333 E58.63871
G1 X-23.665 Y-4.833 E58.70389
G1 X-24.96 Y-5.003 E58.76905
G1 X-26.254 Y-4.833 E58.83417
G1 X-27.462 Y-4.333 E58.89939
G1 X-28.498 Y-3.538 E58.96454
G1 X-29.293 Y-2.502 E59.02969
G1 X-29.793 Y-1.294 E59.09492
G1 X-29.963 Y0.00 E59.16003
G1 X-29.793 Y1.294 E59.22514
G1 X-29.293 Y2.502 E59.29037
G1 X-28.498 Y3.538 E59.35552
G1 X-27.462 Y4.333 E59.42067
G1 X-26.254 Y4.833 E59.4859
G1 X-24.96 Y5.003 E59.55101
G1 X-23.665 Y4.833 E59.61617
G1 X-22.458 Y4.333 E59.68135
G1 X-21.421 Y3.538 E59.74654
G1 X-20.627 Y2.502 E59.81166
G1 X-20.127 Y1.294 E59.87689
M204 S5000
M205 X30 Y30
G0 F3600 X-31.278 Y16.239
G0 X-31.242 Y16.275
G1 F1500 X-30.959 Y15.992 E59.90195
M204 S3000
M205 X20 Y20
G1 X-31.348 Y15.603
M204 S5000
M205 X30 Y30
G0 F3600 X-31.278 Y15.108
M204 S3000
M205 X20 Y20
G1 F1500 X-30.074 Y16.311 E59.98686
G1 X-30.004 Y16.381
M204 S5000
M205 X30 Y30
G0 F3600 X-29.508 Y16.311
M204 S3000
M205 X20 Y20
G1 F1500 X-31.278 Y14.542 E60.11171
G1 X-31.348 Y14.472
M204 S5000
M205 X30 Y30
G0 F3600 X-31.278 Y13.976
M204 S3000
M205 X20 Y20
G1 F1500 X-28.943 Y16.311 E60.27646
G1 X-28.873 Y16.381
M204 S5000
M205 X30 Y30
G0 F3600 X-28.377 Y16.311
M204 S3000
M205 X20 Y20
G1 F1500 X-31.278 Y13.41 E60.48114
G1 X-31.348 Y13.34
M204 S5000
M205 X30 Y30
G0 F3600 X-31.278 Y12.845
M204 S3000
M205 X20 Y20
G1 F1500 X-27.811 Y16.311 E60.72572
G1 X-27.741 Y16.381
M204 S5000
M205 X30 Y30
G0 F3600 X-27.246 Y16.311
M204 S3000
M205 X20 Y20
G1 F1500 X-31.278 Y12.279 E61.0102
G1 X-31.348 Y12.209
M204 S5000
M205 X30 Y30
G0 F3600 X-31.278 Y11.713
M204 S3000
M205 X20 Y20
G1 F1500 X-26.68 Y16.311 E61.33461
G1 X-26.61 Y16.381
M204 S5000
M205 X30 Y30
G0 F3600 X-26.114 Y16.311
M204 S3000
M205 X20 Y20
G1 F1500 X-31.278 Y11.148 E61.69892
G1 X-31.348 Y11.078
M204 S5000
M205 X30 Y30
G0 F3600 X-31.278 Y10.582
M204 S3000
M205 X20 Y20
G1 F1500 X-25.549 Y16.311 E62.10313
G1 X-25.479 Y16.381
M204 S5000
M205 X30 Y30
G0 F3600 X-24.983 Y16.311
M204 S3000
M205 X20 Y20
G1 F1500 X-31.278 Y10.016 E62.54728
G1 X-31.348 Y9.946
M204 S5000
M205 X30 Y30
G0 F3600 X-31.278 Y9.451
M204 S3000
M205 X20 Y20
G1 F1500 X-24.417 Y16.311 E63.03133
G1 X-24.347 Y16.381
M204 S5000
M205 X30 Y30
G0 F3600 X-23.852 Y16.311
M204 S3000
M205 X20 Y20
G1 F1500 X-31.278 Y8.885 E63.55527
G1 X-31.348 Y8.815
M204 S5000
M205 X30 Y30
G0 F3600 X-31.278 Y8.319
M204 S3000
M205 X20 Y20
G1 F1500 X-23.286 Y16.311 E64.11915
G1 X-23.216 Y16.381
M204 S5000
M205 X30 Y30
G0 F3600 X-22.72 Y16.311
M204 S3000
M205 X20 Y20
G1 F1500 X-31.278 Y7.754 E64.72293
G1 X-31.348 Y7.684
M204 S5000
M205 X30 Y30
G0 F3600 X-31.278 Y7.188
M204 S3000
M205 X20 Y20
G1 F1500 X-22.155 Y16.311 E65.3666
G1 X-22.085 Y16.381
M204 S5000
M205 X30 Y30
G0 F3600 X-21.589 Y16.311
M204 S3000
M205 X20 Y20
G1 F1500 X-31.278 Y6.622 E66.05022
G1 X-31.348 Y6.552
M204 S5000
M205 X30 Y30
G0 F3600 X-31.278 Y6.057
M204 S3000
M205 X20 Y20
G1 F1500 X-21.023 Y16.311 E66.77373
G1 X-20.953 Y16.381
M204 S5000
M205 X30 Y30
G0 F3600 X-20.458 Y16.311
M204 S3000
M205 X20 Y20
G1 F1500 X-31.278 Y5.491 E67.53714
G1 X-31.348 Y5.421
M204 S5000
M205 X30 Y30
G0 F3600 X-31.278 Y4.925
M204 S3000
M205 X20 Y20
G1 F1500 X-19.892 Y16.311 E68.34048
G1 X-19.822 Y16.381
M204 S5000
M205 X30 Y30
G0 F3600 X-19.326 Y16.311
M204 S3000
M205 X20 Y20
G1 F1500 X-31.278 Y4.36 E69.18372
G1 X-31.348 Y4.29
M204 S5000
M205 X30 Y30
G0 F3600 X-31.278 Y3.794
M204 S3000
M205 X20 Y20
G1 F1500 X-18.76 Y16.311 E70.0669
G1 X-18.69 Y16.381
M204 S5000
M205 X30 Y30
G0 F3600 X-18.195 Y16.311
M204 S3000
M205 X20 Y20
G1 F1500 X-31.278 Y3.228 E70.98998
G1 X-31.348 Y3.158
M204 S5000
M205 X30 Y30
G0 F3600 X-31.278 Y2.662
M204 S3000
M205 X20 Y20
G1 F1500 X-17.629 Y16.311 E71.95299
G1 X-17.559 Y16.381
M204 S5000
M205 X30 Y30
G0 F3600 X-17.063 Y16.311
M204 S3000
M205 X20 Y20
G1 F1500 X-31.278 Y2.097 E72.9559
G1 X-31.348 Y2.027
M204 S5000
M205 X30 Y30
G0 F3600 X-31.278 Y1.531
M204 S3000
M205 X20 Y20
G1 F1500 X-16.498 Y16.311 E73.9987
G1 X-16.428 Y16.381
M204 S5000
M205 X30 Y30
G0 F3600 X-15.932 Y16.311
M204 S3000
M205 X20 Y20
G1 F1500 X-28.414 Y3.829 E74.87938
G1 X-28.484 Y3.759
M204 S5000
M205 X30 Y30
G0 F3600 X-28.788 Y3.455
M204 S3000
M205 X20 Y20
G1 F1500 X-31.278 Y0.965 E75.05506
G1 X-31.348 Y0.895
M204 S5000
M205 X30 Y30
G0 F3600 X-31.278 Y0.4
M204 S3000
M205 X20 Y20
G1 F1500 X-29.706 Y1.971 E75.16594
G1 X-29.636 Y2.041
M204 S5000
M205 X30 Y30
G0 F3600 X-29.996 Y1.115
M204 S3000
M205 X20 Y20
G1 F1500 X-31.278 Y-.165 E75.25632
G1 X-31.348 Y-.235
M204 S5000
M205 X30 Y30
G0 F3600 X-31.278 Y-.731
M204 S3000
M205 X20 Y20
G1 F1500 X-30.082 Y0.464 E75.34067
G1 X-30.012 Y0.534
M204 S5000
M205 X30 Y30
G0 F3600 X-30.124 Y-.143
M204 S3000
M205 X20 Y20
G1 F1500 X-31.278 Y-1.296 E75.42205
G1 X-31.348 Y-1.366
M204 S5000
M205 X30 Y30
G0 F3600 X-31.278 Y-1.862
M204 S3000
M205 X20 Y20
G1 F1500 X-30.059 Y-.643 E75.50806
G1 X-29.989 Y-.573
M204 S5000
M205 X30 Y30
G0 F3600 X-29.993 Y-1.143
M204 S3000
M205 X20 Y20
G1 F1500 X-31.278 Y-2.428 E75.59872
G1 X-31.348 Y-2.498
M204 S5000
M205 X30 Y30
G0 F3600 X-31.278 Y-2.993
M204 S3000
M205 X20 Y20
G1 F1500 X-29.867 Y-1.583 E75.69824
G1 X-29.797 Y-1.513
M204 S5000
M205 X30 Y30
G0 F3600 X-29.702 Y-1.983
M204 S3000
M205 X20 Y20
G1 F1500 X-31.278 Y-3.559 E75.80944
G1 X-31.348 Y-3.629
M204 S5000
M205 X30 Y30
G0 F3600 X-31.278 Y-4.125
M204 S3000
M205 X20 Y20
G1 F1500 X-29.536 Y-2.383 E75.93235
G1 X-29.466 Y-2.313
M204 S5000
M205 X30 Y30
G0 F3600 X-29.332 Y-2.744
M204 S3000
M205 X20 Y20
G1 F1500 X-31.278 Y-4.69 E76.06965
G1 X-31.348 Y-4.76
M204 S5000
M205 X30 Y30
G0 F3600 X-31.278 Y-5.256
M204 S3000
M205 X20 Y20
G1 F1500 X-29.086 Y-3.065 E76.22427
G1 X-29.016 Y-2.995
M204 S5000
M205 X30 Y30
G0 F3600 X-28.841 Y-3.385
M204 S3000
M205 X20 Y20
G1 F1500 X-31.278 Y-5.822 E76.39621
G1 X-31.348 Y-5.892
M204 S5000
M205 X30 Y30
G0 F3600 X-31.278 Y-6.388
M204 S3000
M205 X20 Y20
G1 F1500 X-28.587 Y-3.697 E76.58608
G1 X-28.517 Y-3.627
M204 S5000
M205 X30 Y30
G0 F3600 X-28.267 Y-3.942
M204 S3000
M205 X20 Y20
G1 F1500 X-31.278 Y-6.953 E76.79852
G1 X-31.348 Y-7.023
M204 S5000
M205 X30 Y30
G0 F3600 X-31.278 Y-7.519
M204 S3000
M205 X20 Y20
G1 F1500 X-27.946 Y-4.188 E77.03357
G1 X-27.876 Y-4.118
M204 S5000
M205 X30 Y30
G0 F3600 X-27.626 Y-4.433
M204 S3000
M205 X20 Y20
G1 F1500 X-31.278 Y-8.085 E77.29124
G1 X-31.348 Y-8.155
M204 S5000
M205 X30 Y30
G0 F3600 X-31.278 Y-8.65
M204 S3000
M205 X20 Y20
G1 F1500 X-27.245 Y-4.618 E77.57576
G1 X-27.175 Y-4.548
M204 S5000
M205 X30 Y30
G0 F3600 X-26.845 Y-4.783
M204 S3000
M205 X20 Y20
G1 F1500 X-31.278 Y-9.216 E77.88853
G1 X-31.348 Y-9.286
M204 S5000
M205 X30 Y30
G0 F3600 X-31.278 Y-9.782
M204 S3000
M205 X20 Y20
G1 F1500 X-26.445 Y-4.949 E78.22952
G1 X-26.375 Y-4.879
M204 S5000
