;FLAVOR:Marlin
;TIME:8062
;Filament used: 4.0577m
;Layer height: 0.1
;Generated with Cura_SteamEngine 3.1.0
M190 S40
M104 S200
M109 S200
M82 ; absolute extrusion mode
G28 ;Home
G1 Z15.0 F6000 ;Move the platform down 15mm
G29 Z0.4 ;auto-level
G92 E0
G1 F200 E3
G92 E0
;LAYER_COUNT:74
;LAYER:0
M107
G0 F2400 X-2.016 Y25.756 Z0.3
;TYPE:SKIRT
G1 F1500 X-2.44 Y25.953 E0.02333
G1 X-33.428 Y37.055 E1.66555
G1 X-33.869 Y37.17 E1.68828
G1 X-34.323 Y37.207 E1.71101
G1 X-34.777 Y37.164 E1.73376
G1 X-35.197 Y37.049 E1.75549
G1 X-35.457 Y36.954 E1.7693
G1 X-35.87 Y36.761 E1.79204
G1 X-36.242 Y36.498 E1.81477
G1 X-36.563 Y36.175 E1.83749
G1 X-36.817 Y35.812 E1.85959
G1 X-52.352 Y8.908 E3.40953
G1 X-52.544 Y8.495 E3.43226
G1 X-52.661 Y8.055 E3.45497
G1 X-52.7 Y7.601 E3.4777
G1 X-52.613 Y6.942 E3.51087
G1 X-52.53 Y6.629 E3.52702
G1 X-52.375 Y6.2 E3.54978
G1 X-52.148 Y5.805 E3.57251
G1 X-51.855 Y5.456 E3.59524
G1 X-51.317 Y5.043 E3.62908
G1 X30.025 Y-41.92 E8.31505
G1 X30.438 Y-42.112 E8.33778
G1 X30.878 Y-42.229 E8.36049
G1 X31.332 Y-42.268 E8.38322
G1 X31.989 Y-42.182 E8.41628
G1 X32.292 Y-42.102 E8.43192
G1 X32.72 Y-41.947 E8.45463
G1 X33.115 Y-41.72 E8.47736
G1 X33.465 Y-41.428 E8.5001
G1 X33.879 Y-40.888 E8.53404
G1 X49.417 Y-13.986 E10.08397
G1 X49.61 Y-13.573 E10.10672
G1 X49.727 Y-13.133 E10.12943
G1 X49.766 Y-12.679 E10.15216
G1 X49.735 Y-12.285 E10.17188
G1 X49.69 Y-11.997 E10.18642
G1 X49.58 Y-11.554 E10.2092
G1 X49.395 Y-11.138 E10.23191
G1 X49.14 Y-10.76 E10.25466
G1 X48.802 Y-10.415 E10.27876
G1 X23.778 Y10.801 E11.91552
G1 X23.398 Y11.069 E11.93872
G1 X-2.016 Y25.756 E13.40313
G0 F2400 X-2.216 Y25.41
G1 F1500 X-2.575 Y25.576 E13.42286
G1 X-33.563 Y36.678 E15.06508
G1 X-33.969 Y36.781 E15.08598
G1 X-34.387 Y36.805 E15.10687
G1 X-34.803 Y36.75 E15.1278
G1 X-35.06 Y36.673 E15.14119
G1 X-35.32 Y36.578 E15.155
G1 X-35.698 Y36.398 E15.17589
G1 X-36.035 Y36.149 E15.19679
G1 X-36.319 Y35.84 E15.21773
G1 X-36.47 Y35.612 E15.23137
G1 X-52.005 Y8.708 E16.78131
G1 X-52.179 Y8.327 E16.80221
G1 X-52.278 Y7.92 E16.82311
G1 X-52.297 Y7.501 E16.84403
G1 X-52.227 Y7.044 E16.8671
G1 X-52.144 Y6.731 E16.88325
G1 X-51.998 Y6.338 E16.90417
G1 X-51.781 Y5.98 E16.92506
G1 X-51.499 Y5.669 E16.946
G1 X-51.117 Y5.39 E16.9696
G1 X30.225 Y-41.573 E21.65557
G1 X30.606 Y-41.747 E21.67647
G1 X31.013 Y-41.846 E21.69737
G1 X31.432 Y-41.865 E21.71829
G1 X31.887 Y-41.795 E21.74126
G1 X32.19 Y-41.715 E21.7569
G1 X32.583 Y-41.57 E21.77779
G1 X32.941 Y-41.353 E21.79868
G1 X33.252 Y-41.072 E21.81959
G1 X33.533 Y-40.688 E21.84333
G1 X49.071 Y-13.786 E23.39326
G1 X49.245 Y-13.405 E23.41416
G1 X49.344 Y-12.998 E23.43505
G1 X49.363 Y-12.579 E23.45598
G1 X49.34 Y-12.346 E23.46766
G1 X49.295 Y-12.058 E23.4822
G1 X49.191 Y-11.652 E23.50311
G1 X49.012 Y-11.273 E23.52402
G1 X48.764 Y-10.935 E23.54494
G1 X48.544 Y-10.72 E23.56029
G1 X23.52 Y10.496 E25.19705
G1 X23.198 Y10.723 E25.2167
G1 X-2.216 Y25.41 E26.68112
G0 F2400 X-3.48 Y23.376
;TYPE:SUPPORT
G1 F1500 X-34.297 Y34.407 E28.31411
G1 X-34.436 Y34.357 E28.32148
G1 X-49.896 Y7.58 E29.86406
G1 X-49.853 Y7.421 E29.87228
G1 X31.352 Y-39.464 E34.55039
G1 X31.511 Y-39.421 E34.55861
G1 X46.971 Y-12.642 E36.10128
G1 X46.948 Y-12.502 E36.10836
G1 X21.971 Y8.678 E37.74217
G1 X-3.48 Y23.376 E39.20845
G0 F2400 X-4.573 Y21.002
G1 F1500 X20.475 Y6.539 E40.65146
G1 X43.411 Y-12.912 E42.15182
G1 X43.503 Y-13.448 E42.17896
G1 X30.83 Y-35.401 E43.44359
G1 X30.411 Y-35.721 E43.46989
G1 X29.956 Y-35.633 E43.49301
G1 X29.889 Y-35.633 E43.49636
G1 X29.853 Y-35.596 E43.49893
G1 X-46.058 Y8.231 E47.87203
G1 X-46.204 Y8.776 E47.90018
G1 X-33.397 Y30.958 E49.17805
G1 X-32.887 Y31.146 E49.20516
G1 X-4.573 Y21.002 E50.70568
G0 F2400 X-5 Y21.324
G1 F1500 X-5 Y23.751 E50.82676
G0 F2400 X-7.5 Y24.646
G1 F1500 X-7.5 Y22.22 E50.94779
G0 F2400 X-8.279 Y22.5
G1 F1500 X-2.282 Y22.5 E51.24699
G0 F2400 X-2.5 Y22.626
G1 F1500 X-2.5 Y19.989 E51.37855
G0 F2400 X-2.518 Y20
G1 F1500 X2.046 Y20 E51.60624
G0 F2400 X2.5 Y19.739
G1 F1500 X2.5 Y17.102 E51.73781
G0 F2400 X1.811 Y17.5
G1 F1500 X6.374 Y17.5 E51.96545
G0 F2400 X7.5 Y16.851
G1 F1500 X7.5 Y14.215 E52.09696
G0 F2400 X6.14 Y15
G1 F1500 X10.703 Y15 E52.32461
G0 F2400 X10 Y15.407
G1 F1500 X10 Y12.771 E52.45612
G0 F2400 X10.47 Y12.5
G1 F1500 X15.032 Y12.5 E52.68372
G0 F2400 X15 Y12.52
G1 F1500 X15 Y9.884 E52.81523
G0 F2400 X14.799 Y10
G1 F1500 X19.361 Y10 E53.04283
G0 F2400 X20 Y9.632
G1 F1500 X20 Y6.997 E53.17429
G0 F2400 X19.128 Y7.5
G1 F1500 X23.111 Y7.5 E53.37301
G0 F2400 X22.5 Y8.02
G1 F1500 X22.5 Y5.03 E53.52218
G0 F2400 X22.536 Y5
G1 F1500 X26.059 Y5 E53.69794
G0 F2400 X25 Y5.9
G1 F1500 X25 Y2.91 E53.84711
G0 F2400 X25.484 Y2.5
G1 F1500 X29.008 Y2.5 E54.02293
G0 F2400 X30 Y1.66
G1 F1500 X30 Y-1.33 E54.1721
G0 F2400 X31.381 Y-2.499
G1 F1500 X34.904 Y-2.499 E54.34786
G0 F2400 X35 Y-2.58
G1 F1500 X35 Y-5.57 E54.49703
G0 F2400 X34.329 Y-4.999
G1 F1500 X37.852 Y-4.999 E54.6728
G0 F2400 X37.5 Y-4.7
G1 F1500 X37.5 Y-7.69 E54.82197
G0 F2400 X37.277 Y-7.499
G1 F1500 X40.801 Y-7.499 E54.99778
G0 F2400 X40 Y-6.82
G1 F1500 X40 Y-9.81 E55.14695
G0 F2400 X40.225 Y-9.999
G1 F1500 X43.749 Y-9.999 E55.32277
G0 F2400 X42.5 Y-8.94
G1 F1500 X42.5 Y-11.93 E55.47194
G0 F2400 X43.174 Y-12.499
G1 F1500 X46.697 Y-12.499 E55.6477
G0 F2400 X45 Y-11.06
G1 F1500 X45 Y-15.735 E55.88094
G0 F2400 X45.425 Y-14.999
G1 F1500 X42.79 Y-14.999 E56.0124
G0 F2400 X42.5 Y-15.504
G1 F1500 X42.5 Y-20.066 E56.24
G0 F2400 X42.538 Y-19.999
G1 F1500 X39.904 Y-19.999 E56.37141
G0 F2400 X40 Y-19.836
G1 F1500 X40 Y-24.396 E56.59891
G0 F2400 X39.652 Y-24.999
G1 F1500 X37.018 Y-24.999 E56.73032
G0 F2400 X37.5 Y-24.167
G1 F1500 X37.5 Y-28.727 E56.95782
G0 F2400 X38.208 Y-27.499
G1 F1500 X35.574 Y-27.499 E57.08923
G0 F2400 X35 Y-28.498
G1 F1500 X35 Y-33.057 E57.31668
G0 F2400 X35.322 Y-32.499
G1 F1500 X32.688 Y-32.499 E57.44809
G0 F2400 X32.5 Y-32.829
G1 F1500 X32.5 Y-37.388 E57.67554
G0 F2400 X32.435 Y-37.5
G1 F1500 X28.269 Y-37.5 E57.88338
G0 F2400 X27.5 Y-37.056
G1 F1500 X27.5 Y-34.422 E58.01479
G0 F2400 X28.5 Y-35
G1 F1500 X23.939 Y-35 E58.24234
G0 F2400 X25 Y-35.613
G1 F1500 X25 Y-32.978 E58.3738
G0 F2400 X24.169 Y-32.5
G1 F1500 X19.609 Y-32.5 E58.6013
G0 F2400 X20 Y-32.726
G1 F1500 X20 Y-30.091 E58.73276
G0 F2400 X19.839 Y-30
G1 F1500 X15.279 Y-30 E58.96026
G0 F2400 X15 Y-29.839
G1 F1500 X15 Y-27.205 E59.09167
G0 F2400 X15.509 Y-27.5
G1 F1500 X10.949 Y-27.5 E59.31917
G0 F2400 X10 Y-26.952
G1 F1500 X10 Y-24.318 E59.45058
G0 F2400 X11.179 Y-25
G1 F1500 X6.619 Y-25 E59.67808
G0 F2400 X7.5 Y-25.509
G1 F1500 X7.5 Y-22.874 E59.80954
G0 F2400 X6.849 Y-22.5
G1 F1500 X2.289 Y-22.5 E60.03704
G0 F2400 X2.5 Y-22.622
G1 F1500 X2.5 Y-19.988 E60.16845
G0 F2400 X2.519 Y-20
G1 F1500 X-2.039 Y-20 E60.39585
G0 F2400 X-2.5 Y-19.735
G1 F1500 X-2.5 Y-17.101 E60.52726
G0 F2400 X-1.81 Y-17.5
G1 F1500 X-6.369 Y-17.5 E60.75471
G0 F2400 X-7.5 Y-16.848
G1 F1500 X-7.5 Y-14.214 E60.88612
G0 F2400 X-6.14 Y-15
G1 F1500 X-10.699 Y-15 E61.11357
G0 F2400 X-10 Y-15.405
G1 F1500 X-10 Y-12.771 E61.24498
G0 F2400 X-10.471 Y-12.5
G1 F1500 X-15.03 Y-12.5 E61.47243
G0 F2400 X-15 Y-12.518
G1 F1500 X-15 Y-9.884 E61.60384
G0 F2400 X-14.801 Y-10
G1 F1500 X-19.36 Y-10 E61.83129
G0 F2400 X-20 Y-9.631
G1 F1500 X-20 Y-6.997 E61.9627
G0 F2400 X-19.131 Y-7.5
G1 F1500 X-23.69 Y-7.5 E62.19015
G0 F2400 X-22.5 Y-8.188
G1 F1500 X-22.5 Y-5.554 E62.32156
G0 F2400 X-23.461 Y-5
G1 F1500 X-28.02 Y-5 E62.54901
G0 F2400 X-27.5 Y-5.301
G1 F1500 X-27.5 Y-2.667 E62.68042
G0 F2400 X-27.791 Y-2.5
G1 F1500 X-32.35 Y-2.5 E62.90787
G0 F2400 X-32.5 Y-2.414
G1 F1500 X-32.5 Y0.22 E63.03928
G0 F2400 X-32.121 Y0.00
G1 F1500 X-36.68 Y0.00 E63.26673
G0 F2400 X-37.5 Y0.473
G1 F1500 X-37.5 Y3.106 E63.39809
G0 F2400 X-36.451 Y2.499
G1 F1500 X-41.01 Y2.499 E63.62554
G0 F2400 X-40 Y1.916
G1 F1500 X-40 Y4.55 E63.75695
G0 F2400 X-40.781 Y4.999
G1 F1500 X-45.34 Y4.999 E63.9844
G0 F2400 X-45 Y4.803
G1 F1500 X-45 Y7.437 E64.11581
G0 F2400 X-45.111 Y7.499
G1 F1500 X-49.67 Y7.499 E64.34326
G0 F2400 X-47.5 Y6.247
G1 F1500 X-47.5 Y11.41 E64.60085
G0 F2400 X-46.872 Y12.499
G1 F1500 X-44.238 Y12.499 E64.73226
G0 F2400 X-45 Y11.182
G1 F1500 X-45 Y15.741 E64.95971
G0 F2400 X-45.428 Y14.999
G1 F1500 X-42.795 Y14.999 E65.09107
G0 F2400 X-42.5 Y15.512
G1 F1500 X-42.5 Y20.071 E65.31852
G0 F2400 X-42.542 Y19.999
G1 F1500 X-39.908 Y19.999 E65.44993
G0 F2400 X-40 Y19.842
G1 F1500 X-40 Y24.401 E65.67738
G0 F2400 X-39.655 Y24.999
G1 F1500 X-37.021 Y24.999 E65.80879
G0 F2400 X-37.5 Y24.172
G1 F1500 X-37.5 Y28.731 E66.03624
G0 F2400 X-38.212 Y27.499
G1 F1500 X-35.578 Y27.499 E66.16765
G0 F2400 X-35 Y28.503
G1 F1500 X-35 Y33.061 E66.39505
G0 F2400 X-35.325 Y32.499
G1 F1500 X-29.448 Y32.5 E66.68825
G0 F2400 X-30 Y32.698
G1 F1500 X-30 Y30.281 E66.80884
G0 F2400 X-29.213 Y30
G1 F1500 X-22.462 Y30 E67.14565
G0 F2400 X-22.5 Y30.014
G1 F1500 X-22.5 Y27.594 E67.26638
G0 F2400 X-22.235 Y27.5
G1 F1500 X-15.476 Y27.5 E67.60359
G0 F2400 X-15 Y27.33
G1 F1500 X-15 Y24.907 E67.72447
G0 F2400 X-15.257 Y25
G1 F1500 X-8.491 Y25 E68.06203
G0 F2400 X-10 Y25.541
G1 F1500 X-10 Y23.116 E68.18301
G0 F2400 X-12.5 Y24.011
G1 F1500 X-12.5 Y26.435 E68.30395
G0 F2400 X-17.5 Y25.803
G1 F1500 X-17.5 Y28.225 E68.42478
G0 F2400 X-20 Y29.119
G1 F1500 X-20 Y26.698 E68.54556
G0 F2400 X-25 Y28.49
G1 F1500 X-25 Y30.909 E68.66625
G0 F2400 X-27.5 Y31.803
G1 F1500 X-27.5 Y29.385 E68.78688
G0 F2400 X-32.5 Y31.177
G1 F1500 X-32.5 Y33.593 E68.90742
G0 F2400 X-34.135 Y29.999
G1 F1500 X-36.768 Y29.999 E69.03878
G0 F2400 X-38.465 Y22.499
G1 F1500 X-41.098 Y22.499 E69.17014
G0 F2400 X-41.351 Y17.499
G1 F1500 X-43.985 Y17.499 E69.30155
G0 F2400 X-45.682 Y9.999
G1 F1500 X-48.315 Y9.999 E69.43291
G0 F2400 X-42.5 Y5.993
G1 F1500 X-42.5 Y3.36 E69.56427
G0 F2400 X-35 Y1.663
G1 F1500 X-35 Y-.971 E69.69568
G0 F2400 X-30 Y-1.224
G1 F1500 X-30 Y-3.857 E69.82704
G0 F2400 X-25 Y-4.111
G1 F1500 X-25 Y-6.744 E69.95841
G0 F2400 X-17.5 Y-8.441
G1 F1500 X-17.5 Y-11.075 E70.08982
G0 F2400 X-12.5 Y-11.327
G1 F1500 X-12.5 Y-13.961 E70.22123
G0 F2400 X-5 Y-15.658
G1 F1500 X-5 Y-18.292 E70.35264
G0 F2400 X0.00 Y-18.544
G1 F1500 X0.00 Y-21.179 E70.4841
G0 F2400 X5 Y-21.431
G1 F1500 X5 Y-24.065 E70.61551
G0 F2400 X12.5 Y-25.761
G1 F1500 X12.5 Y-28.396 E70.74697
G0 F2400 X17.5 Y-28.648
G1 F1500 X17.5 Y-31.283 E70.87843
G0 F2400 X22.5 Y-31.535
G1 F1500 X22.5 Y-34.169 E71.00984
G0 F2400 X30 Y-35.803
G1 F1500 X30 Y-38.5 E71.1444
G0 F2400 X31.245 Y-35
G1 F1500 X33.878 Y-35 E71.27576
G0 F2400 X34.131 Y-29.999
G1 F1500 X36.765 Y-29.999 E71.40717
G0 F2400 X38.461 Y-22.499
G1 F1500 X41.095 Y-22.499 E71.53858
G0 F2400 X41.347 Y-17.499
G1 F1500 X43.982 Y-17.499 E71.67004
G1 F2400 E67.17004
G0 F2400 X43.067 Y-12.933
G0 X32.5 Y-3.45
G1 F2400 E71.67004
G1 F1500 X32.5 Y-.46 E71.81921
G0 F2400 X31.956 Y0.00
G1 F1500 X28.432 Y0.00 E71.99502
G0 F2400 X27.5 Y0.79
G1 F1500 X27.5 Y3.78 E72.1442
G0 F2400 X17.5 Y8.44
G1 F1500 X17.5 Y11.076 E72.27571
G0 F2400 X12.5 Y11.327
G1 F1500 X12.5 Y13.964 E72.40727
G0 F2400 X5 Y15.658
G1 F1500 X5 Y18.295 E72.53883
G0 F2400 X0.00 Y18.545
G1 F1500 X0.00 Y21.183 E72.67044
G1 F2400 E68.17044
G0 F2400 X-3.468 Y20.064
G0 X-3.53 Y20.046
G0 X-25.539 Y12.963
G0 X-25.581 Y12.95
G0 X-25.84 Y12.867
G1 F2400 E72.67044
G1 F1500 X-26.102 Y13.282 E72.69492
G1 X-26.474 Y13.642 E72.72075
G1 X-26.922 Y13.898 E72.74649
G1 X-27.392 Y14.034 E72.7709
G1 X-27.947 Y14.045 E72.7986
G1 X-28.371 Y13.954 E72.82023
G1 X-28.85 Y13.734 E72.84653
G1 X-29.214 Y13.439 E72.8699
G1 X-29.543 Y13.017 E72.8966
G1 X-29.74 Y12.551 E72.92184
G1 X-29.822 Y12.058 E72.94677
G1 X-29.768 Y11.509 E72.9743
G1 X-29.619 Y11.069 E72.99747
G1 X-29.358 Y10.659 E73.02172
G1 X-28.988 Y10.298 E73.04751
G1 X-28.545 Y10.047 E73.07291
G1 X-28.03 Y9.902 E73.09961
G1 X-27.565 Y9.883 E73.12282
G1 X-27.056 Y9.989 E73.14876
G1 X-26.614 Y10.206 E73.17333
G1 X-26.218 Y10.525 E73.1987
G1 X-25.924 Y10.922 E73.22334
G1 X-25.86 Y11.061 E73.23098
G1 X-25.718 Y11.407 E73.24964
G1 X-25.639 Y11.89 E73.27405
G1 X-25.679 Y12.382 E73.29868
G1 X-25.84 Y12.867 E73.32418
G0 F2400 X-25.888 Y12.499
G1 F1500 X-29.587 Y12.499 E73.50872
G0 F2400 X-27.5 Y13.877
G1 F1500 X-27.5 Y10.061 E73.6991
G1 F2400 E69.1991
G0 F2400 X-26.924 Y9.75
G0 X-26.885 Y9.729
G0 X22.145 Y-16.821
G0 X22.184 Y-16.842
G0 X22.429 Y-16.976
G1 F2400 E73.6991
G1 F1500 X22.219 Y-17.475 E73.72611
G1 X22.14 Y-17.958 E73.75053
G1 X22.184 Y-18.445 E73.77492
G1 X22.35 Y-18.938 E73.80088
G1 X22.617 Y-19.361 E73.82583
G1 X22.966 Y-19.697 E73.85
G1 X23.446 Y-19.966 E73.87745
G1 X23.902 Y-20.094 E73.90108
G1 X24.391 Y-20.117 E73.92551
G1 X24.903 Y-20.01 E73.9516
G1 X25.346 Y-19.799 E73.97608
G1 X25.737 Y-19.482 E74.0012
G1 X26.05 Y-19.061 E74.02737
G1 X26.241 Y-18.613 E74.05167
G1 X26.321 Y-18.119 E74.07663
G1 X26.283 Y-17.648 E74.10021
G1 X26.116 Y-17.126 E74.12755
G1 X25.835 Y-16.691 E74.15339
G1 X25.474 Y-16.353 E74.17806
G1 X25.065 Y-16.113 E74.20172
G1 X24.536 Y-15.965 E74.22912
G1 X24.085 Y-15.945 E74.25165
G1 X23.57 Y-16.049 E74.27786
G1 X23.093 Y-16.28 E74.3043
G1 X22.735 Y-16.571 E74.32732
G1 X22.429 Y-16.976 E74.35264
G0 F2400 X22.5 Y-17.219
G1 F1500 X22.5 Y-18.875 E74.43526
G0 F2400 X22.381 Y-17.5
G1 F1500 X26.068 Y-17.5 E74.6192
G0 F2400 X25 Y-16.261
G1 F1500 X25 Y-19.785 E74.79502
G1 F2400 E70.29502
G0 F2400 X24.97 Y-20.243
G0 X25.347 Y-21.475
G0 X24.681 Y-21.627
G0 X23.637 Y-21.687
G0 X23.653 Y-21.589
;TYPE:WALL-INNER
G1 F2400 E74.79502
G1 F1500 X22.818 Y-21.347 E74.83839
G1 X22.066 Y-20.912 E74.88173
G1 X21.439 Y-20.311 E74.92506
G1 X20.974 Y-19.576 E74.96845
G1 X20.699 Y-18.751 E75.01184
G1 X20.629 Y-17.886 E75.05514
G1 X20.768 Y-17.028 E75.0985
G1 X21.11 Y-16.228 E75.14191
G1 X21.631 Y-15.534 E75.1852
G1 X22.304 Y-14.986 E75.2285
G1 X23.089 Y-14.612 E75.27188
G1 X23.941 Y-14.438 E75.31527
G1 X24.809 Y-14.473 E75.35861
G1 X25.644 Y-14.715 E75.40198
G1 X26.396 Y-15.15 E75.44532
G1 X27.023 Y-15.752 E75.48869
G1 X27.487 Y-16.486 E75.53201
G1 X27.762 Y-17.311 E75.57539
G1 X27.832 Y-18.176 E75.61869
G1 X27.693 Y-19.034 E75.66205
G1 X27.352 Y-19.834 E75.70544
G1 X26.83 Y-20.528 E75.74877
G1 X26.158 Y-21.077 E75.79206
G1 X25.373 Y-21.45 E75.83542
G1 X24.52 Y-21.624 E75.87885
G1 X23.653 Y-21.589 E75.92214
G0 F2400 X23.637 Y-21.687
G0 X29.966 Y-33.7
G0 X30.052 Y-33.748
G1 F1500 X41.756 Y-13.476 E77.08997
G1 X19.607 Y5.308 E78.53887
G1 X-5.207 Y19.636 E79.9684
G1 X-32.549 Y29.425 E81.41729
G1 X-44.353 Y8.979 E82.59513
G1 X29.78 Y-33.821 E86.86579
G1 X29.953 Y-33.921 E86.87575
G1 X30.052 Y-33.748 E86.88218
G0 F2400 X29.966 Y-33.7
G0 X-28.325 Y8.313
G0 X-28.309 Y8.411
G1 F1500 X-29.144 Y8.653 E86.92555
G1 X-29.896 Y9.088 E86.96889
G1 X-30.523 Y9.69 E87.01226
G1 X-30.987 Y10.424 E87.05558
G1 X-31.262 Y11.249 E87.09896
G1 X-31.332 Y12.114 E87.14226
G1 X-31.193 Y12.972 E87.18562
G1 X-30.852 Y13.772 E87.22901
G1 X-30.329 Y14.466 E87.27237
G1 X-29.658 Y15.014 E87.31559
G1 X-28.873 Y15.388 E87.35897
G1 X-28.02 Y15.562 E87.4024
G1 X-27.153 Y15.527 E87.44569
G1 X-26.318 Y15.285 E87.48906
G1 X-25.566 Y14.85 E87.53241
G1 X-24.939 Y14.249 E87.57574
G1 X-24.474 Y13.514 E87.61913
G1 X-24.199 Y12.689 E87.66251
G1 X-24.129 Y11.824 E87.70581
G1 X-24.268 Y10.966 E87.74917
G1 X-24.61 Y10.166 E87.79258
G1 X-25.131 Y9.473 E87.83584
G1 X-25.803 Y8.923 E87.87916
G1 X-26.59 Y8.55 E87.92261
G1 X-27.441 Y8.376 E87.96594
G1 X-28.309 Y8.411 E88.00928
G0 F2400 X-28.244 Y8.809
;TYPE:WALL-OUTER
G1 F1500 X-28.986 Y9.024 E88.04783
G1 X-29.654 Y9.41 E88.08632
G1 X-30.211 Y9.945 E88.12485
G1 X-30.623 Y10.597 E88.16333
G1 X-30.867 Y11.329 E88.20182
G1 X-30.929 Y12.098 E88.24031
G1 X-30.806 Y12.86 E88.27882
G1 X-30.503 Y13.57 E88.31733
G1 X-30.039 Y14.187 E88.35585
G1 X-29.442 Y14.674 E88.39428
G1 X-28.745 Y15.006 E88.4328
G1 X-27.988 Y15.16 E88.47134
G1 X-27.218 Y15.129 E88.50979
G1 X-26.476 Y14.914 E88.54833
G1 X-25.808 Y14.528 E88.58682
G1 X-25.251 Y13.994 E88.62532
G1 X-24.838 Y13.341 E88.66386
G1 X-24.594 Y12.609 E88.70236
G1 X-24.532 Y11.84 E88.74085
G1 X-24.655 Y11.078 E88.77936
G1 X-24.959 Y10.368 E88.81789
G1 X-25.422 Y9.752 E88.85634
G1 X-26.019 Y9.263 E88.89484
G1 X-26.717 Y8.932 E88.93338
G1 X-27.473 Y8.778 E88.97187
