;FLAVOR:Marlin
;TIME:15880
;Filament used: 10.8047m
;Layer height: 0.12
;MINX:67.5
;MINY:64.439
;MINZ:0.12
;MAXX:152.5
;MAXY:158.5
;MAXZ:15.96
;Generated with Cura_SteamEngine 4.8.0
M140 S100
M105
M190 S100
M104 S240
M105
M109 S240
M82 ;absolute extrusion mode
M201 X500.00 Y500.00 Z100.00 E5000.00 ;Setup machine max acceleration
M203 X500.00 Y500.00 Z10.00 E50.00 ;Setup machine max feedrate
M204 P500.00 R1000.00 T500.00 ;Setup Print/Retract/Travel acceleration
M205 X8.00 Y8.00 Z0.40 E5.00 ;Setup Jerk
M220 S100 ;Reset Feedrate
M221 S100 ;Reset Flowrate

G28 ;Home
G29

G92 E0 ;Reset Extruder
G1 Z2.0 F3000 ;Move Z Axis up
G1 X10.1 Y20 Z0.28 F5000.0 ;Move to start position
G1 X10.1 Y200.0 Z0.28 F1500.0 E15 ;Draw the first line
G1 X10.4 Y200.0 Z0.28 F5000.0 ;Move to side a little
G1 X10.4 Y20 Z0.28 F1500.0 E30 ;Draw the second line
G92 E0 ;Reset Extruder
G1 Z2.0 F3000 ;Move Z Axis up
G92 E0
G92 E0
G1 F2700 E-5
;LAYER_COUNT:133
;LAYER:0
M107
G0 F6000 X69.55 Y66.607 Z0.12
;TYPE:SKIRT
G1 F2700 E0
G1 F1200 X69.667 Y66.49 E0.0033
G1 X70.224 Y65.99 E0.01824
G1 X70.83 Y65.553 E0.03315
G1 X71.48 Y65.182 E0.04808
G1 X72.166 Y64.883 E0.06302
G1 X72.88 Y64.659 E0.07795
G1 X73.613 Y64.512 E0.09287
G1 X74.617 Y64.44 E0.11296
G1 X145.383 Y64.439 E1.52517
G1 X146.13 Y64.479 E1.5401
G1 X146.868 Y64.598 E1.55502
G1 X147.59 Y64.796 E1.56996
G1 X148.286 Y65.069 E1.58488
G1 X148.949 Y65.416 E1.59981
G1 X149.572 Y65.831 E1.61475
G1 X150.333 Y66.489 E1.63482
G1 X150.45 Y66.606 E1.63813
G1 X150.95 Y67.163 E1.65306
G1 X151.387 Y67.769 E1.66797
G1 X151.758 Y68.419 E1.68291
G1 X152.057 Y69.105 E1.69784
G1 X152.281 Y69.819 E1.71278
G1 X152.428 Y70.552 E1.7277
G1 X152.5 Y71.556 E1.74778
G1 X152.5 Y149.383 E3.3009
G1 X152.46 Y150.13 E3.31583
G1 X152.341 Y150.868 E3.33075
G1 X152.143 Y151.59 E3.34569
G1 X151.87 Y152.286 E3.36061
G1 X151.523 Y152.949 E3.37554
G1 X151.108 Y153.572 E3.39048
G1 X150.45 Y154.333 E3.41056
G1 X150.241 Y154.533 E3.41633
G1 X150.023 Y154.949 E3.4257
G1 X149.608 Y155.572 E3.44064
G1 X148.95 Y156.333 E3.46072
G1 X148.833 Y156.45 E3.46402
G1 X148.276 Y156.95 E3.47896
G1 X147.67 Y157.387 E3.49387
G1 X147.02 Y157.758 E3.5088
G1 X146.334 Y158.057 E3.52374
G1 X145.62 Y158.281 E3.53867
G1 X144.887 Y158.428 E3.55359
G1 X143.883 Y158.5 E3.57368
G1 X76.117 Y158.5 E4.92602
G1 X75.37 Y158.46 E4.94095
G1 X74.632 Y158.341 E4.95587
G1 X73.91 Y158.143 E4.97081
G1 X73.214 Y157.87 E4.98573
G1 X72.551 Y157.523 E5.00066
G1 X71.928 Y157.108 E5.0156
G1 X71.167 Y156.45 E5.03568
G1 X71.05 Y156.333 E5.03898
G1 X70.55 Y155.776 E5.05391
G1 X70.113 Y155.17 E5.06882
G1 X69.738 Y154.512 E5.08394
G1 X69.55 Y154.333 E5.08912
G1 X69.05 Y153.776 E5.10406
G1 X68.613 Y153.17 E5.11897
G1 X68.242 Y152.52 E5.1339
G1 X67.943 Y151.834 E5.14884
G1 X67.719 Y151.12 E5.16377
G1 X67.572 Y150.387 E5.17869
G1 X67.5 Y149.383 E5.19878
G1 X67.5 Y71.557 E6.75188
G1 X67.54 Y70.81 E6.76681
G1 X67.659 Y70.072 E6.78172
G1 X67.857 Y69.35 E6.79666
G1 X68.13 Y68.654 E6.81158
G1 X68.477 Y67.991 E6.82652
G1 X68.712 Y67.639 E6.83496
G0 F1080 X68.892 Y67.368
G0 X69.55 Y66.607
G0 F6000 X69.833 Y66.89
G1 F1200 X69.95 Y66.773 E6.83826
G1 X70.491 Y66.289 E6.85275
G1 X71.082 Y65.866 E6.86725
G1 X71.716 Y65.512 E6.88175
G1 X72.385 Y65.229 E6.89624
G1 X73.081 Y65.021 E6.91074
G1 X73.796 Y64.891 E6.92524
G1 X74.617 Y64.84 E6.94166
G1 X145.383 Y64.839 E8.35387
G1 X146.108 Y64.879 E8.36836
G1 X146.825 Y64.998 E8.38286
G1 X147.524 Y65.196 E8.39736
G1 X148.197 Y65.469 E8.41185
G1 X148.836 Y65.814 E8.42635
G1 X149.433 Y66.228 E8.44084
G1 X150.05 Y66.772 E8.45726
G1 X150.167 Y66.889 E8.46056
G1 X150.651 Y67.43 E8.47505
G1 X151.074 Y68.021 E8.48955
G1 X151.428 Y68.655 E8.50404
G1 X151.711 Y69.324 E8.51854
G1 X151.919 Y70.02 E8.53303
G1 X152.049 Y70.735 E8.54754
G1 X152.1 Y71.556 E8.56395
G1 X152.1 Y149.383 E10.11707
G1 X152.06 Y150.108 E10.13156
G1 X151.941 Y150.825 E10.14607
G1 X151.743 Y151.524 E10.16057
G1 X151.47 Y152.197 E10.17506
G1 X151.125 Y152.836 E10.18955
G1 X150.711 Y153.433 E10.20405
G1 X150.167 Y154.05 E10.22047
G1 X149.927 Y154.277 E10.22706
G1 X149.625 Y154.836 E10.23974
G1 X149.211 Y155.433 E10.25424
G1 X148.667 Y156.05 E10.27065
G1 X148.55 Y156.167 E10.27395
G1 X148.009 Y156.651 E10.28844
G1 X147.418 Y157.074 E10.30294
G1 X146.784 Y157.428 E10.31743
G1 X146.115 Y157.711 E10.33193
G1 X145.419 Y157.919 E10.34643
G1 X144.704 Y158.049 E10.36093
G1 X143.883 Y158.1 E10.37734
G1 X76.117 Y158.1 E11.72969
G1 X75.392 Y158.06 E11.74418
G1 X74.675 Y157.941 E11.75868
G1 X73.976 Y157.743 E11.77318
G1 X73.303 Y157.47 E11.78767
G1 X72.664 Y157.125 E11.80217
G1 X72.067 Y156.711 E11.81666
G1 X71.45 Y156.167 E11.83308
G1 X71.333 Y156.05 E11.83638
G1 X70.849 Y155.509 E11.85087
G1 X70.426 Y154.918 E11.86537
G1 X70.072 Y154.284 E11.87986
G1 X69.833 Y154.05 E11.88654
G1 X69.349 Y153.509 E11.90102
G1 X68.926 Y152.918 E11.91553
G1 X68.572 Y152.284 E11.93002
G1 X68.289 Y151.615 E11.94451
G1 X68.081 Y150.919 E11.95901
G1 X67.951 Y150.204 E11.97351
G1 X67.9 Y149.383 E11.98993
G1 X67.9 Y71.557 E13.54303
G1 X67.94 Y70.832 E13.55752
G1 X68.059 Y70.115 E13.57202
G1 X68.257 Y69.416 E13.58652
G1 X68.53 Y68.743 E13.60102
G1 X68.875 Y68.104 E13.61551
G1 X68.999 Y67.926 E13.61984
G0 F1080 X69.289 Y67.507
G0 X69.833 Y66.89
G0 F6000 X70.116 Y67.173
G1 F1200 X70.233 Y67.056 E13.62314
G1 X70.758 Y66.587 E13.63719
G1 X71.333 Y66.181 E13.65123
G1 X71.951 Y65.843 E13.66529
G1 X72.602 Y65.576 E13.67933
G1 X73.28 Y65.386 E13.69338
G1 X73.975 Y65.273 E13.70744
G1 X74.617 Y65.24 E13.72026
G1 X145.383 Y65.239 E15.13248
G1 X146.086 Y65.279 E15.14653
G1 X146.78 Y65.398 E15.16058
G1 X147.455 Y65.596 E15.17462
G1 X148.104 Y65.868 E15.18866
G1 X148.718 Y66.213 E15.20272
G1 X149.289 Y66.624 E15.21676
G1 X149.767 Y67.055 E15.2296
G1 X149.884 Y67.172 E15.2329
G1 X150.353 Y67.697 E15.24695
G1 X150.759 Y68.272 E15.261
G1 X151.097 Y68.89 E15.27505
G1 X151.364 Y69.541 E15.2891
G1 X151.554 Y70.219 E15.30315
G1 X151.667 Y70.914 E15.3172
G1 X151.7 Y71.556 E15.33003
G1 X151.7 Y149.383 E16.88315
G1 X151.66 Y150.086 E16.8972
G1 X151.541 Y150.78 E16.91125
G1 X151.343 Y151.455 E16.92529
G1 X151.071 Y152.104 E16.93933
G1 X150.726 Y152.718 E16.95339
G1 X150.315 Y153.289 E16.96743
G1 X149.884 Y153.767 E16.98027
G1 X149.601 Y154.032 E16.98801
G1 X149.571 Y154.104 E16.98957
G1 X149.226 Y154.718 E17.00362
G1 X148.815 Y155.289 E17.01766
G1 X148.384 Y155.767 E17.0305
G1 X148.267 Y155.884 E17.03381
G1 X147.742 Y156.353 E17.04786
G1 X147.167 Y156.759 E17.0619
G1 X146.549 Y157.097 E17.07596
G1 X145.898 Y157.364 E17.09
G1 X145.22 Y157.554 E17.10405
G1 X144.525 Y157.667 E17.1181
G1 X143.883 Y157.7 E17.13093
G1 X76.117 Y157.7 E18.48328
G1 X75.414 Y157.66 E18.49733
G1 X74.72 Y157.541 E18.51138
G1 X74.045 Y157.343 E18.52542
G1 X73.396 Y157.071 E18.53946
G1 X72.782 Y156.726 E18.55352
G1 X72.211 Y156.315 E18.56756
G1 X71.733 Y155.884 E18.5804
G1 X71.616 Y155.767 E18.5837
G1 X71.147 Y155.242 E18.59775
G1 X70.741 Y154.667 E18.6118
G1 X70.403 Y154.049 E18.62585
G1 X70.116 Y153.767 E18.63388
G1 X69.647 Y153.242 E18.64793
G1 X69.241 Y152.667 E18.66198
G1 X68.903 Y152.049 E18.67604
G1 X68.636 Y151.398 E18.69008
G1 X68.446 Y150.72 E18.70413
G1 X68.333 Y150.025 E18.71818
G1 X68.3 Y149.383 E18.73101
G1 X68.3 Y71.557 E20.28411
G1 X68.34 Y70.854 E20.29816
G1 X68.459 Y70.16 E20.31221
G1 X68.657 Y69.485 E20.32625
G1 X68.929 Y68.836 E20.3403
G1 X69.274 Y68.222 E20.35435
G1 X69.283 Y68.21 E20.35465
G0 F1080 X69.685 Y67.651
G0 X70.116 Y67.173
G0 F6000 X70.399 Y67.456
G1 F1200 X70.516 Y67.339 E20.35795
G1 X71.025 Y66.886 E20.37155
G1 X71.583 Y66.497 E20.38512
G1 X72.183 Y66.175 E20.39871
G1 X72.817 Y65.926 E20.41231
G1 X73.476 Y65.753 E20.4259
G1 X74.15 Y65.659 E20.43948
G1 X74.617 Y65.64 E20.44881
G1 X145.383 Y65.639 E21.86102
G1 X146.063 Y65.679 E21.87462
G1 X146.733 Y65.798 E21.8882
G1 X147.385 Y65.995 E21.90179
G1 X148.009 Y66.267 E21.91537
G1 X148.597 Y66.611 E21.92897
G1 X149.14 Y67.021 E21.94255
G1 X149.484 Y67.338 E21.95188
G1 X149.601 Y67.455 E21.95518
G1 X150.054 Y67.964 E21.96878
G1 X150.443 Y68.522 E21.98235
G1 X150.765 Y69.122 E21.99594
G1 X151.014 Y69.756 E22.00954
G1 X151.187 Y70.415 E22.02313
G1 X151.281 Y71.089 E22.03671
G1 X151.3 Y71.556 E22.04604
G1 X151.3 Y149.383 E23.59916
G1 X151.26 Y150.063 E23.61276
G1 X151.141 Y150.733 E23.62634
G1 X150.944 Y151.385 E23.63993
G1 X150.672 Y152.009 E23.65351
G1 X150.328 Y152.597 E23.66711
G1 X149.918 Y153.141 E23.6807
G1 X149.601 Y153.484 E23.69002
G1 X149.484 Y153.601 E23.69332
G1 X149.265 Y153.796 E23.69918
G1 X149.172 Y154.009 E23.70381
G1 X148.828 Y154.597 E23.71741
G1 X148.418 Y155.141 E23.731
G1 X148.101 Y155.484 E23.74032
G1 X147.984 Y155.601 E23.74363
G1 X147.475 Y156.054 E23.75722
G1 X146.917 Y156.443 E23.7708
G1 X146.317 Y156.765 E23.78439
G1 X145.683 Y157.014 E23.79798
G1 X145.024 Y157.187 E23.81158
G1 X144.35 Y157.281 E23.82516
G1 X143.883 Y157.3 E23.83448
G1 X76.117 Y157.3 E25.18683
G1 X75.437 Y157.26 E25.20042
G1 X74.767 Y157.141 E25.214
G1 X74.115 Y156.944 E25.22759
G1 X73.491 Y156.672 E25.24118
G1 X72.903 Y156.328 E25.25477
G1 X72.359 Y155.918 E25.26837
G1 X72.016 Y155.601 E25.27769
G1 X71.899 Y155.484 E25.28099
G1 X71.446 Y154.975 E25.29459
G1 X71.057 Y154.417 E25.30816
G1 X70.735 Y153.817 E25.32175
G1 X70.727 Y153.796 E25.3222
G1 X70.516 Y153.601 E25.32793
G1 X70.399 Y153.484 E25.33123
G1 X69.946 Y152.975 E25.34483
G1 X69.557 Y152.417 E25.35841
G1 X69.235 Y151.817 E25.372
G1 X68.986 Y151.183 E25.38559
G1 X68.813 Y150.524 E25.39919
G1 X68.719 Y149.85 E25.41277
G1 X68.7 Y149.383 E25.42209
G1 X68.7 Y71.557 E26.97519
G1 X68.74 Y70.877 E26.98879
G1 X68.859 Y70.207 E27.00237
G1 X69.056 Y69.555 E27.01596
G1 X69.328 Y68.931 E27.02954
G1 X69.58 Y68.501 E27.03949
G0 F1080 X69.672 Y68.343
G0 X70.082 Y67.799
G0 X70.399 Y67.456
G0 F6000 X70.682 Y67.739
G1 F1200 X70.799 Y67.622 E27.04279
G1 X71.291 Y67.186 E27.05591
G1 X71.832 Y66.814 E27.06901
G1 X72.414 Y66.51 E27.08212
G1 X73.029 Y66.279 E27.09523
G1 X73.668 Y66.124 E27.10835
G1 X74.617 Y66.04 E27.12736
G1 X145.383 Y66.039 E28.53957
G1 X146.039 Y66.079 E28.55269
G1 X146.685 Y66.198 E28.5658
G1 X147.311 Y66.395 E28.57889
G1 X147.91 Y66.667 E28.59202
G1 X148.471 Y67.009 E28.60513
G1 X149.201 Y67.621 E28.62414
G1 X149.318 Y67.738 E28.62745
G1 X149.754 Y68.23 E28.64057
G1 X150.126 Y68.771 E28.65367
G1 X150.43 Y69.353 E28.66677
G1 X150.661 Y69.968 E28.67988
G1 X150.816 Y70.607 E28.693
G1 X150.9 Y71.556 E28.71202
G1 X150.9 Y149.383 E30.26514
G1 X150.86 Y150.039 E30.27825
G1 X150.741 Y150.685 E30.29136
G1 X150.544 Y151.312 E30.30448
G1 X150.272 Y151.91 E30.31759
G1 X149.93 Y152.471 E30.3307
G1 X149.318 Y153.201 E30.34971
G1 X149.201 Y153.318 E30.35301
G1 X148.933 Y153.555 E30.36015
G1 X148.772 Y153.91 E30.36793
G1 X148.43 Y154.471 E30.38104
G1 X147.818 Y155.201 E30.40005
G1 X147.701 Y155.318 E30.40335
G1 X147.209 Y155.754 E30.41647
G1 X146.668 Y156.126 E30.42957
G1 X146.086 Y156.43 E30.44268
G1 X145.471 Y156.661 E30.45579
G1 X144.832 Y156.816 E30.46891
G1 X143.883 Y156.9 E30.48792
G1 X76.117 Y156.9 E31.84027
G1 X75.461 Y156.86 E31.85338
G1 X74.815 Y156.741 E31.86649
G1 X74.188 Y156.544 E31.87961
G1 X73.59 Y156.272 E31.89272
G1 X73.029 Y155.93 E31.90583
G1 X72.299 Y155.318 E31.92484
G1 X72.182 Y155.201 E31.92814
G1 X71.746 Y154.709 E31.94126
G1 X71.374 Y154.168 E31.95436
G1 X71.07 Y153.586 E31.96746
G1 X71.048 Y153.526 E31.96874
G1 X70.799 Y153.318 E31.97521
G1 X70.682 Y153.201 E31.97852
G1 X70.246 Y152.709 E31.99163
G1 X69.874 Y152.168 E32.00474
G1 X69.57 Y151.586 E32.01784
G1 X69.339 Y150.971 E32.03095
G1 X69.184 Y150.332 E32.04407
G1 X69.1 Y149.383 E32.06308
G1 X69.1 Y71.557 E33.61619
G1 X69.14 Y70.901 E33.6293
G1 X69.259 Y70.255 E33.64241
G1 X69.456 Y69.628 E33.65553
G1 X69.728 Y69.03 E33.66864
G1 X69.873 Y68.793 E33.67418
G0 F1080 X70.07 Y68.469
G0 X70.682 Y67.739
G0 F6000 X70.964 Y68.021
G1 F1200 X71.081 Y67.904 E33.67748
G1 X71.556 Y67.487 E33.6901
G1 X72.079 Y67.132 E33.70271
G1 X72.643 Y66.846 E33.71533
G1 X73.238 Y66.634 E33.72794
G1 X73.856 Y66.498 E33.74056
G1 X74.617 Y66.44 E33.75579
G1 X145.383 Y66.439 E35.16801
G1 X146.014 Y66.479 E35.18062
G1 X146.635 Y66.598 E35.19324
G1 X147.235 Y66.795 E35.20584
G1 X147.807 Y67.066 E35.21848
G1 X148.339 Y67.406 E35.23108
G1 X148.919 Y67.903 E35.24632
G1 X149.036 Y68.02 E35.24962
G1 X149.453 Y68.495 E35.26223
G1 X149.808 Y69.018 E35.27485
G1 X150.094 Y69.582 E35.28747
G1 X150.306 Y70.177 E35.30007
G1 X150.442 Y70.795 E35.3127
G1 X150.5 Y71.556 E35.32793
G1 X150.5 Y149.383 E36.88105
G1 X150.46 Y150.014 E36.89367
G1 X150.341 Y150.635 E36.90629
G1 X150.144 Y151.235 E36.91889
G1 X149.873 Y151.807 E36.93152
G1 X149.533 Y152.339 E36.94412
G1 X149.036 Y152.919 E36.95937
G1 X148.919 Y153.036 E36.96267
G1 X148.61 Y153.308 E36.97088
G1 X148.373 Y153.807 E36.98191
G1 X148.033 Y154.339 E36.99451
G1 X147.536 Y154.919 E37.00975
G1 X147.419 Y155.036 E37.01305
G1 X146.944 Y155.453 E37.02566
G1 X146.421 Y155.808 E37.03828
G1 X145.857 Y156.094 E37.0509
G1 X145.262 Y156.306 E37.0635
G1 X144.644 Y156.442 E37.07613
G1 X143.883 Y156.5 E37.09136
G1 X76.117 Y156.5 E38.44371
G1 X75.486 Y156.46 E38.45632
G1 X74.865 Y156.341 E38.46894
G1 X74.265 Y156.144 E38.48154
G1 X73.693 Y155.873 E38.49418
G1 X73.161 Y155.533 E38.50677
G1 X72.581 Y155.036 E38.52202
G1 X72.464 Y154.919 E38.52532
G1 X72.047 Y154.444 E38.53793
G1 X71.692 Y153.921 E38.55055
G1 X71.406 Y153.357 E38.56317
G1 X71.384 Y153.296 E38.56446
G1 X71.081 Y153.036 E38.57243
G1 X70.964 Y152.919 E38.57573
G1 X70.547 Y152.444 E38.58834
G1 X70.192 Y151.921 E38.60096
G1 X69.906 Y151.357 E38.61358
G1 X69.694 Y150.762 E38.62618
G1 X69.558 Y150.144 E38.63881
G1 X69.5 Y149.383 E38.65404
G1 X69.5 Y71.557 E40.20714
G1 X69.54 Y70.926 E40.21976
G1 X69.659 Y70.305 E40.23238
G1 X69.856 Y69.705 E40.24498
G1 X70.127 Y69.133 E40.25761
G1 X70.161 Y69.08 E40.25887
G0 F1080 X70.467 Y68.601
G0 X70.964 Y68.021
G0 F6000 X71.247 Y68.304
G1 F1200 X71.364 Y68.187 E40.26217
G1 X71.82 Y67.788 E40.27426
G1 X72.325 Y67.452 E40.28637
G1 X72.869 Y67.185 E40.29846
G1 X73.444 Y66.992 E40.31057
G1 X74.039 Y66.876 E40.32266
G1 X74.617 Y66.84 E40.33422
G1 X145.383 Y66.839 E41.74643
G1 X145.988 Y66.879 E41.75853
G1 X146.582 Y66.998 E41.77062
G1 X147.156 Y67.194 E41.78273
G1 X147.699 Y67.464 E41.79483
G1 X148.201 Y67.804 E41.80693
G1 X148.636 Y68.186 E41.81848
G1 X148.753 Y68.303 E41.82178
G1 X149.152 Y68.759 E41.83387
G1 X149.488 Y69.264 E41.84598
G1 X149.755 Y69.808 E41.85807
G1 X149.948 Y70.383 E41.87018
G1 X150.064 Y70.978 E41.88227
G1 X150.1 Y71.556 E41.89383
G1 X150.1 Y149.383 E43.44695
G1 X150.06 Y149.988 E43.45905
G1 X149.941 Y150.582 E43.47114
G1 X149.745 Y151.156 E43.48324
G1 X149.474 Y151.699 E43.49536
G1 X149.135 Y152.202 E43.50746
G1 X148.753 Y152.636 E43.519
G1 X148.636 Y152.753 E43.5223
G1 X148.275 Y153.069 E43.53187
G1 X148.245 Y153.156 E43.53371
G1 X147.974 Y153.699 E43.54582
G1 X147.635 Y154.202 E43.55793
G1 X147.253 Y154.636 E43.56946
G1 X147.136 Y154.753 E43.57277
G1 X146.68 Y155.152 E43.58486
G1 X146.175 Y155.488 E43.59696
G1 X145.631 Y155.755 E43.60906
G1 X145.056 Y155.948 E43.62116
G1 X144.461 Y156.064 E43.63326
G1 X143.883 Y156.1 E43.64481
G1 X76.117 Y156.1 E44.99716
G1 X75.512 Y156.06 E45.00926
G1 X74.918 Y155.941 E45.02135
G1 X74.344 Y155.745 E45.03345
G1 X73.801 Y155.474 E45.04556
G1 X73.298 Y155.135 E45.05767
G1 X72.864 Y154.753 E45.06921
G1 X72.747 Y154.636 E45.07251
G1 X72.348 Y154.18 E45.0846
G1 X72.012 Y153.675 E45.0967
G1 X71.745 Y153.131 E45.1088
G1 X71.725 Y153.07 E45.11008
G1 X71.364 Y152.753 E45.11967
G1 X71.247 Y152.636 E45.12297
G1 X70.848 Y152.18 E45.13506
G1 X70.512 Y151.675 E45.14716
G1 X70.245 Y151.131 E45.15926
G1 X70.052 Y150.556 E45.17136
G1 X69.936 Y149.961 E45.18346
G1 X69.9 Y149.383 E45.19502
G1 X69.9 Y71.557 E46.74812
G1 X69.94 Y70.952 E46.76022
G1 X70.059 Y70.358 E46.77231
G1 X70.255 Y69.784 E46.78441
G1 X70.46 Y69.373 E46.79358
G0 F1080 X70.526 Y69.241
G0 X70.865 Y68.738
G0 X71.247 Y68.304
G0 F6000 X71.53 Y68.587
G1 F1200 X71.647 Y68.47 E46.79688
G1 X72.084 Y68.09 E46.80844
G1 X72.569 Y67.773 E46.82
G1 X73.093 Y67.526 E46.83156
G1 X73.646 Y67.354 E46.84312
