;FLAVOR:Marlin
;TIME:21220
;Filament used: 18.5562m
;Layer height: 0.2
;MINX:70.399
;MINY:32.791
;MINZ:0.2
;MAXX:149.601
;MAXY:187.208
;MAXZ:33
;Generated with Cura_SteamEngine 4.8.0
M140 S60
M105
M190 S60
M104 S205
M105
M109 S205
M82 ;absolute extrusion mode
M201 X500.00 Y500.00 Z100.00 E5000.00 ;Setup machine max acceleration
M203 X500.00 Y500.00 Z10.00 E50.00 ;Setup machine max feedrate
M204 P500.00 R1000.00 T500.00 ;Setup Print/Retract/Travel acceleration
M205 X8.00 Y8.00 Z0.40 E5.00 ;Setup Jerk
M220 S100 ;Reset Feedrate
M221 S100 ;Reset Flowrate

G28 ;Home
G29

G92 E0 ;Reset Extruder
G1 Z2.0 F3000 ;Move Z Axis up
G1 X10.1 Y20 Z0.28 F5000.0 ;Move to start position
G1 X10.1 Y200.0 Z0.28 F1500.0 E15 ;Draw the first line
G1 X10.4 Y200.0 Z0.28 F5000.0 ;Move to side a little
G1 X10.4 Y20 Z0.28 F1500.0 E30 ;Draw the second line
G92 E0 ;Reset Extruder
G1 Z2.0 F3000 ;Move Z Axis up
G92 E0
G92 E0
G1 F3000 E-8
;LAYER_COUNT:165
;LAYER:0
M107
G0 F6000 X71.074 Y36.053 Z0.2
;TYPE:SKIRT
G1 F3000 E0
G1 F1200 X71.426 Y35.457 E0.02302
G1 X71.844 Y34.905 E0.04605
G1 X72.323 Y34.405 E0.06908
G1 X72.857 Y33.964 E0.09212
G1 X73.438 Y33.587 E0.11515
G1 X74.058 Y33.279 E0.13818
G1 X74.71 Y33.045 E0.16122
G1 X75.384 Y32.888 E0.18424
G1 X76.24 Y32.802 E0.21285
G1 X76.561 Y32.793 E0.22353
G1 X76.729 Y32.791 E0.22912
G1 X142.894 Y32.791 E2.42977
G1 X143.678 Y32.802 E2.45585
G1 X144.369 Y32.851 E2.47889
G1 X145.049 Y32.981 E2.50192
G1 X145.71 Y33.187 E2.52495
G1 X146.343 Y33.469 E2.548
G1 X146.939 Y33.821 E2.57102
G1 X147.49 Y34.24 E2.59404
G1 X147.99 Y34.72 E2.61709
G1 X148.431 Y35.254 E2.64013
G1 X148.808 Y35.835 E2.66317
G1 X149.115 Y36.456 E2.68621
G1 X149.348 Y37.108 E2.70923
G1 X149.505 Y37.782 E2.73225
G1 X149.59 Y38.632 E2.76066
G1 X149.599 Y38.952 E2.77131
G1 X149.601 Y39.121 E2.77693
G1 X149.6 Y105.35 E4.97972
G1 X149.585 Y106.447 E5.01621
G1 X149.524 Y108.629 E5.08881
G1 X149.524 Y111.274 E5.17678
G1 X149.555 Y112.728 E5.22515
G1 X149.597 Y114.151 E5.2725
G1 X149.6 Y114.327 E5.27836
G1 X149.6 Y180.546 E7.48081
G1 X149.591 Y181.273 E7.50499
G1 X149.542 Y181.964 E7.52803
G1 X149.414 Y182.645 E7.55108
G1 X149.209 Y183.306 E7.5741
G1 X148.929 Y183.939 E7.59712
G1 X148.577 Y184.536 E7.62017
G1 X148.16 Y185.089 E7.64321
G1 X147.681 Y185.589 E7.66624
G1 X147.148 Y186.031 E7.68927
G1 X146.567 Y186.409 E7.71232
G1 X145.947 Y186.717 E7.73535
G1 X145.296 Y186.952 E7.75837
G1 X144.621 Y187.11 E7.78142
G1 X143.759 Y187.197 E7.81024
G1 X143.438 Y187.206 E7.82092
G1 X143.27 Y187.208 E7.82651
G1 X77.03 Y187.208 E10.02966
G1 X76.332 Y187.199 E10.05288
G1 X75.641 Y187.15 E10.07592
G1 X74.96 Y187.021 E10.09897
G1 X74.299 Y186.816 E10.12199
G1 X73.666 Y186.535 E10.14502
G1 X73.069 Y186.184 E10.16806
G1 X72.517 Y185.766 E10.19109
G1 X72.017 Y185.287 E10.21412
G1 X71.575 Y184.753 E10.23717
G1 X71.198 Y184.173 E10.26018
G1 X70.89 Y183.552 E10.28324
G1 X70.655 Y182.901 E10.30626
G1 X70.498 Y182.226 E10.32931
G1 X70.411 Y181.361 E10.35822
G1 X70.402 Y181.028 E10.3693
G1 X70.4 Y180.866 E10.37469
G1 X70.401 Y114.628 E12.57777
G1 X70.417 Y113.517 E12.61473
G1 X70.476 Y111.416 E12.68464
G1 X70.476 Y108.769 E12.77268
G1 X70.445 Y107.292 E12.82181
G1 X70.402 Y105.84 E12.87013
G1 X70.399 Y105.664 E12.87598
G1 X70.4 Y39.384 E15.08046
G1 X70.409 Y38.719 E15.10258
G1 X70.458 Y38.028 E15.12562
G1 X70.586 Y37.348 E15.14864
G1 X70.761 Y36.789 E15.16812
G0 F1080 X70.793 Y36.686
G0 X71.074 Y36.053
G0 F6000 X71.471 Y36.156
G1 F1200 X71.822 Y35.586 E15.19039
G1 X72.238 Y35.062 E15.21264
G1 X72.713 Y34.592 E15.23486
G1 X73.242 Y34.181 E15.25714
G1 X73.815 Y33.836 E15.27939
G1 X74.426 Y33.563 E15.30165
G1 X75.064 Y33.364 E15.32388
G1 X75.722 Y33.242 E15.34614
G1 X76.251 Y33.202 E15.36378
G1 X76.572 Y33.193 E15.37446
G1 X76.729 Y33.191 E15.37968
G1 X142.894 Y33.191 E17.58034
G1 X143.672 Y33.202 E17.60622
G1 X144.339 Y33.251 E17.62846
G1 X144.996 Y33.38 E17.65073
G1 X145.632 Y33.586 E17.67297
G1 X146.24 Y33.867 E17.69524
G1 X146.809 Y34.217 E17.71746
G1 X147.333 Y34.634 E17.73974
G1 X147.803 Y35.11 E17.76199
G1 X148.213 Y35.638 E17.78422
G1 X148.558 Y36.212 E17.80649
G1 X148.831 Y36.823 E17.82875
G1 X149.029 Y37.462 E17.851
G1 X149.15 Y38.12 E17.87326
G1 X149.19 Y38.644 E17.89073
G1 X149.199 Y38.964 E17.90138
G1 X149.201 Y39.121 E17.9066
G1 X149.2 Y105.344 E20.10919
G1 X149.185 Y106.435 E20.14548
G1 X149.124 Y108.617 E20.21808
G1 X149.124 Y111.283 E20.30675
G1 X149.155 Y112.696 E20.35376
G1 X149.198 Y114.163 E20.40257
G1 X149.2 Y114.327 E20.40803
G1 X149.2 Y180.541 E22.61032
G1 X149.191 Y181.268 E22.6345
G1 X149.142 Y181.936 E22.65678
G1 X149.015 Y182.592 E22.679
G1 X148.81 Y183.229 E22.70126
G1 X148.531 Y183.837 E22.72351
G1 X148.181 Y184.407 E22.74575
G1 X147.765 Y184.932 E22.76803
G1 X147.29 Y185.403 E22.79028
G1 X146.763 Y185.814 E22.81251
G1 X146.19 Y186.16 E22.83477
G1 X145.58 Y186.434 E22.85701
G1 X144.941 Y186.634 E22.87928
G1 X144.283 Y186.756 E22.90154
G1 X143.748 Y186.797 E22.91939
G1 X143.427 Y186.806 E22.93007
G1 X143.27 Y186.808 E22.93529
G1 X77.035 Y186.808 E25.13828
G1 X76.337 Y186.799 E25.16149
G1 X75.67 Y186.75 E25.18374
G1 X75.013 Y186.622 E25.206
G1 X74.376 Y186.417 E25.22826
G1 X73.768 Y186.137 E25.25052
G1 X73.198 Y185.787 E25.27277
G1 X72.674 Y185.371 E25.29502
G1 X72.203 Y184.896 E25.31727
G1 X71.792 Y184.368 E25.33952
G1 X71.447 Y183.795 E25.36177
G1 X71.173 Y183.185 E25.38401
G1 X70.973 Y182.546 E25.40628
G1 X70.852 Y181.888 E25.42853
G1 X70.811 Y181.35 E25.44648
G1 X70.802 Y181.017 E25.45756
G1 X70.8 Y180.866 E25.46258
G1 X70.801 Y114.633 E27.6655
G1 X70.817 Y113.528 E27.70226
G1 X70.876 Y111.427 E27.77216
G1 X70.876 Y108.76 E27.86087
G1 X70.844 Y107.283 E27.91001
G1 X70.801 Y105.828 E27.95842
G1 X70.799 Y105.664 E27.96387
G1 X70.8 Y39.389 E30.16819
G1 X70.809 Y38.724 E30.19031
G1 X70.858 Y38.057 E30.21255
G1 X70.986 Y37.4 E30.23482
G1 X71.151 Y36.888 E30.25271
G0 F1080 X71.191 Y36.764
G0 X71.471 Y36.156
G0 F6000 X71.869 Y36.263
G1 F1200 X72.218 Y35.72 E30.27418
G1 X72.631 Y35.226 E30.29559
G1 X73.102 Y34.786 E30.31703
G1 X73.625 Y34.408 E30.33849
G1 X74.189 Y34.097 E30.35992
G1 X74.788 Y33.859 E30.38135
G1 X75.412 Y33.696 E30.4028
G1 X76.262 Y33.602 E30.43125
G1 X76.583 Y33.593 E30.44193
G1 X76.729 Y33.591 E30.44679
G1 X142.894 Y33.591 E32.64744
G1 X143.666 Y33.602 E32.67312
G1 X144.309 Y33.651 E32.69457
G1 X144.941 Y33.779 E32.71602
G1 X145.552 Y33.985 E32.73746
G1 X146.133 Y34.264 E32.7589
G1 X146.675 Y34.613 E32.78034
G1 X147.169 Y35.027 E32.80178
G1 X147.609 Y35.499 E32.82324
G1 X147.987 Y36.021 E32.84468
G1 X148.297 Y36.586 E32.86611
G1 X148.535 Y37.185 E32.88755
G1 X148.697 Y37.809 E32.90899
G1 X148.79 Y38.655 E32.9373
G1 X148.799 Y38.975 E32.94795
G1 X148.801 Y39.121 E32.9528
G1 X148.801 Y105.339 E35.15522
G1 X148.785 Y106.424 E35.19131
G1 X148.724 Y108.606 E35.26392
G1 X148.724 Y111.292 E35.35325
G1 X148.755 Y112.708 E35.40036
G1 X148.798 Y114.175 E35.44917
G1 X148.8 Y114.327 E35.45423
G1 X148.8 Y180.536 E37.65635
G1 X148.791 Y181.263 E37.68053
G1 X148.743 Y181.906 E37.70198
G1 X148.616 Y182.538 E37.72342
G1 X148.411 Y183.15 E37.74488
G1 X148.133 Y183.731 E37.76631
G1 X147.785 Y184.274 E37.78776
G1 X147.372 Y184.769 E37.8092
G1 X146.901 Y185.209 E37.83064
G1 X146.379 Y185.588 E37.85209
G1 X145.815 Y185.899 E37.87351
G1 X145.216 Y186.138 E37.89496
G1 X144.593 Y186.302 E37.91639
G1 X143.737 Y186.397 E37.94504
G1 X143.416 Y186.406 E37.95572
G1 X143.27 Y186.408 E37.96057
G1 X77.04 Y186.408 E40.16339
G1 X76.342 Y186.399 E40.18661
G1 X75.699 Y186.35 E40.20806
G1 X75.067 Y186.223 E40.2295
G1 X74.456 Y186.018 E40.25093
G1 X73.875 Y185.74 E40.27236
G1 X73.332 Y185.391 E40.29383
G1 X72.837 Y184.978 E40.31527
G1 X72.397 Y184.507 E40.3367
G1 X72.018 Y183.985 E40.35816
G1 X71.707 Y183.421 E40.37958
G1 X71.469 Y182.822 E40.40102
G1 X71.306 Y182.198 E40.42247
G1 X71.211 Y181.339 E40.45122
G1 X71.2 Y180.866 E40.46695
G1 X71.201 Y114.639 E42.66967
G1 X71.217 Y113.539 E42.70626
G1 X71.276 Y111.438 E42.77617
G1 X71.276 Y108.752 E42.8655
G1 X71.244 Y107.275 E42.91464
G1 X71.201 Y105.817 E42.96316
G1 X71.199 Y105.664 E42.96824
G1 X71.199 Y39.395 E45.17236
G1 X71.208 Y38.73 E45.19448
G1 X71.257 Y38.087 E45.21593
G1 X71.385 Y37.455 E45.23738
G1 X71.541 Y36.992 E45.25363
G0 F1080 X71.59 Y36.844
G0 X71.869 Y36.263
G1 F3000 E37.25363
;MESH:SailCamMK5_BasicCase_Front.stl
G0 F6000 X75.734 Y39.205
G0 X76.813 Y39.205
G0 X137.679 Y40.397
G0 X135.288 Y44.313
G0 X138.088 Y47.278
;TYPE:WALL-INNER
G1 F3000 E45.25363
G1 F1200 X138.912 Y47.278 E45.28103
G1 X139.71 Y47.081 E45.30837
G1 X140.436 Y46.7 E45.33564
G1 X141.051 Y46.154 E45.36299
G1 X141.52 Y45.477 E45.39039
G1 X141.803 Y44.729 E45.41699
G1 X141.811 Y44.707 E45.41776
G1 X141.91 Y43.892 E45.44507
G1 X141.811 Y43.078 E45.47234
G1 X141.803 Y43.056 E45.47312
G1 X141.52 Y42.308 E45.49972
G1 X141.054 Y41.631 E45.52706
G1 X140.437 Y41.084 E45.55448
G1 X139.709 Y40.703 E45.58181
G1 X139.243 Y40.588 E45.59778
G1 X138.911 Y40.507 E45.60914
G1 X138.089 Y40.507 E45.63648
G1 X137.757 Y40.588 E45.64785
G1 X137.291 Y40.703 E45.66381
G1 X136.563 Y41.084 E45.69114
G1 X135.946 Y41.631 E45.71857
G1 X135.48 Y42.308 E45.7459
G1 X135.189 Y43.078 E45.77328
G1 X135.09 Y43.892 E45.80055
G1 X135.189 Y44.707 E45.82786
G1 X135.48 Y45.477 E45.85524
G1 X135.949 Y46.154 E45.88263
G1 X136.564 Y46.7 E45.90998
G1 X137.29 Y47.081 E45.93725
G1 X137.311 Y47.087 E45.93798
G0 F1080 X138.088 Y47.278
G0 F6000 X138.137 Y46.878
G1 F1200 X138.863 Y46.878 E45.96213
G1 X139.567 Y46.704 E45.98625
G1 X140.207 Y46.368 E46.01029
G1 X140.75 Y45.887 E46.03442
G1 X141.163 Y45.29 E46.05856
G1 X141.42 Y44.611 E46.08271
G1 X141.507 Y43.892 E46.1068
G1 X141.42 Y43.174 E46.13085
G1 X141.163 Y42.495 E46.155
G1 X140.752 Y41.898 E46.17911
G1 X140.208 Y41.416 E46.20328
G1 X139.566 Y41.08 E46.22738
G1 X138.863 Y40.907 E46.25146
G1 X138.137 Y40.907 E46.27561
G1 X137.434 Y41.08 E46.29969
G1 X136.792 Y41.416 E46.32379
G1 X136.248 Y41.898 E46.34796
G1 X135.837 Y42.495 E46.37207
G1 X135.58 Y43.174 E46.39621
G1 X135.493 Y43.892 E46.42027
G1 X135.58 Y44.611 E46.44436
G1 X135.837 Y45.29 E46.46851
G1 X136.25 Y45.887 E46.49265
G1 X136.793 Y46.368 E46.51678
G1 X137.367 Y46.67 E46.53835
G0 F1080 X137.433 Y46.704
G0 X138.137 Y46.878
G0 F6000 X138.186 Y46.478
G1 F1200 X138.814 Y46.478 E46.55924
G1 X139.424 Y46.327 E46.58014
G1 X139.978 Y46.036 E46.60095
G1 X140.449 Y45.62 E46.62185
G1 X140.806 Y45.103 E46.64275
G1 X141.029 Y44.515 E46.66367
G1 X141.104 Y43.892 E46.68454
G1 X141.029 Y43.27 E46.70537
G1 X140.806 Y42.682 E46.72629
G1 X140.45 Y42.165 E46.74717
G1 X139.979 Y41.748 E46.76809
G1 X139.423 Y41.457 E46.78896
G1 X138.814 Y41.307 E46.80982
G1 X138.186 Y41.307 E46.83071
G1 X137.577 Y41.457 E46.85157
G1 X137.021 Y41.748 E46.87244
G1 X136.55 Y42.165 E46.89337
G1 X136.194 Y42.682 E46.91425
G1 X135.971 Y43.27 E46.93516
G1 X135.896 Y43.892 E46.956
G1 X135.971 Y44.515 E46.97687
G1 X136.194 Y45.103 E46.99779
G1 X136.551 Y45.62 E47.01868
G1 X137.022 Y46.036 E47.03958
G1 X137.424 Y46.247 E47.05468
G0 F1080 X137.576 Y46.327
G0 X138.186 Y46.478
G0 F6000 X138.235 Y46.078
;TYPE:WALL-OUTER
G1 F1200 X138.765 Y46.078 E47.07231
G1 X139.281 Y45.95 E47.08999
G1 X139.75 Y45.704 E47.10761
G1 X140.148 Y45.353 E47.12526
G1 X140.449 Y44.916 E47.14291
G1 X140.638 Y44.419 E47.16059
G1 X140.701 Y43.892 E47.17825
G1 X140.638 Y43.366 E47.19587
G1 X140.449 Y42.869 E47.21355
G1 X140.148 Y42.432 E47.2312
G1 X139.75 Y42.08 E47.24887
G1 X139.28 Y41.834 E47.26652
G1 X138.765 Y41.707 E47.28416
G1 X138.235 Y41.707 E47.30179
G1 X137.72 Y41.834 E47.31943
G1 X137.25 Y42.08 E47.33707
G1 X136.852 Y42.432 E47.35474
G1 X136.551 Y42.869 E47.37239
G1 X136.362 Y43.366 E47.39008
G1 X136.299 Y43.892 E47.4077
G1 X136.362 Y44.419 E47.42535
G1 X136.551 Y44.916 E47.44304
G1 X136.852 Y45.353 E47.46068
G1 X137.25 Y45.704 E47.47833
G1 X137.481 Y45.825 E47.48701
G0 F1080 X137.719 Y45.95
G0 X138.235 Y46.078
G0 F6000 X138.182 Y46.514
G1 F3000 E39.48701
G0 F6000 X135.022 Y44.749
G0 X137.679 Y40.397
G0 X82.321 Y40.397
G0 X84.978 Y44.749
G0 X81.066 Y47.449
G0 X78.002 Y44.785
G0 X78.002 Y83
G0 X82.77 Y80.542
G0 X84.446 Y84.277
G0 X81.912 Y87.278
;TYPE:WALL-INNER
G1 F3000 E47.48701
G1 F1200 X82.71 Y87.081 E47.51435
G1 X83.436 Y86.7 E47.54162
G1 X84.051 Y86.154 E47.56897
G1 X84.52 Y85.477 E47.59636
G1 X84.811 Y84.707 E47.62374
G1 X84.91 Y83.892 E47.65105
G1 X84.811 Y83.078 E47.67832
G1 X84.52 Y82.308 E47.7057
G1 X84.054 Y81.631 E47.73303
G1 X83.437 Y81.084 E47.76046
G1 X82.709 Y80.703 E47.78779
G1 X81.911 Y80.507 E47.81512
G1 X81.089 Y80.507 E47.84246
G1 X80.291 Y80.703 E47.86979
G1 X79.563 Y81.084 E47.89712
G1 X78.946 Y81.631 E47.92454
G1 X78.48 Y82.308 E47.95188
G1 X78.197 Y83.056 E47.97848
G1 X78.189 Y83.078 E47.97926
G1 X78.09 Y83.892 E48.00653
G1 X78.189 Y84.707 E48.03384
G1 X78.197 Y84.729 E48.03461
G1 X78.48 Y85.477 E48.06121
G1 X78.949 Y86.154 E48.08861
G1 X79.564 Y86.7 E48.11596
G1 X80.29 Y87.081 E48.14323
G1 X81.088 Y87.278 E48.17057
G1 X81.112 Y87.278 E48.17137
G0 F1080 X81.912 Y87.278
G0 F6000 X81.863 Y86.878
G1 F1200 X82.567 Y86.704 E48.19549
G1 X83.207 Y86.368 E48.21953
G1 X83.75 Y85.887 E48.24365
G1 X84.163 Y85.29 E48.2678
G1 X84.42 Y84.611 E48.29195
G1 X84.507 Y83.892 E48.31604
G1 X84.42 Y83.174 E48.34009
G1 X84.163 Y82.495 E48.36424
G1 X83.752 Y81.898 E48.38834
G1 X83.208 Y81.416 E48.41252
G1 X82.566 Y81.08 E48.43662
G1 X81.863 Y80.907 E48.4607
G1 X81.137 Y80.907 E48.48485
G1 X80.434 Y81.08 E48.50892
G1 X79.792 Y81.416 E48.53303
G1 X79.248 Y81.898 E48.5572
G1 X78.837 Y82.495 E48.58131
G1 X78.58 Y83.174 E48.60545
G1 X78.493 Y83.892 E48.62951
G1 X78.58 Y84.611 E48.6536
G1 X78.837 Y85.29 E48.67774
G1 X79.25 Y85.887 E48.70189
G1 X79.793 Y86.368 E48.72602
G1 X80.433 Y86.704 E48.75006
G1 X81.066 Y86.861 E48.77175
G0 F1080 X81.137 Y86.878
G0 X81.863 Y86.878
G0 F6000 X81.814 Y86.478
G1 F1200 X82.424 Y86.327 E48.79265
G1 X82.978 Y86.036 E48.81346
G1 X83.449 Y85.62 E48.83436
G1 X83.806 Y85.103 E48.85526
G1 X84.029 Y84.515 E48.87618
G1 X84.104 Y83.892 E48.89705
G1 X84.029 Y83.27 E48.91789
G1 X83.806 Y82.682 E48.9388
G1 X83.45 Y82.165 E48.95968
G1 X82.979 Y81.748 E48.9806
G1 X82.423 Y81.457 E49.00148
G1 X81.814 Y81.307 E49.02234
G1 X81.186 Y81.307 E49.04322
G1 X80.577 Y81.457 E49.06408
G1 X80.021 Y81.748 E49.08496
G1 X79.55 Y82.165 E49.10588
G1 X79.194 Y82.682 E49.12676
G1 X78.971 Y83.27 E49.14767
G1 X78.896 Y83.892 E49.16851
G1 X78.971 Y84.515 E49.18938
G1 X79.194 Y85.103 E49.2103
G1 X79.551 Y85.62 E49.2312
G1 X80.022 Y86.036 E49.2521
G1 X80.576 Y86.327 E49.27291
G1 X81.019 Y86.437 E49.28809
G0 F1080 X81.186 Y86.478
G0 X81.814 Y86.478
G0 F6000 X81.765 Y86.078
;TYPE:WALL-OUTER
G1 F1200 X82.281 Y85.95 E49.30577
G1 X82.75 Y85.704 E49.32339
G1 X83.148 Y85.353 E49.34104
G1 X83.449 Y84.916 E49.35869
G1 X83.638 Y84.419 E49.37637
G1 X83.701 Y83.892 E49.39403
G1 X83.638 Y83.366 E49.41164
G1 X83.449 Y82.869 E49.42933
G1 X83.148 Y82.432 E49.44698
G1 X82.75 Y82.08 E49.46465
G1 X82.28 Y81.834 E49.4823
G1 X81.765 Y81.707 E49.49994
G1 X81.235 Y81.707 E49.51757
G1 X80.72 Y81.834 E49.53521
G1 X80.25 Y82.08 E49.55285
G1 X79.852 Y82.432 E49.57052
G1 X79.551 Y82.869 E49.58817
G1 X79.362 Y83.366 E49.60586
G1 X79.299 Y83.892 E49.62348
G1 X79.362 Y84.419 E49.64113
G1 X79.551 Y84.916 E49.65882
G1 X79.852 Y85.353 E49.67646
G1 X80.25 Y85.704 E49.69411
G1 X80.719 Y85.95 E49.71173
G1 X80.973 Y86.013 E49.72043
G0 F1080 X81.235 Y86.078
G0 X81.765 Y86.078
G0 F6000 X81.818 Y86.514
G1 F3000 E41.72043
G0 F6000 X82.886 Y85.902
G0 X83.328 Y85.513
G0 X83.662 Y85.028
G0 X83.872 Y84.476
G0 X83.942 Y83.892
G0 X83.872 Y83.309
G0 X83.662 Y82.757
G0 X81.832 Y80.337
G0 X78.002 Y83
G0 X78.002 Y44.785
G0 X81.912 Y47.278
;TYPE:WALL-INNER
G1 F3000 E49.72043
G1 F1200 X82.71 Y47.081 E49.74777
G1 X83.436 Y46.7 E49.77504
G1 X84.051 Y46.154 E49.80239
G1 X84.52 Y45.477 E49.82979
G1 X84.811 Y44.707 E49.85716
G1 X84.91 Y43.892 E49.88447
G1 X84.811 Y43.078 E49.91174
G1 X84.52 Y42.308 E49.93912
G1 X84.054 Y41.631 E49.96646
G1 X83.437 Y41.084 E49.99388
G1 X82.709 Y40.703 E50.02121
G1 X82.243 Y40.588 E50.03718
G1 X81.911 Y40.507 E50.04854
G1 X81.089 Y40.507 E50.07588
