;FLAVOR:Marlin
;TIME:15718
;Filament used: 10.5593m
;Layer height: 0.12
;MINX:64.7
;MINY:61.639
;MINZ:0.12
;MAXX:155.3
;MAXY:161.3
;MAXZ:15.96
;Generated with Cura_SteamEngine 4.8.0
M140 S60
M105
M190 S60
M104 S205
M105
M109 S205
M82 ;absolute extrusion mode
M201 X500.00 Y500.00 Z100.00 E5000.00 ;Setup machine max acceleration
M203 X500.00 Y500.00 Z10.00 E50.00 ;Setup machine max feedrate
M204 P500.00 R1000.00 T500.00 ;Setup Print/Retract/Travel acceleration
M205 X8.00 Y8.00 Z0.40 E5.00 ;Setup Jerk
M220 S100 ;Reset Feedrate
M221 S100 ;Reset Flowrate

G28 ;Home
G29

G92 E0 ;Reset Extruder
G1 Z2.0 F3000 ;Move Z Axis up
G1 X10.1 Y20 Z0.28 F5000.0 ;Move to start position
G1 X10.1 Y200.0 Z0.28 F1500.0 E15 ;Draw the first line
G1 X10.4 Y200.0 Z0.28 F5000.0 ;Move to side a little
G1 X10.4 Y20 Z0.28 F1500.0 E30 ;Draw the second line
G92 E0 ;Reset Extruder
G1 Z2.0 F3000 ;Move Z Axis up
G92 E0
G92 E0
G1 F2700 E-5
;LAYER_COUNT:133
;LAYER:0
M107
G0 F6000 X67.57 Y64.627 Z0.12
;TYPE:SKIRT
G1 F2700 E0
G1 F1200 X67.687 Y64.51 E0.0033
G1 X68.341 Y63.913 E0.02097
G1 X69.046 Y63.378 E0.03863
G1 X69.796 Y62.908 E0.0563
G1 X70.586 Y62.508 E0.07397
G1 X71.408 Y62.18 E0.09163
G1 X72.257 Y61.929 E0.1093
G1 X73.125 Y61.754 E0.12697
G1 X74.005 Y61.659 E0.14463
G1 X74.617 Y61.64 E0.15685
G1 X145.383 Y61.639 E1.56906
G1 X146.267 Y61.679 E1.58672
G1 X147.144 Y61.799 E1.60439
G1 X148.007 Y61.997 E1.62206
G1 X148.848 Y62.272 E1.63971
G1 X149.661 Y62.622 E1.65738
G1 X150.439 Y63.044 E1.67504
G1 X151.176 Y63.535 E1.69271
G1 X151.866 Y64.09 E1.71038
G1 X152.313 Y64.509 E1.72261
G1 X152.43 Y64.626 E1.72591
G1 X153.027 Y65.28 E1.74358
G1 X153.562 Y65.985 E1.76125
G1 X154.032 Y66.735 E1.77891
G1 X154.432 Y67.525 E1.79658
G1 X154.76 Y68.347 E1.81424
G1 X155.011 Y69.196 E1.83191
G1 X155.186 Y70.064 E1.84958
G1 X155.281 Y70.944 E1.86724
G1 X155.3 Y71.556 E1.87946
G1 X155.3 Y149.383 E3.43258
G1 X155.26 Y150.267 E3.45024
G1 X155.14 Y151.144 E3.46791
G1 X154.942 Y152.007 E3.48558
G1 X154.667 Y152.848 E3.50323
G1 X154.317 Y153.661 E3.5209
G1 X153.895 Y154.44 E3.53858
G1 X153.404 Y155.176 E3.55623
G1 X152.849 Y155.866 E3.57391
G1 X152.51 Y156.228 E3.5838
G1 X152.395 Y156.44 E3.58862
G1 X151.904 Y157.176 E3.60627
G1 X151.349 Y157.866 E3.62394
G1 X150.93 Y158.313 E3.63617
G1 X150.813 Y158.43 E3.63947
G1 X150.159 Y159.027 E3.65714
G1 X149.454 Y159.562 E3.6748
G1 X148.704 Y160.032 E3.69247
G1 X147.914 Y160.432 E3.71014
G1 X147.092 Y160.76 E3.7278
G1 X146.243 Y161.011 E3.74547
G1 X145.375 Y161.186 E3.76314
G1 X144.495 Y161.281 E3.7808
G1 X143.883 Y161.3 E3.79302
G1 X76.117 Y161.3 E5.14536
G1 X75.233 Y161.26 E5.16302
G1 X74.356 Y161.14 E5.18069
G1 X73.493 Y160.942 E5.19836
G1 X72.652 Y160.667 E5.21602
G1 X71.839 Y160.317 E5.23368
G1 X71.06 Y159.895 E5.25136
G1 X70.324 Y159.404 E5.26902
G1 X69.634 Y158.849 E5.28669
G1 X69.187 Y158.43 E5.29891
G1 X69.07 Y158.313 E5.30222
G1 X68.473 Y157.659 E5.31989
G1 X67.938 Y156.954 E5.33755
G1 X67.465 Y156.198 E5.35534
G1 X66.973 Y155.659 E5.36991
G1 X66.438 Y154.954 E5.38757
G1 X65.968 Y154.204 E5.40523
G1 X65.568 Y153.414 E5.4229
G1 X65.24 Y152.592 E5.44057
G1 X64.989 Y151.743 E5.45823
G1 X64.814 Y150.875 E5.4759
G1 X64.719 Y149.995 E5.49357
G1 X64.7 Y149.383 E5.50579
G1 X64.7 Y71.557 E7.05889
G1 X64.74 Y70.673 E7.07655
G1 X64.86 Y69.796 E7.09421
G1 X65.058 Y68.933 E7.11188
G1 X65.333 Y68.092 E7.12954
G1 X65.683 Y67.279 E7.1472
G1 X66.105 Y66.5 E7.16488
G1 X66.596 Y65.764 E7.18254
G1 X66.7 Y65.635 E7.18585
G0 F1080 X67.151 Y65.074
G0 X67.57 Y64.627
G0 F6000 X67.853 Y64.91
G1 F1200 X67.97 Y64.793 E7.18915
G1 X68.611 Y64.209 E7.20645
G1 X69.303 Y63.686 E7.22376
G1 X70.04 Y63.23 E7.24106
G1 X70.815 Y62.843 E7.25835
G1 X71.624 Y62.529 E7.27566
G1 X72.457 Y62.291 E7.29295
G1 X73.309 Y62.131 E7.31025
G1 X74.172 Y62.051 E7.32755
G1 X74.617 Y62.04 E7.33643
G1 X145.383 Y62.039 E8.74864
G1 X146.249 Y62.079 E8.76594
G1 X147.108 Y62.199 E8.78325
G1 X147.952 Y62.397 E8.80055
G1 X148.774 Y62.672 E8.81785
G1 X149.567 Y63.022 E8.83515
G1 X150.325 Y63.443 E8.85245
G1 X151.04 Y63.932 E8.86974
G1 X151.708 Y64.485 E8.88704
G1 X152.03 Y64.792 E8.89592
G1 X152.147 Y64.909 E8.89922
G1 X152.731 Y65.55 E8.91653
G1 X153.254 Y66.242 E8.93384
G1 X153.71 Y66.979 E8.95113
G1 X154.097 Y67.754 E8.96842
G1 X154.411 Y68.563 E8.98574
G1 X154.649 Y69.396 E9.00303
G1 X154.809 Y70.248 E9.02033
G1 X154.889 Y71.111 E9.03762
G1 X154.9 Y71.556 E9.04651
G1 X154.9 Y149.383 E10.59963
G1 X154.86 Y150.249 E10.61693
G1 X154.74 Y151.108 E10.63424
G1 X154.542 Y151.952 E10.65154
G1 X154.267 Y152.774 E10.66883
G1 X153.917 Y153.567 E10.68613
G1 X153.496 Y154.325 E10.70344
G1 X153.007 Y155.04 E10.72072
G1 X152.454 Y155.708 E10.73803
G1 X152.178 Y155.998 E10.74602
G1 X151.996 Y156.325 E10.75349
G1 X151.507 Y157.04 E10.77077
G1 X150.954 Y157.708 E10.78808
G1 X150.647 Y158.03 E10.79696
G1 X150.53 Y158.147 E10.80026
G1 X149.889 Y158.731 E10.81756
G1 X149.197 Y159.254 E10.83487
G1 X148.46 Y159.71 E10.85217
G1 X147.685 Y160.097 E10.86946
G1 X146.876 Y160.411 E10.88677
G1 X146.043 Y160.649 E10.90406
G1 X145.191 Y160.809 E10.92136
G1 X144.328 Y160.889 E10.93866
G1 X143.883 Y160.9 E10.94754
G1 X76.117 Y160.9 E12.29988
G1 X75.251 Y160.86 E12.31719
G1 X74.392 Y160.74 E12.33449
G1 X73.548 Y160.542 E12.35179
G1 X72.726 Y160.267 E12.36909
G1 X71.933 Y159.917 E12.38639
G1 X71.175 Y159.496 E12.40369
G1 X70.46 Y159.007 E12.42098
G1 X69.792 Y158.454 E12.43829
G1 X69.47 Y158.147 E12.44716
G1 X69.353 Y158.03 E12.45047
G1 X68.769 Y157.389 E12.46777
G1 X68.246 Y156.697 E12.48508
G1 X67.792 Y155.963 E12.5023
G1 X67.269 Y155.389 E12.5178
G1 X66.746 Y154.697 E12.53511
G1 X66.29 Y153.96 E12.55241
G1 X65.903 Y153.185 E12.56969
G1 X65.589 Y152.376 E12.58701
G1 X65.351 Y151.543 E12.6043
G1 X65.191 Y150.691 E12.6216
G1 X65.111 Y149.828 E12.63889
G1 X65.1 Y149.383 E12.64778
G1 X65.1 Y71.557 E14.20088
G1 X65.14 Y70.691 E14.21818
G1 X65.26 Y69.832 E14.23549
G1 X65.458 Y68.988 E14.25279
G1 X65.733 Y68.166 E14.27009
G1 X66.083 Y67.373 E14.28738
G1 X66.504 Y66.615 E14.30469
G1 X66.982 Y65.917 E14.32157
G0 F1080 X66.993 Y65.9
G0 X67.546 Y65.232
G0 X67.853 Y64.91
G0 F6000 X68.136 Y65.193
G1 F1200 X68.253 Y65.076 E14.32487
G1 X68.88 Y64.505 E14.3418
G1 X69.559 Y63.996 E14.35873
G1 X70.282 Y63.553 E14.37565
G1 X71.044 Y63.18 E14.39258
G1 X71.838 Y62.88 E14.40952
G1 X72.656 Y62.656 E14.42645
G1 X73.492 Y62.511 E14.44338
G1 X74.617 Y62.44 E14.46587
G1 X145.383 Y62.439 E15.87809
G1 X146.23 Y62.479 E15.89501
G1 X147.07 Y62.599 E15.91194
G1 X147.895 Y62.797 E15.92887
G1 X148.697 Y63.072 E15.94579
G1 X149.47 Y63.421 E15.96272
G1 X150.207 Y63.841 E15.97965
G1 X150.901 Y64.329 E15.99658
G1 X151.747 Y65.075 E16.01908
G1 X151.864 Y65.192 E16.02239
G1 X152.435 Y65.819 E16.03931
G1 X152.944 Y66.498 E16.05625
G1 X153.387 Y67.221 E16.07317
G1 X153.76 Y67.983 E16.0901
G1 X154.06 Y68.777 E16.10704
G1 X154.284 Y69.595 E16.12396
G1 X154.429 Y70.431 E16.14089
G1 X154.5 Y71.556 E16.16339
G1 X154.5 Y149.383 E17.71651
G1 X154.46 Y150.23 E17.73343
G1 X154.34 Y151.07 E17.75037
G1 X154.142 Y151.895 E17.7673
G1 X153.867 Y152.698 E17.78423
G1 X153.518 Y153.471 E17.80116
G1 X153.098 Y154.207 E17.81807
G1 X152.61 Y154.901 E17.835
G1 X151.856 Y155.755 E17.85774
G1 X151.598 Y156.207 E17.86812
G1 X151.11 Y156.901 E17.88505
G1 X150.364 Y157.747 E17.90756
G1 X150.247 Y157.864 E17.91086
G1 X149.62 Y158.435 E17.92779
G1 X148.941 Y158.944 E17.94472
G1 X148.218 Y159.387 E17.96164
G1 X147.456 Y159.76 E17.97857
G1 X146.662 Y160.06 E17.99551
G1 X145.844 Y160.284 E18.01244
G1 X145.008 Y160.429 E18.02937
G1 X143.883 Y160.5 E18.05187
G1 X76.117 Y160.5 E19.40421
G1 X75.27 Y160.46 E19.42113
G1 X74.43 Y160.34 E19.43806
G1 X73.605 Y160.142 E19.455
G1 X72.802 Y159.867 E19.47193
G1 X72.029 Y159.518 E19.48886
G1 X71.293 Y159.098 E19.50577
G1 X70.599 Y158.61 E19.5227
G1 X69.753 Y157.864 E19.54521
G1 X69.636 Y157.747 E19.54851
G1 X69.065 Y157.12 E19.56544
G1 X68.556 Y156.441 E19.58237
G1 X68.12 Y155.729 E19.59903
G1 X67.565 Y155.12 E19.61547
G1 X67.056 Y154.441 E19.63241
G1 X66.613 Y153.718 E19.64933
G1 X66.24 Y152.956 E19.66626
G1 X65.94 Y152.162 E19.6832
G1 X65.716 Y151.344 E19.70012
G1 X65.571 Y150.508 E19.71706
G1 X65.5 Y149.383 E19.73955
G1 X65.5 Y71.557 E21.29265
G1 X65.54 Y70.71 E21.30958
G1 X65.66 Y69.87 E21.32651
G1 X65.858 Y69.045 E21.34344
G1 X66.133 Y68.242 E21.36038
G1 X66.482 Y67.469 E21.3773
G1 X66.902 Y66.733 E21.39421
G1 X67.273 Y66.206 E21.40708
G0 F1080 X67.39 Y66.039
G0 X68.136 Y65.193
G0 F6000 X68.419 Y65.476
G1 F1200 X68.536 Y65.359 E21.41038
G1 X69.15 Y64.801 E21.42694
G1 X69.815 Y64.306 E21.44348
G1 X70.524 Y63.876 E21.46003
G1 X71.271 Y63.517 E21.47657
G1 X72.05 Y63.232 E21.49312
G1 X72.852 Y63.023 E21.50966
G1 X73.671 Y62.892 E21.52621
G1 X74.617 Y62.84 E21.54512
G1 X145.383 Y62.839 E22.95733
G1 X146.211 Y62.879 E22.97387
G1 X147.032 Y62.999 E22.99043
G1 X147.837 Y63.197 E23.00697
G1 X148.619 Y63.471 E23.02351
G1 X149.372 Y63.82 E23.04007
G1 X150.087 Y64.239 E23.05661
G1 X150.758 Y64.726 E23.07316
G1 X151.464 Y65.358 E23.09207
G1 X151.581 Y65.475 E23.09537
G1 X152.139 Y66.089 E23.11192
G1 X152.634 Y66.754 E23.12847
G1 X153.064 Y67.463 E23.14502
G1 X153.423 Y68.21 E23.16156
G1 X153.708 Y68.989 E23.17811
G1 X153.917 Y69.791 E23.19465
G1 X154.048 Y70.61 E23.2112
G1 X154.1 Y71.556 E23.23011
G1 X154.1 Y149.383 E24.78323
G1 X154.06 Y150.211 E24.79977
G1 X153.94 Y151.032 E24.81633
G1 X153.742 Y151.837 E24.83287
G1 X153.468 Y152.619 E24.84941
G1 X153.119 Y153.372 E24.86597
G1 X152.699 Y154.087 E24.88252
G1 X152.213 Y154.758 E24.89905
G1 X151.581 Y155.464 E24.91796
G1 X151.542 Y155.503 E24.91906
G1 X151.199 Y156.087 E24.93258
G1 X150.713 Y156.758 E24.94911
G1 X150.081 Y157.464 E24.96802
G1 X149.964 Y157.581 E24.97133
G1 X149.35 Y158.139 E24.98788
G1 X148.685 Y158.634 E25.00443
G1 X147.976 Y159.064 E25.02097
G1 X147.229 Y159.423 E25.03751
G1 X146.45 Y159.708 E25.05407
G1 X145.648 Y159.917 E25.07061
G1 X144.829 Y160.048 E25.08716
G1 X143.883 Y160.1 E25.10606
G1 X76.117 Y160.1 E26.45841
G1 X75.289 Y160.06 E26.47495
G1 X74.468 Y159.94 E26.49151
G1 X73.663 Y159.742 E26.50805
G1 X72.881 Y159.468 E26.52459
G1 X72.128 Y159.119 E26.54115
G1 X71.413 Y158.699 E26.5577
G1 X70.742 Y158.213 E26.57423
G1 X70.036 Y157.581 E26.59314
G1 X69.919 Y157.464 E26.59644
G1 X69.361 Y156.85 E26.613
G1 X68.866 Y156.185 E26.62955
G1 X68.444 Y155.489 E26.64579
G1 X68.419 Y155.464 E26.64649
G1 X67.861 Y154.85 E26.66305
G1 X67.366 Y154.185 E26.67959
G1 X66.936 Y153.476 E26.69614
G1 X66.577 Y152.729 E26.71268
G1 X66.292 Y151.95 E26.72924
G1 X66.083 Y151.148 E26.74577
G1 X65.952 Y150.329 E26.76233
G1 X65.9 Y149.383 E26.78123
G1 X65.9 Y71.557 E28.33434
G1 X65.94 Y70.729 E28.35088
G1 X66.06 Y69.908 E28.36744
G1 X66.258 Y69.103 E28.38398
G1 X66.532 Y68.321 E28.40052
G1 X66.881 Y67.568 E28.41708
G1 X67.301 Y66.853 E28.43363
G1 X67.562 Y66.493 E28.4425
G0 F1080 X67.787 Y66.182
G0 X68.419 Y65.476
G0 F6000 X68.702 Y65.759
G1 F1200 X68.819 Y65.642 E28.4458
G1 X69.419 Y65.098 E28.46196
G1 X70.07 Y64.616 E28.47813
G1 X70.765 Y64.201 E28.49428
G1 X71.497 Y63.857 E28.51042
G1 X72.261 Y63.586 E28.5266
G1 X73.047 Y63.392 E28.54276
G1 X73.848 Y63.276 E28.55891
G1 X74.617 Y63.24 E28.57427
G1 X145.383 Y63.239 E29.98648
G1 X146.192 Y63.279 E30.00265
G1 X146.992 Y63.398 E30.01879
G1 X147.778 Y63.596 E30.03496
G1 X148.539 Y63.871 E30.05111
G1 X149.27 Y64.219 E30.06727
G1 X149.963 Y64.638 E30.08343
G1 X150.612 Y65.122 E30.09959
G1 X151.181 Y65.641 E30.11495
G1 X151.298 Y65.758 E30.11826
G1 X151.842 Y66.358 E30.13442
G1 X152.324 Y67.009 E30.15058
G1 X152.739 Y67.704 E30.16674
G1 X153.083 Y68.436 E30.18288
G1 X153.354 Y69.2 E30.19906
G1 X153.548 Y69.986 E30.21521
G1 X153.664 Y70.787 E30.23136
G1 X153.7 Y71.556 E30.24673
G1 X153.7 Y149.383 E31.79985
G1 X153.66 Y150.192 E31.81601
G1 X153.54 Y150.993 E31.83218
G1 X153.343 Y151.778 E31.84833
G1 X153.068 Y152.539 E31.86447
G1 X152.72 Y153.27 E31.88063
G1 X152.301 Y153.964 E31.89681
G1 X151.816 Y154.612 E31.91296
G1 X151.298 Y155.181 E31.92832
G1 X151.22 Y155.27 E31.93068
G1 X150.801 Y155.964 E31.94686
G1 X150.316 Y156.612 E31.96301
G1 X149.798 Y157.181 E31.97836
G1 X149.681 Y157.298 E31.98167
G1 X149.081 Y157.842 E31.99783
G1 X148.43 Y158.324 E32.01399
G1 X147.735 Y158.739 E32.03015
G1 X147.003 Y159.083 E32.04629
G1 X146.239 Y159.354 E32.06247
G1 X145.453 Y159.548 E32.07862
G1 X144.652 Y159.664 E32.09477
G1 X143.883 Y159.7 E32.11014
G1 X76.117 Y159.7 E33.46248
G1 X75.308 Y159.66 E33.47864
G1 X74.507 Y159.54 E33.49481
G1 X73.722 Y159.343 E33.51096
G1 X72.961 Y159.068 E33.52711
G1 X72.23 Y158.72 E33.54326
G1 X71.536 Y158.301 E33.55944
G1 X70.888 Y157.816 E33.57559
G1 X70.319 Y157.298 E33.59095
G1 X70.202 Y157.181 E33.59425
G1 X69.658 Y156.581 E33.61041
G1 X69.176 Y155.93 E33.62658
G1 X68.768 Y155.247 E33.64246
G1 X68.702 Y155.181 E33.64432
G1 X68.158 Y154.581 E33.66048
G1 X67.676 Y153.93 E33.67664
G1 X67.261 Y153.235 E33.6928
G1 X66.917 Y152.503 E33.70894
G1 X66.646 Y151.739 E33.72512
G1 X66.452 Y150.953 E33.74127
G1 X66.336 Y150.152 E33.75742
G1 X66.3 Y149.383 E33.77279
G1 X66.3 Y71.557 E35.32589
G1 X66.34 Y70.748 E35.34205
G1 X66.46 Y69.947 E35.35822
G1 X66.657 Y69.162 E35.37437
G1 X66.932 Y68.401 E35.39052
G1 X67.28 Y67.67 E35.40667
G1 X67.699 Y66.976 E35.42285
G1 X67.847 Y66.778 E35.42778
G0 F1080 X68.184 Y66.328
G0 X68.702 Y65.759
G0 F6000 X68.985 Y66.042
G1 F1200 X69.102 Y65.925 E35.43109
G1 X69.688 Y65.395 E35.44685
G1 X70.324 Y64.928 E35.4626
G1 X71.004 Y64.527 E35.47835
G1 X71.722 Y64.197 E35.49412
G1 X72.469 Y63.942 E35.50987
G1 X73.238 Y63.763 E35.52563
G1 X74.022 Y63.663 E35.5414
G1 X74.617 Y63.64 E35.55329
G1 X145.383 Y63.639 E36.9655
G1 X146.172 Y63.679 E36.98126
G1 X146.952 Y63.798 E36.99701
G1 X147.717 Y63.996 E37.01278
G1 X148.457 Y64.27 E37.02853
G1 X149.166 Y64.618 E37.04429
G1 X149.837 Y65.035 E37.06005
G1 X150.461 Y65.519 E37.07581
G1 X150.898 Y65.924 E37.0877
G1 X151.015 Y66.041 E37.091
G1 X151.545 Y66.627 E37.10677
G1 X152.012 Y67.263 E37.12252
G1 X152.413 Y67.943 E37.13827
G1 X152.743 Y68.661 E37.15404
G1 X152.998 Y69.408 E37.16979
G1 X153.177 Y70.177 E37.18555
G1 X153.277 Y70.961 E37.20132
G1 X153.3 Y71.556 E37.21321
G1 X153.3 Y149.383 E38.76633
G1 X153.26 Y150.172 E38.78209
G1 X153.141 Y150.952 E38.79784
G1 X152.943 Y151.717 E38.81361
G1 X152.669 Y152.457 E38.82936
G1 X152.321 Y153.166 E38.84512
G1 X151.903 Y153.837 E38.86089
G1 X151.42 Y154.461 E38.87664
G1 X151.015 Y154.898 E38.88853
G1 X150.893 Y155.02 E38.89197
G1 X150.821 Y155.166 E38.89522
G1 X150.403 Y155.837 E38.911
G1 X149.92 Y156.461 E38.92675
G1 X149.515 Y156.898 E38.93864
G1 X149.398 Y157.015 E38.94194
G1 X148.812 Y157.545 E38.95771
G1 X148.176 Y158.012 E38.97345
G1 X147.496 Y158.413 E38.98921
G1 X146.778 Y158.743 E39.00497
G1 X146.031 Y158.998 E39.02073
G1 X145.262 Y159.177 E39.03648
G1 X144.478 Y159.277 E39.05226
G1 X143.883 Y159.3 E39.06414
G1 X76.117 Y159.3 E40.41648
G1 X75.328 Y159.26 E40.43225
G1 X74.548 Y159.141 E40.44799
G1 X73.783 Y158.943 E40.46376
G1 X73.043 Y158.669 E40.47951
G1 X72.334 Y158.321 E40.49527
G1 X71.663 Y157.903 E40.51105
G1 X71.039 Y157.42 E40.52679
G1 X70.602 Y157.015 E40.53869
G1 X70.485 Y156.898 E40.54199
G1 X69.955 Y156.312 E40.55775
G1 X69.488 Y155.676 E40.5735
G1 X69.093 Y155.006 E40.58902
G1 X68.985 Y154.898 E40.59207
G1 X68.455 Y154.312 E40.60784
G1 X67.988 Y153.676 E40.62358
G1 X67.587 Y152.996 E40.63934
G1 X67.257 Y152.278 E40.65511
G1 X67.002 Y151.531 E40.67086
G1 X66.823 Y150.762 E40.68662
G1 X66.723 Y149.978 E40.70239
G1 X66.7 Y149.383 E40.71427
G1 X66.7 Y71.557 E42.26737
G1 X66.74 Y70.768 E42.28314
G1 X66.859 Y69.988 E42.29888
G1 X67.057 Y69.223 E42.31465
G1 X67.331 Y68.483 E42.3304
G1 X67.679 Y67.774 E42.34616
G1 X68.097 Y67.103 E42.36194
G1 X68.129 Y67.061 E42.36299
G0 F1080 X68.58 Y66.479
G0 X68.985 Y66.042
G0 F6000 X69.267 Y66.324
G1 F1200 X69.384 Y66.207 E42.36629
G1 X69.956 Y65.693 E42.38164
G1 X70.578 Y65.24 E42.397
G1 X71.243 Y64.854 E42.41234
G1 X71.945 Y64.539 E42.4277
G1 X72.676 Y64.299 E42.44305
G1 X73.427 Y64.136 E42.45839
G1 X74.192 Y64.052 E42.47374
G1 X74.617 Y64.04 E42.48223
