;FLAVOR:Marlin
;TIME:8999
;Filament used: 9.84453m
;Layer height: 0.2
;MINX:66.013
;MINY:61.599
;MINZ:0.2
;MAXX:154.076
;MAXY:161.3
;MAXZ:16.2
;Generated with Cura_SteamEngine 4.8.0
M140 S60
M105
M190 S60
M104 S205
M105
M109 S205
M82 ;absolute extrusion mode
M201 X500.00 Y500.00 Z100.00 E5000.00 ;Setup machine max acceleration
M203 X500.00 Y500.00 Z10.00 E50.00 ;Setup machine max feedrate
M204 P500.00 R1000.00 T500.00 ;Setup Print/Retract/Travel acceleration
M205 X8.00 Y8.00 Z0.40 E5.00 ;Setup Jerk
M220 S100 ;Reset Feedrate
M221 S100 ;Reset Flowrate

G28 ;Home
G29

G92 E0 ;Reset Extruder
G1 Z2.0 F3000 ;Move Z Axis up
G1 X10.1 Y20 Z0.28 F5000.0 ;Move to start position
G1 X10.1 Y200.0 Z0.28 F1500.0 E15 ;Draw the first line
G1 X10.4 Y200.0 Z0.28 F5000.0 ;Move to side a little
G1 X10.4 Y20 Z0.28 F1500.0 E30 ;Draw the second line
G92 E0 ;Reset Extruder
G1 Z2.0 F3000 ;Move Z Axis up
G92 E0
G92 E0
G1 F2700 E-5
;LAYER_COUNT:80
;LAYER:0
M107
G1 F300 Z0.4
G0 F6000 X69.43 Y65.014 Z0.4
;TYPE:SKIRT
G1 F300 Z0.2
G1 F2700 E0
G1 F1200 X69.832 Y64.586 E0.02363
G1 X69.949 Y64.469 E0.03029
G1 X70.603 Y63.872 E0.06593
G1 X71.308 Y63.337 E0.10154
G1 X72.058 Y62.867 E0.13717
G1 X72.848 Y62.467 E0.1728
G1 X73.67 Y62.139 E0.20842
G1 X74.519 Y61.888 E0.24405
G1 X75.387 Y61.713 E0.27968
G1 X76.267 Y61.618 E0.31531
G1 X76.879 Y61.599 E0.33995
G1 X111.383 Y61.599 E1.72855
G1 X112.267 Y61.639 E1.76417
G1 X113.144 Y61.759 E1.79979
G1 X114.007 Y61.957 E1.83542
G1 X114.491 Y62.115 E1.85591
G1 X115.257 Y61.889 E1.88805
G1 X116.125 Y61.714 E1.92369
G1 X117.005 Y61.619 E1.95931
G1 X117.617 Y61.6 E1.98395
G1 X143.12 Y61.599 E3.01031
G1 X144.004 Y61.639 E3.04593
G1 X144.881 Y61.759 E3.08155
G1 X145.744 Y61.957 E3.11718
G1 X146.585 Y62.232 E3.15279
G1 X147.398 Y62.582 E3.18842
G1 X148.176 Y63.004 E3.22404
G1 X148.913 Y63.495 E3.25968
G1 X149.603 Y64.05 E3.29531
G1 X150.05 Y64.469 E3.31997
G1 X150.167 Y64.586 E3.32663
G1 X150.764 Y65.24 E3.36227
G1 X151.299 Y65.945 E3.39788
G1 X151.769 Y66.695 E3.4335
G1 X152.169 Y67.485 E3.46914
G1 X152.497 Y68.307 E3.50476
G1 X152.748 Y69.156 E3.54039
G1 X152.923 Y70.024 E3.57602
G1 X153.018 Y70.904 E3.61164
G1 X153.037 Y71.499 E3.6356
G1 X153.048 Y77.945 E3.89502
G1 X153.018 Y85.392 E4.19472
G1 X153.028 Y85.49 E4.19869
G1 X153.048 Y86.587 E4.24284
G1 X153.035 Y86.928 E4.25658
G1 X152.961 Y87.81 E4.2922
G1 X152.913 Y88.086 E4.30347
G1 X152.967 Y88.38 E4.3155
G1 X152.97 Y88.405 E4.31652
G1 X153.04 Y89.573 E4.36361
G1 X153.039 Y145.125 E6.59928
G1 X153.323 Y145.727 E6.62607
G1 X153.627 Y146.558 E6.66168
G1 X153.855 Y147.413 E6.69729
G1 X154.005 Y148.286 E6.73294
G1 X154.076 Y149.168 E6.76855
G1 X154.067 Y150.053 E6.80417
G1 X153.978 Y150.934 E6.83981
G1 X153.809 Y151.803 E6.87544
G1 X153.776 Y151.918 E6.88025
G1 X153.76 Y152.266 E6.89427
G1 X153.64 Y153.143 E6.92989
G1 X153.442 Y154.006 E6.96553
G1 X153.167 Y154.847 E7.00114
G1 X152.817 Y155.66 E7.03676
G1 X152.395 Y156.439 E7.07241
G1 X151.904 Y157.175 E7.10802
G1 X151.349 Y157.865 E7.14366
G1 X150.9 Y158.341 E7.16999
G1 X150.782 Y158.458 E7.17668
G1 X150.126 Y159.052 E7.2123
G1 X149.419 Y159.585 E7.24793
G1 X148.667 Y160.052 E7.28355
G1 X147.875 Y160.448 E7.31919
G1 X147.052 Y160.772 E7.35479
G1 X146.202 Y161.02 E7.39042
G1 X145.333 Y161.191 E7.42606
G1 X144.453 Y161.282 E7.46167
G1 X143.882 Y161.299 E7.48466
G1 X76.119 Y161.3 E10.21176
G1 X75.235 Y161.26 E10.24738
G1 X74.358 Y161.14 E10.283
G1 X73.495 Y160.942 E10.31863
G1 X72.654 Y160.667 E10.35424
G1 X71.841 Y160.317 E10.38986
G1 X71.063 Y159.895 E10.42548
G1 X70.326 Y159.404 E10.46112
G1 X69.636 Y158.849 E10.49676
G1 X69.219 Y158.459 E10.51974
G1 X69.101 Y158.342 E10.52643
G1 X68.501 Y157.691 E10.56206
G1 X67.962 Y156.989 E10.59768
G1 X67.489 Y156.24 E10.63333
G1 X67.086 Y155.452 E10.66895
G1 X66.755 Y154.631 E10.70457
G1 X66.5 Y153.784 E10.74017
G1 X66.322 Y152.917 E10.77579
G1 X66.223 Y152.037 E10.81143
G1 X66.201 Y151.394 E10.83732
G1 X66.109 Y150.913 E10.85703
G1 X66.021 Y150.032 E10.89266
G1 X66.013 Y149.147 E10.92828
G1 X66.085 Y148.265 E10.96389
G1 X66.236 Y147.393 E10.99951
G1 X66.465 Y146.538 E11.03513
G1 X66.771 Y145.707 E11.07077
G1 X66.958 Y145.313 E11.08832
G1 X66.953 Y139.506 E11.32202
G1 X66.98 Y89.547 E13.33261
G1 X67.011 Y88.775 E13.36371
G1 X67.025 Y88.599 E13.37081
G1 X67.124 Y87.783 E13.40389
G1 X67.142 Y87.672 E13.40842
G1 X67.081 Y87.202 E13.42749
G1 X67.001 Y86.326 E13.46289
G1 X66.96 Y85.471 E13.49734
G1 X66.94 Y80 E13.71752
G1 X66.962 Y71.491 E14.05997
G1 X67.004 Y70.606 E14.09562
G1 X67.126 Y69.73 E14.13122
G1 X67.327 Y68.867 E14.16688
G1 X67.604 Y68.027 E14.20247
G1 X67.956 Y67.215 E14.23809
G1 X68.38 Y66.438 E14.27371
G1 X68.873 Y65.702 E14.30936
G1 X69.43 Y65.014 E14.34499
G0 F6000 X70.115 Y64.869
G1 F1200 X70.232 Y64.752 E14.35165
G1 X70.873 Y64.168 E14.38655
G1 X71.565 Y63.645 E14.42146
G1 X72.302 Y63.189 E14.45633
G1 X73.077 Y62.802 E14.4912
G1 X73.886 Y62.488 E14.52612
G1 X74.719 Y62.25 E14.56099
G1 X75.571 Y62.09 E14.59587
G1 X76.434 Y62.01 E14.63075
G1 X76.879 Y61.999 E14.64867
G1 X111.383 Y61.999 E16.03727
G1 X112.249 Y62.039 E16.07216
G1 X113.108 Y62.159 E16.10707
G1 X113.952 Y62.357 E16.14196
G1 X114.496 Y62.539 E16.16504
G1 X114.624 Y62.489 E16.17057
G1 X115.457 Y62.251 E16.20544
G1 X116.309 Y62.091 E16.24033
G1 X117.172 Y62.011 E16.27521
G1 X117.617 Y62 E16.29312
G1 X143.12 Y61.999 E17.31948
G1 X143.986 Y62.039 E17.35437
G1 X144.844 Y62.159 E17.38924
G1 X145.688 Y62.357 E17.42413
G1 X146.51 Y62.632 E17.45901
G1 X147.304 Y62.981 E17.49392
G1 X148.062 Y63.403 E17.52883
G1 X148.777 Y63.892 E17.56369
G1 X149.445 Y64.445 E17.59859
G1 X149.767 Y64.752 E17.6165
G1 X149.884 Y64.869 E17.62316
G1 X150.468 Y65.51 E17.65805
G1 X150.991 Y66.202 E17.69296
G1 X151.447 Y66.939 E17.72784
G1 X151.834 Y67.714 E17.7627
G1 X152.148 Y68.523 E17.79763
G1 X152.386 Y69.356 E17.83249
G1 X152.546 Y70.208 E17.86738
G1 X152.637 Y71.5 E17.91951
G1 X152.648 Y77.943 E18.1788
G1 X152.618 Y85.404 E18.47907
G1 X152.629 Y85.52 E18.48376
G1 X152.648 Y86.572 E18.52611
G1 X152.635 Y86.913 E18.53984
G1 X152.562 Y87.777 E18.57473
G1 X152.507 Y88.086 E18.58737
G1 X152.57 Y88.428 E18.60136
G1 X152.573 Y88.453 E18.60237
G1 X152.64 Y89.573 E18.64753
G1 X152.639 Y145.213 E20.88675
G1 X152.69 Y145.304 E20.89095
G1 X153.041 Y146.097 E20.92585
G1 X153.318 Y146.918 E20.96072
G1 X153.518 Y147.762 E20.99562
G1 X153.64 Y148.62 E21.0305
G1 X153.682 Y149.486 E21.06539
G1 X153.644 Y150.352 E21.10028
G1 X153.526 Y151.211 E21.13517
G1 X153.379 Y151.846 E21.16141
G1 X153.36 Y152.248 E21.1776
G1 X153.24 Y153.107 E21.21251
G1 X153.042 Y153.951 E21.2474
G1 X152.767 Y154.773 E21.28228
G1 X152.417 Y155.566 E21.31716
G1 X151.996 Y156.324 E21.35206
G1 X151.507 Y157.039 E21.38692
G1 X150.954 Y157.707 E21.42182
G1 X150.618 Y158.057 E21.44135
G1 X150.5 Y158.174 E21.44803
G1 X149.857 Y158.755 E21.48291
G1 X149.163 Y159.275 E21.51781
G1 X148.425 Y159.729 E21.55268
G1 X147.647 Y160.112 E21.58758
G1 X146.837 Y160.422 E21.62248
G1 X146.003 Y160.657 E21.65736
G1 X145.15 Y160.813 E21.69225
G1 X143.882 Y160.899 E21.7434
G1 X76.119 Y160.9 E24.47051
G1 X75.253 Y160.86 E24.5054
G1 X74.394 Y160.74 E24.5403
G1 X73.55 Y160.542 E24.57519
G1 X72.728 Y160.267 E24.61007
G1 X71.935 Y159.917 E24.64496
G1 X71.177 Y159.496 E24.67985
G1 X70.462 Y159.007 E24.71471
G1 X69.501 Y158.175 E24.76587
G1 X69.383 Y158.058 E24.77256
G1 X68.796 Y157.42 E24.80745
G1 X68.27 Y156.73 E24.84237
G1 X67.81 Y155.995 E24.87726
G1 X67.42 Y155.221 E24.91214
G1 X67.103 Y154.414 E24.94704
G1 X66.862 Y153.582 E24.9819
G1 X66.698 Y152.73 E25.01681
G1 X66.613 Y151.867 E25.05171
G1 X66.601 Y151.357 E25.07224
G1 X66.495 Y150.785 E25.09565
G1 X66.416 Y149.921 E25.13057
G1 X66.418 Y149.054 E25.16546
G1 X66.499 Y148.191 E25.20035
G1 X66.659 Y147.339 E25.23524
G1 X66.897 Y146.505 E25.27014
G1 X67.211 Y145.697 E25.30503
G1 X67.358 Y145.402 E25.31829
G1 X67.353 Y139.506 E25.55557
G1 X67.38 Y89.547 E27.56616
G1 X67.41 Y88.807 E27.59597
G1 X67.424 Y88.631 E27.60307
G1 X67.519 Y87.848 E27.63482
G1 X67.537 Y87.655 E27.64262
G1 X67.479 Y87.166 E27.66244
G1 X67.399 Y86.29 E27.69784
G1 X67.36 Y85.47 E27.73087
G1 X67.34 Y80.001 E27.95097
G1 X67.362 Y71.492 E28.29342
G1 X67.404 Y70.626 E28.32831
G1 X67.526 Y69.767 E28.36323
G1 X67.726 Y68.924 E28.3981
G1 X68.004 Y68.103 E28.43298
G1 X68.355 Y67.31 E28.46788
G1 X68.779 Y66.554 E28.50276
G1 X69.27 Y65.839 E28.53767
G1 X70.115 Y64.869 E28.58944
G0 F6000 X70.398 Y65.152
G1 F1200 X70.515 Y65.035 E28.5961
G1 X71.142 Y64.464 E28.63023
G1 X71.821 Y63.955 E28.66438
G1 X72.544 Y63.512 E28.69851
G1 X73.306 Y63.139 E28.73265
G1 X74.1 Y62.839 E28.76681
G1 X74.918 Y62.615 E28.80094
G1 X75.754 Y62.47 E28.83509
G1 X76.879 Y62.399 E28.88045
G1 X111.383 Y62.399 E30.26906
G1 X112.23 Y62.439 E30.30319
G1 X113.07 Y62.559 E30.33733
G1 X113.895 Y62.757 E30.37148
G1 X114.505 Y62.966 E30.39743
G1 X114.838 Y62.84 E30.41176
G1 X115.656 Y62.616 E30.44589
G1 X116.492 Y62.471 E30.48004
G1 X117.617 Y62.4 E30.5254
G1 X143.12 Y62.399 E31.55176
G1 X143.967 Y62.439 E31.58589
G1 X144.807 Y62.558 E31.62003
G1 X145.632 Y62.757 E31.65419
G1 X146.434 Y63.031 E31.6883
G1 X147.207 Y63.381 E31.72244
G1 X147.944 Y63.801 E31.75658
G1 X148.638 Y64.289 E31.79073
G1 X149.484 Y65.035 E31.83612
G1 X149.601 Y65.152 E31.84278
G1 X150.172 Y65.779 E31.87691
G1 X150.681 Y66.458 E31.91106
G1 X151.124 Y67.181 E31.94518
G1 X151.497 Y67.943 E31.97933
G1 X151.797 Y68.737 E32.01349
G1 X152.021 Y69.555 E32.04762
G1 X152.166 Y70.391 E32.08177
G1 X152.237 Y71.501 E32.12653
G1 X152.248 Y77.942 E32.38575
G1 X152.218 Y85.43 E32.6871
G1 X152.23 Y85.549 E32.69192
G1 X152.248 Y86.557 E32.73249
G1 X152.235 Y86.898 E32.74622
G1 X152.163 Y87.743 E32.78035
G1 X152.101 Y88.086 E32.79438
G1 X152.173 Y88.476 E32.81034
G1 X152.176 Y88.501 E32.81135
G1 X152.24 Y89.573 E32.85457
G1 X152.239 Y145.324 E35.09826
G1 X152.427 Y145.68 E35.11446
G1 X152.752 Y146.464 E35.14862
G1 X153.001 Y147.275 E35.18276
G1 X153.172 Y148.106 E35.2169
G1 X153.265 Y148.949 E35.25103
G1 X153.277 Y149.797 E35.28517
G1 X153.21 Y150.643 E35.31932
G1 X153.064 Y151.478 E35.35343
G1 X152.981 Y151.779 E35.366
G1 X152.96 Y152.229 E35.38413
G1 X152.84 Y153.069 E35.41828
G1 X152.642 Y153.894 E35.45242
G1 X152.367 Y154.697 E35.48658
G1 X152.018 Y155.47 E35.52071
G1 X151.598 Y156.206 E35.55482
G1 X151.11 Y156.9 E35.58896
G1 X150.337 Y157.773 E35.63589
G1 X150.219 Y157.89 E35.64258
G1 X149.589 Y158.458 E35.67671
G1 X148.908 Y158.965 E35.71088
G1 X148.183 Y159.405 E35.74501
G1 X147.42 Y159.775 E35.77914
G1 X146.625 Y160.071 E35.81328
G1 X145.806 Y160.291 E35.84741
G1 X144.969 Y160.433 E35.88157
G1 X143.882 Y160.499 E35.9254
G1 X76.119 Y160.5 E38.65251
G1 X75.272 Y160.46 E38.68663
G1 X74.432 Y160.34 E38.72078
G1 X73.607 Y160.142 E38.75493
G1 X72.805 Y159.867 E38.78905
G1 X72.032 Y159.518 E38.82318
G1 X71.295 Y159.098 E38.85732
G1 X70.601 Y158.61 E38.89146
G1 X69.782 Y157.891 E38.93532
G1 X69.664 Y157.774 E38.94201
G1 X69.091 Y157.149 E38.97613
G1 X68.578 Y156.473 E39.01029
G1 X68.132 Y155.751 E39.04444
G1 X67.756 Y154.991 E39.07856
G1 X67.453 Y154.199 E39.11269
G1 X67.226 Y153.381 E39.14686
G1 X67.077 Y152.546 E39.18099
G1 X67.001 Y151.383 E39.22789
G1 X67.001 Y151.329 E39.23007
G1 X66.882 Y150.658 E39.25749
G1 X66.812 Y149.812 E39.29166
G1 X66.823 Y148.964 E39.32579
G1 X66.913 Y148.12 E39.35995
G1 X67.083 Y147.289 E39.39408
G1 X67.33 Y146.478 E39.4282
G1 X67.652 Y145.693 E39.46235
G1 X67.758 Y145.492 E39.47149
G1 X67.753 Y139.506 E39.7124
G1 X67.78 Y89.547 E41.72299
G1 X67.808 Y88.838 E41.75154
G1 X67.822 Y88.662 E41.75865
G1 X67.914 Y87.913 E41.78902
G1 X67.957 Y87.654 E41.79958
G1 X67.877 Y87.13 E41.82092
G1 X67.797 Y86.254 E41.85632
G1 X67.76 Y85.468 E41.88799
G1 X67.74 Y80.002 E42.10796
G1 X67.762 Y71.493 E42.45041
G1 X67.804 Y70.645 E42.48458
G1 X67.926 Y69.806 E42.5187
G1 X68.126 Y68.982 E42.55282
G1 X68.403 Y68.18 E42.58697
G1 X68.754 Y67.408 E42.6211
G1 X69.177 Y66.672 E42.65526
G1 X69.667 Y65.979 E42.68942
G1 X70.398 Y65.152 E42.73384
G0 F6000 X70.063 Y66.123
G1 F1200 X70.681 Y65.435 E42.77106
G1 X70.798 Y65.318 E42.77772
G1 X71.412 Y64.76 E42.81111
G1 X72.077 Y64.265 E42.84447
G1 X72.786 Y63.835 E42.87784
G1 X73.533 Y63.476 E42.9112
G1 X74.312 Y63.191 E42.94458
G1 X75.114 Y62.982 E42.97793
G1 X75.933 Y62.851 E43.01131
G1 X76.879 Y62.799 E43.04944
G1 X111.383 Y62.799 E44.43805
G1 X112.211 Y62.839 E44.47141
G1 X113.032 Y62.959 E44.5048
G1 X113.837 Y63.157 E44.53816
G1 X114.505 Y63.391 E44.56665
G1 X115.05 Y63.192 E44.59
G1 X115.852 Y62.983 E44.62335
G1 X116.671 Y62.852 E44.65673
G1 X117.617 Y62.8 E44.69486
G1 X143.12 Y62.799 E45.72122
G1 X143.948 Y62.839 E45.75459
G1 X144.768 Y62.958 E45.78793
G1 X145.574 Y63.156 E45.82133
G1 X146.356 Y63.431 E45.85469
G1 X147.108 Y63.78 E45.88806
G1 X147.824 Y64.199 E45.92145
G1 X148.495 Y64.686 E45.95481
G1 X149.201 Y65.318 E45.99295
G1 X149.318 Y65.435 E45.99961
G1 X149.876 Y66.049 E46.033
G1 X150.371 Y66.714 E46.06636
G1 X150.801 Y67.423 E46.09973
G1 X151.16 Y68.17 E46.13308
G1 X151.445 Y68.949 E46.16647
G1 X151.654 Y69.751 E46.19982
G1 X151.785 Y70.57 E46.2332
G1 X151.837 Y71.501 E46.27073
G1 X151.848 Y77.94 E46.52986
G1 X151.818 Y85.435 E46.8315
G1 X151.832 Y85.579 E46.83732
G1 X151.849 Y86.542 E46.87608
G1 X151.836 Y86.883 E46.88982
G1 X151.764 Y87.709 E46.92319
G1 X151.695 Y88.085 E46.93857
G1 X151.776 Y88.523 E46.9565
G1 X151.779 Y88.548 E46.95751
G1 X151.84 Y89.573 E46.99883
G1 X151.839 Y145.412 E49.24606
G1 X152.158 Y146.054 E49.27491
G1 X152.454 Y146.829 E49.3083
G1 X152.674 Y147.628 E49.34165
G1 X152.816 Y148.445 E49.37503
G1 X152.879 Y149.272 E49.4084
G1 X152.862 Y150.101 E49.44177
G1 X152.765 Y150.924 E49.47512
G1 X152.589 Y151.735 E49.50852
G1 X152.582 Y151.757 E49.50945
G1 X152.56 Y152.21 E49.5277
G1 X152.44 Y153.031 E49.5611
G1 X152.242 Y153.836 E49.59446
G1 X151.968 Y154.618 E49.62781
G1 X151.619 Y155.371 E49.66121
G1 X151.199 Y156.086 E49.69458
G1 X150.713 Y156.757 E49.72792
G1 X150.055 Y157.489 E49.76753
G1 X149.937 Y157.606 E49.77422
G1 X149.321 Y158.161 E49.80759
G1 X148.654 Y158.654 E49.84097
G1 X147.943 Y159.08 E49.87433
G1 X147.194 Y159.436 E49.9077
G1 X146.414 Y159.718 E49.94108
G1 X145.611 Y159.923 E49.97444
G1 X144.791 Y160.051 E50.00784
G1 X143.882 Y160.099 E50.04447
G1 X76.119 Y160.1 E52.77157
G1 X75.291 Y160.06 E52.80494
G1 X74.47 Y159.94 E52.83833
G1 X73.665 Y159.742 E52.87169
G1 X72.883 Y159.468 E52.90504
G1 X72.13 Y159.119 E52.93844
G1 X71.415 Y158.7 E52.97179
G1 X70.744 Y158.213 E53.00516
G1 X70.064 Y157.607 E53.04181
G1 X69.946 Y157.49 E53.0485
G1 X69.386 Y156.878 E53.08189
G1 X68.887 Y156.216 E53.11525
G1 X68.455 Y155.508 E53.14863
G1 X68.093 Y154.762 E53.182
G1 X67.804 Y153.985 E53.21536
G1 X67.592 Y153.183 E53.24875
G1 X67.457 Y152.365 E53.28211
G1 X67.401 Y151.383 E53.3217
G1 X67.401 Y151.309 E53.32468
G1 X67.269 Y150.532 E53.35639
G1 X67.209 Y149.705 E53.38976
G1 X67.23 Y148.876 E53.42314
G1 X67.33 Y148.053 E53.4565
G1 X67.508 Y147.243 E53.48988
G1 X67.764 Y146.454 E53.52326
G1 X68.095 Y145.694 E53.55662
G1 X68.158 Y145.581 E53.56183
G1 X68.153 Y139.506 E53.80632
G1 X68.18 Y89.547 E55.8169
G1 X68.207 Y88.87 E55.84417
G1 X68.221 Y88.694 E55.85128
G1 X68.308 Y87.978 E55.8803
G1 X68.357 Y87.683 E55.89234
G1 X68.276 Y87.093 E55.91631
G1 X68.196 Y86.217 E55.95171
G1 X68.16 Y85.467 E55.98193
G1 X68.14 Y80.003 E56.20182
G1 X68.162 Y71.494 E56.54427
G1 X68.204 Y70.666 E56.57763
G1 X68.326 Y69.845 E56.61104
G1 X68.526 Y69.041 E56.64438
G1 X68.803 Y68.259 E56.67777
G1 X69.153 Y67.508 E56.71111
G1 X69.575 Y66.793 E56.74453
G1 X70.063 Y66.123 E56.77788
G0 F6000 X70.459 Y66.271
G1 F1200 X70.964 Y65.718 E56.80802
G1 X71.081 Y65.601 E56.81468
G1 X71.681 Y65.057 E56.84728
G1 X72.332 Y64.575 E56.87988
G1 X73.027 Y64.16 E56.91245
G1 X73.759 Y63.816 E56.945
G1 X74.523 Y63.545 E56.97763
G1 X75.309 Y63.351 E57.01021
G1 X76.11 Y63.235 E57.04278
G1 X76.879 Y63.199 E57.07376
G1 X111.383 Y63.199 E58.46237
G1 X112.192 Y63.239 E58.49497
G1 X112.993 Y63.359 E58.52756
G1 X113.778 Y63.556 E58.56013
G1 X114.499 Y63.816 E58.59098
G1 X115.261 Y63.546 E58.62351
G1 X116.047 Y63.352 E58.6561
