;FLAVOR:Marlin
;TIME:4092
;Filament used: 5.116m
;Layer height: 0.2
;MINX:69
;MINY:68.5
;MINZ:0.2
;MAXX:151
;MAXY:151.5
;MAXZ:4
;Generated with Cura_SteamEngine 4.8.0
M140 S60
M105
M190 S60
M104 S205
M105
M109 S205
M82 ;absolute extrusion mode
M201 X500.00 Y500.00 Z100.00 E5000.00 ;Setup machine max acceleration
M203 X500.00 Y500.00 Z10.00 E50.00 ;Setup machine max feedrate
M204 P500.00 R1000.00 T500.00 ;Setup Print/Retract/Travel acceleration
M205 X8.00 Y8.00 Z0.40 E5.00 ;Setup Jerk
M220 S100 ;Reset Feedrate
M221 S100 ;Reset Flowrate

G28 ;Home
G29

G92 E0 ;Reset Extruder
G1 Z2.0 F3000 ;Move Z Axis up
G1 X10.1 Y20 Z0.28 F5000.0 ;Move to start position
G1 X10.1 Y200.0 Z0.28 F1500.0 E15 ;Draw the first line
G1 X10.4 Y200.0 Z0.28 F5000.0 ;Move to side a little
G1 X10.4 Y20 Z0.28 F1500.0 E30 ;Draw the second line
G92 E0 ;Reset Extruder
G1 Z2.0 F3000 ;Move Z Axis up
G92 E0
G92 E0
G1 F2700 E-5
;LAYER_COUNT:20
;LAYER:0
M107
G0 F6000 X71.371 Y70.737 Z0.2
;TYPE:SKIRT
G1 F2700 E0
G1 F1200 X71.908 Y70.216 E0.02489
G1 X72.498 Y69.757 E0.04975
G1 X73.134 Y69.362 E0.07465
G1 X73.808 Y69.038 E0.09952
G1 X74.513 Y68.788 E0.1244
G1 X75.241 Y68.614 E0.1493
G1 X75.983 Y68.519 E0.17418
G1 X76.5 Y68.5 E0.19138
G1 X143.5 Y68.5 E2.41981
G1 X144.247 Y68.54 E2.44469
G1 X144.985 Y68.659 E2.46956
G1 X145.707 Y68.857 E2.49446
G1 X146.403 Y69.13 E2.51932
G1 X147.066 Y69.477 E2.54421
G1 X147.689 Y69.892 E2.56911
G1 X148.263 Y70.371 E2.59398
G1 X148.784 Y70.908 E2.61886
G1 X149.243 Y71.498 E2.64372
G1 X149.638 Y72.134 E2.66862
G1 X149.962 Y72.808 E2.6935
G1 X150.212 Y73.513 E2.71838
G1 X150.386 Y74.241 E2.74327
G1 X150.481 Y74.983 E2.76815
G1 X150.5 Y75.497 E2.78526
G1 X150.501 Y78.379 E2.88112
G1 X150.526 Y78.439 E2.88328
G1 X150.627 Y78.736 E2.89371
G1 X150.83 Y79.456 E2.91859
G1 X150.955 Y80.194 E2.94349
G1 X151 Y80.99 E2.97001
G1 X151 Y85.012 E3.10378
G1 X150.96 Y85.759 E3.12866
G1 X150.817 Y86.603 E3.15713
G1 X150.768 Y86.813 E3.1643
G1 X150.559 Y87.531 E3.18917
G1 X150.5 Y87.675 E3.19435
G1 X150.5 Y143 E5.03447
G1 X150.46 Y143.747 E5.05935
G1 X150.341 Y144.485 E5.08421
G1 X150.143 Y145.207 E5.10911
G1 X149.87 Y145.903 E5.13398
G1 X149.523 Y146.566 E5.15887
G1 X149.108 Y147.189 E5.18376
G1 X148.45 Y147.95 E5.21722
G1 X146.95 Y149.45 E5.28778
G1 X146.393 Y149.95 E5.31268
G1 X145.787 Y150.387 E5.33753
G1 X145.137 Y150.758 E5.36242
G1 X144.451 Y151.057 E5.38731
G1 X143.737 Y151.281 E5.4122
G1 X143.004 Y151.428 E5.43706
G1 X142 Y151.5 E5.47054
G1 X78 Y151.5 E7.59919
G1 X77.253 Y151.46 E7.62407
G1 X76.515 Y151.341 E7.64893
G1 X75.793 Y151.143 E7.67383
G1 X75.097 Y150.87 E7.6987
G1 X74.434 Y150.523 E7.72359
G1 X73.811 Y150.108 E7.74849
G1 X73.05 Y149.45 E7.78195
G1 X71.55 Y147.95 E7.8525
G1 X71.05 Y147.393 E7.8774
G1 X70.613 Y146.787 E7.90225
G1 X70.242 Y146.137 E7.92714
G1 X69.943 Y145.451 E7.95203
G1 X69.719 Y144.737 E7.97692
G1 X69.572 Y144.004 E8.00178
G1 X69.5 Y143 E8.03526
G1 X69.5 Y87.624 E9.87708
G1 X69.474 Y87.561 E9.87934
G1 X69.373 Y87.264 E9.88978
G1 X69.17 Y86.544 E9.91466
G1 X69.045 Y85.806 E9.93955
G1 X69 Y85.01 E9.96607
G1 X69 Y80.988 E10.09984
G1 X69.04 Y80.241 E10.12472
G1 X69.183 Y79.397 E10.15319
G1 X69.232 Y79.187 E10.16037
G1 X69.441 Y78.469 E10.18524
G1 X69.5 Y78.325 E10.19041
G1 X69.5 Y75.5 E10.28437
G1 X69.54 Y74.753 E10.30926
G1 X69.659 Y74.015 E10.33412
G1 X69.857 Y73.293 E10.35902
G1 X70.13 Y72.597 E10.38389
G1 X70.477 Y71.934 E10.40877
G1 X70.863 Y71.355 E10.43192
G0 F1080 X70.892 Y71.311
G0 X71.371 Y70.737
G0 F6000 X71.765 Y70.902
G1 F1200 X72.299 Y70.409 E10.45609
G1 X72.884 Y69.979 E10.48024
G1 X73.513 Y69.615 E10.50441
G1 X74.178 Y69.322 E10.52858
G1 X74.871 Y69.104 E10.55274
G1 X75.583 Y68.964 E10.57688
G1 X76.5 Y68.9 E10.60745
G1 X143.5 Y68.9 E12.83588
G1 X144.225 Y68.94 E12.86003
G1 X144.942 Y69.059 E12.8842
G1 X145.641 Y69.257 E12.90837
G1 X146.314 Y69.53 E12.93252
G1 X146.953 Y69.875 E12.95668
G1 X147.55 Y70.289 E12.98084
G1 X148.098 Y70.765 E13.00498
G1 X148.591 Y71.299 E13.02916
G1 X149.021 Y71.884 E13.0533
G1 X149.385 Y72.513 E13.07747
G1 X149.678 Y73.178 E13.10164
G1 X149.896 Y73.871 E13.12581
G1 X150.036 Y74.583 E13.14994
G1 X150.1 Y75.497 E13.18042
G1 X150.101 Y78.452 E13.2787
G1 X150.148 Y78.568 E13.28286
G1 X150.249 Y78.865 E13.2933
G1 X150.444 Y79.565 E13.31747
G1 X150.562 Y80.281 E13.3416
G1 X150.6 Y80.99 E13.36522
G1 X150.6 Y85.012 E13.49899
G1 X150.56 Y85.737 E13.52314
G1 X150.427 Y86.512 E13.54929
G1 X150.378 Y86.722 E13.55646
G1 X150.175 Y87.419 E13.58061
G1 X150.1 Y87.599 E13.5871
G1 X150.1 Y143 E15.42974
G1 X150.06 Y143.725 E15.45389
G1 X149.941 Y144.442 E15.47806
G1 X149.743 Y145.141 E15.50223
G1 X149.47 Y145.814 E15.52638
G1 X149.125 Y146.453 E15.55054
G1 X148.711 Y147.05 E15.5747
G1 X148.167 Y147.667 E15.60206
G1 X146.667 Y149.167 E15.67261
G1 X146.126 Y149.651 E15.69676
G1 X145.535 Y150.074 E15.72093
G1 X144.901 Y150.428 E15.74508
G1 X144.232 Y150.711 E15.76924
G1 X143.536 Y150.919 E15.7934
G1 X142.821 Y151.049 E15.81757
G1 X142 Y151.1 E15.84493
G1 X78 Y151.1 E17.97358
G1 X77.275 Y151.06 E17.99773
G1 X76.558 Y150.941 E18.02191
G1 X75.859 Y150.743 E18.04607
G1 X75.186 Y150.47 E18.07022
G1 X74.547 Y150.125 E18.09438
G1 X73.95 Y149.711 E18.11854
G1 X73.333 Y149.167 E18.1459
G1 X71.833 Y147.667 E18.21646
G1 X71.349 Y147.126 E18.2406
G1 X70.926 Y146.535 E18.26477
G1 X70.572 Y145.901 E18.28892
G1 X70.289 Y145.232 E18.31308
G1 X70.081 Y144.536 E18.33724
G1 X69.951 Y143.821 E18.36141
G1 X69.9 Y143 E18.38877
G1 X69.9 Y87.551 E20.23302
G1 X69.852 Y87.432 E20.23728
G1 X69.751 Y87.135 E20.24772
G1 X69.556 Y86.435 E20.27189
G1 X69.438 Y85.719 E20.29602
G1 X69.4 Y85.01 E20.31964
G1 X69.4 Y80.988 E20.45341
G1 X69.44 Y80.263 E20.47756
G1 X69.573 Y79.488 E20.50371
G1 X69.622 Y79.278 E20.51088
G1 X69.825 Y78.581 E20.53503
G1 X69.9 Y78.401 E20.54152
G1 X69.9 Y75.5 E20.638
G1 X69.94 Y74.775 E20.66215
G1 X70.059 Y74.058 E20.68633
G1 X70.257 Y73.359 E20.71049
G1 X70.53 Y72.686 E20.73465
G1 X70.875 Y72.047 E20.7588
G1 X71.247 Y71.511 E20.7805
G0 F1080 X71.289 Y71.45
G0 X71.765 Y70.902
G0 F6000 X72.159 Y71.073
G1 F1200 X72.689 Y70.609 E20.80393
G1 X73.268 Y70.209 E20.82734
G1 X73.889 Y69.877 E20.85076
G1 X74.543 Y69.617 E20.87416
G1 X75.223 Y69.433 E20.89759
G1 X75.919 Y69.327 E20.92101
G1 X76.5 Y69.3 E20.94036
G1 X143.5 Y69.3 E23.16878
G1 X144.203 Y69.34 E23.1922
G1 X144.897 Y69.459 E23.21562
G1 X145.572 Y69.657 E23.23902
G1 X146.221 Y69.929 E23.26242
G1 X146.835 Y70.274 E23.28585
G1 X147.406 Y70.685 E23.30925
G1 X147.927 Y71.159 E23.33268
G1 X148.391 Y71.689 E23.35611
G1 X148.791 Y72.268 E23.37951
G1 X149.123 Y72.889 E23.40293
G1 X149.383 Y73.543 E23.42634
G1 X149.567 Y74.223 E23.44977
G1 X149.673 Y74.919 E23.47319
G1 X149.7 Y75.498 E23.49247
G1 X149.701 Y78.526 E23.59318
G1 X149.769 Y78.697 E23.5993
G1 X149.87 Y78.994 E23.60973
G1 X150.058 Y79.672 E23.63313
G1 X150.169 Y80.367 E23.65654
G1 X150.2 Y80.99 E23.67729
G1 X150.2 Y85.012 E23.81106
G1 X150.16 Y85.715 E23.83448
G1 X150.038 Y86.421 E23.85831
G1 X149.989 Y86.631 E23.86548
G1 X149.79 Y87.306 E23.88889
G1 X149.7 Y87.519 E23.89658
G1 X149.7 Y143 E25.74188
G1 X149.66 Y143.703 E25.7653
G1 X149.541 Y144.397 E25.78872
G1 X149.343 Y145.072 E25.81212
G1 X149.071 Y145.721 E25.83552
G1 X148.726 Y146.335 E25.85895
G1 X148.315 Y146.906 E25.88235
G1 X147.884 Y147.384 E25.90376
G1 X146.384 Y148.884 E25.97431
G1 X145.859 Y149.353 E25.99773
G1 X145.284 Y149.759 E26.02114
G1 X144.666 Y150.097 E26.04457
G1 X144.015 Y150.364 E26.06797
G1 X143.337 Y150.554 E26.09139
G1 X142.642 Y150.667 E26.11481
G1 X142 Y150.7 E26.13619
G1 X78 Y150.7 E28.26484
G1 X77.297 Y150.66 E28.28826
G1 X76.603 Y150.541 E28.31168
G1 X75.928 Y150.343 E28.33507
G1 X75.279 Y150.071 E28.35848
G1 X74.665 Y149.726 E28.3819
G1 X74.094 Y149.315 E28.4053
G1 X73.616 Y148.884 E28.42671
G1 X72.116 Y147.384 E28.49726
G1 X71.647 Y146.859 E28.52068
G1 X71.241 Y146.284 E28.54409
G1 X70.903 Y145.666 E28.56752
G1 X70.636 Y145.015 E28.59092
G1 X70.446 Y144.337 E28.61434
G1 X70.333 Y143.642 E28.63776
G1 X70.3 Y143 E28.65914
G1 X70.3 Y87.477 E30.50584
G1 X70.231 Y87.303 E30.51207
G1 X70.13 Y87.006 E30.5225
G1 X69.942 Y86.328 E30.5459
G1 X69.831 Y85.633 E30.56931
G1 X69.8 Y85.01 E30.59006
G1 X69.8 Y80.988 E30.72383
G1 X69.84 Y80.285 E30.74725
G1 X69.962 Y79.579 E30.77108
G1 X70.011 Y79.369 E30.77825
G1 X70.21 Y78.694 E30.80166
G1 X70.3 Y78.481 E30.80935
G1 X70.3 Y75.5 E30.9085
G1 X70.34 Y74.797 E30.93192
G1 X70.459 Y74.103 E30.95534
G1 X70.657 Y73.428 E30.97873
G1 X70.929 Y72.779 E31.00214
G1 X71.274 Y72.165 E31.02556
G1 X71.629 Y71.671 E31.0458
G0 F1080 X71.685 Y71.594
G0 X72.159 Y71.073
G0 F6000 X72.082 Y71.742
G1 F1200 X72.553 Y71.251 E31.06843
G1 X73.078 Y70.817 E31.09108
G1 X73.65 Y70.448 E31.11372
G1 X74.262 Y70.149 E31.13638
G1 X74.904 Y69.924 E31.159
G1 X75.569 Y69.775 E31.18167
G1 X76.5 Y69.7 E31.21273
G1 X143.5 Y69.7 E33.44116
G1 X144.18 Y69.74 E33.46382
G1 X144.85 Y69.859 E33.48645
G1 X145.502 Y70.056 E33.50911
G1 X146.126 Y70.328 E33.53175
G1 X146.714 Y70.672 E33.5544
G1 X147.258 Y71.082 E33.57706
G1 X147.749 Y71.553 E33.59969
G1 X148.183 Y72.078 E33.62235
G1 X148.552 Y72.65 E33.64499
G1 X148.851 Y73.262 E33.66764
G1 X149.076 Y73.904 E33.69027
G1 X149.225 Y74.569 E33.71293
G1 X149.3 Y75.498 E33.74393
G1 X149.301 Y78.597 E33.84701
G1 X149.39 Y78.826 E33.85518
G1 X149.491 Y79.123 E33.86561
G1 X149.672 Y79.779 E33.88825
G1 X149.775 Y80.452 E33.91089
G1 X149.8 Y80.99 E33.9288
G1 X149.8 Y85.012 E34.06258
G1 X149.76 Y85.692 E34.08523
G1 X149.648 Y86.33 E34.10678
G1 X149.599 Y86.54 E34.11395
G1 X149.406 Y87.193 E34.1366
G1 X149.3 Y87.439 E34.14551
G1 X149.3 Y143 E35.99347
G1 X149.26 Y143.68 E36.01613
G1 X149.141 Y144.35 E36.03876
G1 X148.944 Y145.002 E36.06142
G1 X148.672 Y145.626 E36.08406
G1 X148.328 Y146.214 E36.10671
G1 X147.918 Y146.758 E36.12937
G1 X147.601 Y147.101 E36.1449
G1 X146.101 Y148.601 E36.21546
G1 X145.592 Y149.054 E36.23812
G1 X145.034 Y149.443 E36.26075
G1 X144.434 Y149.765 E36.2834
G1 X143.8 Y150.014 E36.30605
G1 X143.141 Y150.187 E36.32871
G1 X142.467 Y150.281 E36.35135
G1 X142 Y150.3 E36.36689
G1 X78 Y150.3 E38.49554
G1 X77.32 Y150.26 E38.5182
G1 X76.65 Y150.141 E38.54083
G1 X75.998 Y149.944 E38.56348
G1 X75.374 Y149.672 E38.58612
G1 X74.786 Y149.328 E38.60878
G1 X74.242 Y148.918 E38.63144
G1 X73.899 Y148.601 E38.64697
G1 X72.399 Y147.101 E38.71753
G1 X71.946 Y146.592 E38.74019
G1 X71.557 Y146.034 E38.76281
G1 X71.235 Y145.434 E38.78546
G1 X70.986 Y144.8 E38.80812
G1 X70.813 Y144.141 E38.83078
G1 X70.719 Y143.467 E38.85341
G1 X70.7 Y143 E38.86896
G1 X70.7 Y87.407 E40.71799
G1 X70.61 Y87.174 E40.7263
G1 X70.509 Y86.877 E40.73673
G1 X70.328 Y86.221 E40.75936
G1 X70.225 Y85.548 E40.78201
G1 X70.2 Y85.01 E40.79992
G1 X70.2 Y80.988 E40.93369
G1 X70.24 Y80.308 E40.95635
G1 X70.352 Y79.67 E40.97789
G1 X70.401 Y79.46 E40.98507
G1 X70.594 Y78.807 E41.00771
G1 X70.7 Y78.561 E41.01662
G1 X70.7 Y75.5 E41.11843
G1 X70.74 Y74.82 E41.14109
G1 X70.859 Y74.15 E41.16372
G1 X71.056 Y73.498 E41.18638
G1 X71.328 Y72.874 E41.20902
G1 X71.612 Y72.388 E41.22774
G0 F1080 X71.672 Y72.286
G0 X72.082 Y71.742
G0 F6000 X72.478 Y71.897
G1 F1200 X72.945 Y71.435 E41.24959
G1 X73.465 Y71.034 E41.27143
G1 X74.029 Y70.698 E41.29326
G1 X74.631 Y70.434 E41.31513
G1 X75.26 Y70.244 E41.33698
G1 X75.907 Y70.133 E41.35881
G1 X76.5 Y70.1 E41.37857
G1 X143.5 Y70.1 E43.607
G1 X144.156 Y70.14 E43.62886
G1 X144.802 Y70.259 E43.6507
G1 X145.429 Y70.456 E43.67256
G1 X146.027 Y70.728 E43.69441
G1 X146.588 Y71.07 E43.71627
G1 X147.103 Y71.478 E43.73812
G1 X147.565 Y71.945 E43.75997
G1 X147.966 Y72.465 E43.78181
G1 X148.302 Y73.029 E43.80364
G1 X148.566 Y73.631 E43.82551
G1 X148.756 Y74.26 E43.84736
G1 X148.867 Y74.907 E43.8692
G1 X148.9 Y75.498 E43.88888
G1 X148.901 Y78.662 E43.99412
G1 X149.011 Y78.954 E44.0045
G1 X149.112 Y79.251 E44.01493
G1 X149.286 Y79.885 E44.0368
G1 X149.381 Y80.535 E44.05865
G1 X149.4 Y80.99 E44.07379
G1 X149.4 Y85.012 E44.20756
G1 X149.36 Y85.668 E44.22942
G1 X149.259 Y86.239 E44.24871
G1 X149.21 Y86.449 E44.25588
G1 X149.022 Y87.079 E44.27775
G1 X148.9 Y87.358 E44.28788
G1 X148.9 Y143 E46.13854
G1 X148.86 Y143.656 E46.1604
G1 X148.741 Y144.302 E46.18224
G1 X148.544 Y144.929 E46.2041
G1 X148.272 Y145.527 E46.22595
G1 X147.93 Y146.088 E46.24781
G1 X147.318 Y146.818 E46.27949
G1 X145.818 Y148.318 E46.35005
G1 X145.326 Y148.754 E46.37191
G1 X144.785 Y149.126 E46.39375
G1 X144.203 Y149.43 E46.41559
G1 X143.588 Y149.661 E46.43744
G1 X142.949 Y149.816 E46.45931
G1 X142 Y149.9 E46.49099
G1 X78 Y149.9 E48.61964
G1 X77.344 Y149.86 E48.6415
G1 X76.698 Y149.741 E48.66335
G1 X76.071 Y149.544 E48.68521
G1 X75.473 Y149.272 E48.70706
G1 X74.912 Y148.93 E48.72891
G1 X74.182 Y148.318 E48.76059
G1 X72.682 Y146.818 E48.83115
G1 X72.246 Y146.326 E48.85302
G1 X71.874 Y145.785 E48.87485
G1 X71.57 Y145.203 E48.89669
G1 X71.339 Y144.588 E48.91854
G1 X71.184 Y143.949 E48.94041
G1 X71.1 Y143 E48.9721
G1 X71.1 Y87.341 E50.82332
G1 X70.989 Y87.046 E50.83381
G1 X70.888 Y86.749 E50.84424
G1 X70.714 Y86.115 E50.86611
G1 X70.619 Y85.465 E50.88796
G1 X70.6 Y85.01 E50.9031
G1 X70.6 Y80.988 E51.03688
G1 X70.64 Y80.332 E51.05873
G1 X70.741 Y79.761 E51.07802
G1 X70.79 Y79.551 E51.08519
G1 X70.978 Y78.921 E51.10706
G1 X71.1 Y78.642 E51.11719
G1 X71.1 Y75.5 E51.22169
G1 X71.14 Y74.844 E51.24355
G1 X71.259 Y74.198 E51.2654
G1 X71.456 Y73.571 E51.28726
G1 X71.728 Y72.973 E51.30911
G1 X71.996 Y72.534 E51.32621
G0 F1080 X72.07 Y72.412
G0 X72.478 Y71.897
G0 F6000 X72.873 Y72.059
G1 F1200 X73.336 Y71.629 E51.34723
G1 X73.85 Y71.26 E51.36828
G1 X74.406 Y70.96 E51.38929
G1 X74.995 Y70.732 E51.4103
G1 X75.609 Y70.58 E51.43133
G1 X76.5 Y70.5 E51.46109
G1 X143.5 Y70.5 E53.68952
G1 X144.131 Y70.54 E53.71055
G1 X144.752 Y70.659 E53.73158
G1 X145.352 Y70.856 E53.75258
G1 X145.924 Y71.127 E53.77363
G1 X146.456 Y71.467 E53.79463
G1 X146.941 Y71.873 E53.81567
G1 X147.371 Y72.336 E53.83669
G1 X147.74 Y72.85 E53.85773
G1 X148.04 Y73.406 E53.87874
G1 X148.268 Y73.995 E53.89975
G1 X148.42 Y74.609 E53.92079
G1 X148.5 Y75.498 E53.95048
G1 X148.501 Y78.784 E54.05977
G1 X148.633 Y79.083 E54.07064
G1 X148.734 Y79.38 E54.08107
G1 X148.899 Y79.99 E54.10209
G1 X148.986 Y80.616 E54.12311
G1 X149 Y80.99 E54.13556
G1 X149 Y85.012 E54.26933
G1 X148.96 Y85.643 E54.29036
G1 X148.869 Y86.148 E54.30743
G1 X148.82 Y86.358 E54.3146
G1 X148.638 Y86.963 E54.33561
G1 X148.5 Y87.273 E54.3469
G1 X148.5 Y143 E56.20039
G1 X148.46 Y143.631 E56.22142
G1 X148.341 Y144.252 E56.24245
G1 X148.144 Y144.852 E56.26345
G1 X147.873 Y145.424 E56.2845
G1 X147.533 Y145.956 E56.3055
G1 X147.036 Y146.536 E56.33091
G1 X145.536 Y148.036 E56.40146
G1 X145.061 Y148.453 E56.42249
G1 X144.538 Y148.808 E56.44351
G1 X143.974 Y149.094 E56.46454
G1 X143.379 Y149.306 E56.48555
G1 X142.761 Y149.442 E56.5066
G1 X142 Y149.5 E56.53198
G1 X78 Y149.5 E58.66063
G1 X77.369 Y149.46 E58.68166
G1 X76.748 Y149.341 E58.70269
G1 X76.148 Y149.144 E58.72369
G1 X75.576 Y148.873 E58.74475
G1 X75.044 Y148.533 E58.76575
G1 X74.464 Y148.036 E58.79115
G1 X72.964 Y146.536 E58.86171
G1 X72.547 Y146.061 E58.88273
G1 X72.192 Y145.538 E58.90375
G1 X71.906 Y144.974 E58.92478
G1 X71.694 Y144.379 E58.94579
G1 X71.558 Y143.761 E58.96684
G1 X71.5 Y143 E58.99222
G1 X71.5 Y87.219 E60.84751
G1 X71.367 Y86.917 E60.85848
G1 X71.266 Y86.62 E60.86892
G1 X71.101 Y86.01 E60.88993
G1 X71.014 Y85.384 E60.91096
G1 X71 Y85.01 E60.9234
G1 X71 Y80.988 E61.05718
G1 X71.04 Y80.357 E61.07821
G1 X71.131 Y79.852 E61.09527
G1 X71.18 Y79.642 E61.10244
G1 X71.362 Y79.037 E61.12346
G1 X71.5 Y78.727 E61.13474
G1 X71.5 Y75.5 E61.24207
G1 X71.54 Y74.869 E61.2631
G1 X71.659 Y74.248 E61.28413
G1 X71.856 Y73.648 E61.30514
G1 X72.127 Y73.076 E61.32619
G1 X72.377 Y72.685 E61.34163
G0 F1080 X72.467 Y72.544
G0 X72.873 Y72.059
G0 F6000 X73.267 Y72.228
G1 F1200 X73.725 Y71.831 E61.36178
G1 X74.232 Y71.498 E61.38196
G1 X74.778 Y71.234 E61.40213
G1 X75.354 Y71.045 E61.42229
G1 X75.95 Y70.933 E61.44246
G1 X76.5 Y70.9 E61.46079
G1 X143.5 Y70.9 E63.68922
G1 X144.105 Y70.94 E63.70939
G1 X144.699 Y71.059 E63.72953
G1 X145.273 Y71.255 E63.74971
G1 X145.816 Y71.526 E63.76989
