;FLAVOR:Marlin
;TIME:8875
;Filament used: 9.04768m
;Layer height: 0.2
;MINX:67.5
;MINY:64.399
;MINZ:0.2
;MAXX:152.5
;MAXY:158.5
;MAXZ:16
;Generated with Cura_SteamEngine 4.8.0
M140 S60
M105
M190 S60
M104 S205
M105
M109 S205
M82 ;absolute extrusion mode
M201 X500.00 Y500.00 Z100.00 E5000.00 ;Setup machine max acceleration
M203 X500.00 Y500.00 Z10.00 E50.00 ;Setup machine max feedrate
M204 P500.00 R1000.00 T500.00 ;Setup Print/Retract/Travel acceleration
M205 X8.00 Y8.00 Z0.40 E5.00 ;Setup Jerk
M220 S100 ;Reset Feedrate
M221 S100 ;Reset Flowrate

G28 ;Home
G29

G92 E0 ;Reset Extruder
G1 Z2.0 F3000 ;Move Z Axis up
G1 X10.1 Y20 Z0.28 F5000.0 ;Move to start position
G1 X10.1 Y200.0 Z0.28 F1500.0 E15 ;Draw the first line
G1 X10.4 Y200.0 Z0.28 F5000.0 ;Move to side a little
G1 X10.4 Y20 Z0.28 F1500.0 E30 ;Draw the second line
G92 E0 ;Reset Extruder
G1 Z2.0 F3000 ;Move Z Axis up
G92 E0
G92 E0
G1 F2700 E-5
;LAYER_COUNT:80
;LAYER:0
M107
G0 F6000 X69.55 Y66.567 Z0.2
;TYPE:SKIRT
G1 F2700 E0
G1 F1200 X69.667 Y66.45 E0.0055
G1 X70.224 Y65.95 E0.0304
G1 X70.83 Y65.513 E0.05525
G1 X71.48 Y65.142 E0.08014
G1 X72.166 Y64.843 E0.10503
G1 X72.88 Y64.619 E0.12992
G1 X73.613 Y64.472 E0.15478
G1 X74.617 Y64.4 E0.18826
G1 X145.383 Y64.399 E2.54195
G1 X146.13 Y64.439 E2.56683
G1 X146.868 Y64.558 E2.59169
G1 X147.59 Y64.756 E2.61659
G1 X148.286 Y65.029 E2.64146
G1 X148.949 Y65.376 E2.66635
G1 X149.572 Y65.791 E2.69125
G1 X150.333 Y66.449 E2.72471
G1 X150.45 Y66.566 E2.73021
G1 X150.95 Y67.123 E2.75511
G1 X151.387 Y67.729 E2.77996
G1 X151.758 Y68.379 E2.80485
G1 X152.057 Y69.065 E2.82974
G1 X152.281 Y69.779 E2.85463
G1 X152.428 Y70.512 E2.87949
G1 X152.5 Y71.516 E2.91297
G1 X152.5 Y149.383 E5.50284
G1 X152.46 Y150.13 E5.52772
G1 X152.341 Y150.868 E5.55258
G1 X152.143 Y151.59 E5.57748
G1 X151.87 Y152.286 E5.60235
G1 X151.523 Y152.949 E5.62724
G1 X151.108 Y153.572 E5.65214
G1 X150.45 Y154.333 E5.6856
G1 X150.24 Y154.534 E5.69526
G1 X150.023 Y154.948 E5.71081
G1 X149.608 Y155.571 E5.73571
G1 X148.929 Y156.353 E5.77015
G1 X148.811 Y156.47 E5.77568
G1 X148.252 Y156.967 E5.80056
G1 X147.644 Y157.402 E5.82542
G1 X146.992 Y157.77 E5.85033
G1 X146.305 Y158.066 E5.87521
G1 X145.59 Y158.287 E5.9001
G1 X144.856 Y158.431 E5.92498
G1 X143.882 Y158.499 E5.95745
G1 X76.119 Y158.5 E8.21126
G1 X75.372 Y158.46 E8.23614
G1 X74.634 Y158.341 E8.261
G1 X73.912 Y158.143 E8.2859
G1 X73.216 Y157.87 E8.31077
G1 X72.553 Y157.523 E8.33566
G1 X71.93 Y157.108 E8.36055
G1 X71.19 Y156.471 E8.39303
G1 X71.072 Y156.354 E8.39856
G1 X70.57 Y155.799 E8.42345
G1 X70.13 Y155.195 E8.4483
G1 X69.757 Y154.546 E8.4732
G1 X69.55 Y154.333 E8.48308
G1 X69.05 Y153.776 E8.50797
G1 X68.613 Y153.17 E8.53282
G1 X68.242 Y152.52 E8.55771
G1 X67.943 Y151.834 E8.5826
G1 X67.719 Y151.12 E8.60749
G1 X67.572 Y150.387 E8.63236
G1 X67.5 Y149.383 E8.66584
G1 X67.5 Y71.517 E11.25567
G1 X67.54 Y70.77 E11.28055
G1 X67.659 Y70.032 E11.30541
G1 X67.857 Y69.31 E11.33031
G1 X68.13 Y68.614 E11.35518
G1 X68.477 Y67.951 E11.38007
G1 X68.892 Y67.328 E11.40497
G1 X69.027 Y67.172 E11.41183
G0 F1080 X69.55 Y66.567
G0 F6000 X69.833 Y66.85
G1 F1200 X69.95 Y66.733 E11.41733
G1 X70.491 Y66.249 E11.44148
G1 X71.082 Y65.826 E11.46565
G1 X71.716 Y65.472 E11.4898
G1 X72.385 Y65.189 E11.51396
G1 X73.081 Y64.981 E11.53812
G1 X73.796 Y64.851 E11.56229
G1 X74.617 Y64.8 E11.58965
G1 X145.383 Y64.799 E13.94334
G1 X146.108 Y64.839 E13.96749
G1 X146.825 Y64.958 E13.99166
G1 X147.524 Y65.156 E14.01582
G1 X148.197 Y65.429 E14.03998
G1 X148.836 Y65.774 E14.06413
G1 X149.433 Y66.188 E14.0883
G1 X150.05 Y66.732 E14.11566
G1 X150.167 Y66.849 E14.12116
G1 X150.651 Y67.39 E14.1453
G1 X151.074 Y67.981 E14.16948
G1 X151.428 Y68.615 E14.19363
G1 X151.711 Y69.284 E14.21779
G1 X151.919 Y69.98 E14.24195
G1 X152.049 Y70.695 E14.26612
G1 X152.1 Y71.516 E14.29348
G1 X152.1 Y149.383 E16.88334
G1 X152.06 Y150.108 E16.90749
G1 X151.941 Y150.825 E16.93167
G1 X151.743 Y151.524 E16.95583
G1 X151.47 Y152.197 E16.97999
G1 X151.125 Y152.836 E17.00414
G1 X150.711 Y153.433 E17.0283
G1 X150.167 Y154.05 E17.05566
G1 X149.926 Y154.278 E17.0667
G1 X149.625 Y154.835 E17.08776
G1 X149.211 Y155.432 E17.11192
G1 X148.647 Y156.069 E17.14022
G1 X148.529 Y156.186 E17.14574
G1 X147.986 Y156.668 E17.16989
G1 X147.393 Y157.088 E17.19406
G1 X146.758 Y157.44 E17.21821
G1 X146.087 Y157.72 E17.24239
G1 X145.39 Y157.924 E17.26655
G1 X144.675 Y158.051 E17.2907
G1 X143.882 Y158.099 E17.31712
G1 X76.119 Y158.1 E19.57093
G1 X75.394 Y158.06 E19.59508
G1 X74.677 Y157.941 E19.61925
G1 X73.978 Y157.743 E19.64342
G1 X73.305 Y157.47 E19.66757
G1 X72.666 Y157.125 E19.69173
G1 X72.069 Y156.711 E19.71589
G1 X71.472 Y156.187 E19.74231
G1 X71.354 Y156.07 E19.74784
G1 X70.867 Y155.531 E19.772
G1 X70.442 Y154.941 E19.79618
G1 X70.085 Y154.309 E19.82033
G1 X69.833 Y154.05 E19.83234
G1 X69.349 Y153.509 E19.85649
G1 X68.926 Y152.918 E19.88066
G1 X68.572 Y152.284 E19.90481
G1 X68.289 Y151.615 E19.92897
G1 X68.081 Y150.919 E19.95313
G1 X67.951 Y150.204 E19.9773
G1 X67.9 Y149.383 E20.00466
G1 X67.9 Y71.517 E22.5945
G1 X67.94 Y70.792 E22.61865
G1 X68.059 Y70.075 E22.64282
G1 X68.257 Y69.376 E22.66698
G1 X68.53 Y68.703 E22.69114
G1 X68.875 Y68.064 E22.71529
G1 X69.289 Y67.467 E22.73946
G1 X69.304 Y67.45 E22.74021
G0 F1080 X69.833 Y66.85
G0 F6000 X70.116 Y67.133
G1 F1200 X70.233 Y67.016 E22.74571
G1 X70.758 Y66.547 E22.76913
G1 X71.333 Y66.141 E22.79254
G1 X71.951 Y65.803 E22.81597
G1 X72.602 Y65.536 E22.83937
G1 X73.28 Y65.346 E22.86279
G1 X73.975 Y65.233 E22.88621
G1 X74.617 Y65.2 E22.90759
G1 X145.383 Y65.199 E25.26128
G1 X146.086 Y65.239 E25.2847
G1 X146.78 Y65.358 E25.30812
G1 X147.455 Y65.556 E25.33151
G1 X148.104 Y65.828 E25.35492
G1 X148.718 Y66.173 E25.37834
G1 X149.289 Y66.584 E25.40174
G1 X149.767 Y67.015 E25.42315
G1 X149.884 Y67.132 E25.42865
G1 X150.353 Y67.657 E25.45207
G1 X150.759 Y68.232 E25.47548
G1 X151.097 Y68.85 E25.49891
G1 X151.364 Y69.501 E25.52231
G1 X151.554 Y70.179 E25.54573
G1 X151.667 Y70.874 E25.56915
G1 X151.7 Y71.516 E25.59053
G1 X151.7 Y149.383 E28.1804
G1 X151.66 Y150.086 E28.20382
G1 X151.541 Y150.78 E28.22723
G1 X151.343 Y151.455 E28.25063
G1 X151.071 Y152.104 E28.27404
G1 X150.726 Y152.718 E28.29746
G1 X150.315 Y153.289 E28.32086
G1 X149.884 Y153.767 E28.34227
G1 X149.6 Y154.033 E28.35521
G1 X149.571 Y154.103 E28.35773
G1 X149.226 Y154.717 E28.38115
G1 X148.815 Y155.288 E28.40455
G1 X148.365 Y155.785 E28.42685
G1 X148.247 Y155.902 E28.43238
G1 X147.72 Y156.368 E28.45578
G1 X147.143 Y156.772 E28.47921
G1 X146.525 Y157.108 E28.5026
G1 X145.872 Y157.371 E28.52602
G1 X145.193 Y157.559 E28.54945
G1 X144.498 Y157.668 E28.57285
G1 X143.882 Y157.699 E28.59336
G1 X76.119 Y157.7 E30.84717
G1 X75.416 Y157.66 E30.87059
G1 X74.722 Y157.541 E30.89401
G1 X74.047 Y157.343 E30.9174
G1 X73.398 Y157.071 E30.94081
G1 X72.784 Y156.726 E30.96423
G1 X72.213 Y156.315 E30.98763
G1 X71.754 Y155.903 E31.00815
G1 X71.636 Y155.786 E31.01367
G1 X71.165 Y155.262 E31.03711
G1 X70.756 Y154.689 E31.06052
G1 X70.415 Y154.073 E31.08394
G1 X70.233 Y153.884 E31.09267
G1 X70.116 Y153.767 E31.09817
G1 X69.647 Y153.242 E31.12159
G1 X69.241 Y152.667 E31.145
G1 X68.903 Y152.049 E31.16843
G1 X68.636 Y151.398 E31.19183
G1 X68.446 Y150.72 E31.21525
G1 X68.333 Y150.025 E31.23867
G1 X68.3 Y149.383 E31.26005
G1 X68.3 Y71.517 E33.84988
G1 X68.34 Y70.814 E33.8733
G1 X68.459 Y70.12 E33.89672
G1 X68.657 Y69.445 E33.92012
G1 X68.929 Y68.796 E33.94352
G1 X69.274 Y68.182 E33.96695
G1 X69.594 Y67.738 E33.98515
G0 F1080 X69.685 Y67.611
G0 X70.116 Y67.133
G0 F6000 X70.399 Y67.416
G1 F1200 X70.516 Y67.299 E33.99065
G1 X71.025 Y66.846 E34.01332
G1 X71.583 Y66.457 E34.03594
G1 X72.183 Y66.135 E34.05859
G1 X72.817 Y65.886 E34.08124
G1 X73.476 Y65.713 E34.10391
G1 X74.15 Y65.619 E34.12654
G1 X74.617 Y65.6 E34.14208
G1 X145.383 Y65.599 E36.49577
G1 X146.063 Y65.639 E36.51843
G1 X146.733 Y65.758 E36.54106
G1 X147.385 Y65.955 E36.56371
G1 X148.009 Y66.227 E36.58635
G1 X148.597 Y66.571 E36.60901
G1 X149.14 Y66.981 E36.63164
G1 X149.484 Y67.298 E36.6472
G1 X149.601 Y67.415 E36.6527
G1 X150.054 Y67.924 E36.67537
G1 X150.443 Y68.482 E36.69799
G1 X150.765 Y69.082 E36.72064
G1 X151.014 Y69.716 E36.7433
G1 X151.187 Y70.375 E36.76596
G1 X151.281 Y71.049 E36.78859
G1 X151.3 Y71.516 E36.80414
G1 X151.3 Y149.383 E39.394
G1 X151.26 Y150.063 E39.41666
G1 X151.141 Y150.733 E39.43929
G1 X150.944 Y151.385 E39.46195
G1 X150.672 Y152.009 E39.48459
G1 X150.328 Y152.597 E39.50724
G1 X149.918 Y153.141 E39.5299
G1 X149.601 Y153.484 E39.54544
G1 X149.484 Y153.601 E39.55094
G1 X149.264 Y153.797 E39.56074
G1 X149.172 Y154.008 E39.56839
G1 X148.828 Y154.596 E39.59105
G1 X148.418 Y155.14 E39.61371
G1 X148.084 Y155.501 E39.63007
G1 X147.966 Y155.618 E39.63559
G1 X147.455 Y156.068 E39.65824
G1 X146.895 Y156.455 E39.68088
G1 X146.293 Y156.774 E39.70354
G1 X145.659 Y157.02 E39.72616
G1 X144.999 Y157.19 E39.74883
G1 X144.325 Y157.282 E39.77145
G1 X143.882 Y157.299 E39.7862
G1 X76.119 Y157.3 E42.04
G1 X75.439 Y157.26 E42.06266
G1 X74.769 Y157.141 E42.08529
G1 X74.117 Y156.944 E42.10795
G1 X73.493 Y156.672 E42.13059
G1 X72.905 Y156.328 E42.15325
G1 X72.362 Y155.918 E42.17588
G1 X72.035 Y155.619 E42.19061
G1 X71.917 Y155.502 E42.19614
G1 X71.463 Y154.995 E42.21878
G1 X71.071 Y154.438 E42.24143
G1 X70.747 Y153.839 E42.26408
G1 X70.732 Y153.8 E42.26547
G1 X70.516 Y153.601 E42.27524
G1 X70.399 Y153.484 E42.28074
G1 X69.946 Y152.975 E42.3034
G1 X69.557 Y152.417 E42.32603
G1 X69.235 Y151.817 E42.34868
G1 X68.986 Y151.183 E42.37133
G1 X68.813 Y150.524 E42.39399
G1 X68.719 Y149.85 E42.41663
G1 X68.7 Y149.383 E42.43217
G1 X68.7 Y71.517 E45.02201
G1 X68.74 Y70.837 E45.04466
G1 X68.859 Y70.167 E45.0673
G1 X69.056 Y69.515 E45.08995
G1 X69.328 Y68.891 E45.11259
G1 X69.672 Y68.303 E45.13525
G1 X69.882 Y68.025 E45.14684
G0 F1080 X70.082 Y67.759
G0 X70.399 Y67.416
G0 F6000 X70.682 Y67.699
G1 F1200 X70.799 Y67.582 E45.15234
G1 X71.291 Y67.146 E45.1742
G1 X71.832 Y66.774 E45.19604
G1 X72.414 Y66.47 E45.21788
G1 X73.029 Y66.239 E45.23973
G1 X73.668 Y66.084 E45.2616
G1 X74.617 Y66 E45.29329
G1 X145.383 Y65.999 E47.64697
G1 X146.039 Y66.039 E47.66883
G1 X146.685 Y66.158 E47.69068
G1 X147.311 Y66.355 E47.71251
G1 X147.91 Y66.627 E47.73439
G1 X148.471 Y66.969 E47.75624
G1 X149.201 Y67.581 E47.78792
G1 X149.318 Y67.698 E47.79343
G1 X149.754 Y68.19 E47.81529
G1 X150.126 Y68.731 E47.83713
G1 X150.43 Y69.313 E47.85897
G1 X150.661 Y69.928 E47.88082
G1 X150.816 Y70.567 E47.90269
G1 X150.9 Y71.516 E47.93438
G1 X150.9 Y149.383 E50.52424
G1 X150.86 Y150.039 E50.5461
G1 X150.741 Y150.685 E50.56795
G1 X150.544 Y151.312 E50.58981
G1 X150.272 Y151.91 E50.61166
G1 X149.93 Y152.471 E50.63351
G1 X149.318 Y153.201 E50.6652
G1 X149.201 Y153.318 E50.6707
G1 X148.933 Y153.556 E50.68262
G1 X148.772 Y153.909 E50.69552
G1 X148.43 Y154.47 E50.71738
G1 X147.802 Y155.217 E50.74984
G1 X147.684 Y155.334 E50.75536
G1 X147.19 Y155.767 E50.77721
G1 X146.648 Y156.137 E50.79904
G1 X146.064 Y156.439 E50.82091
G1 X145.448 Y156.667 E50.84275
G1 X144.809 Y156.819 E50.8646
G1 X143.882 Y156.899 E50.89555
G1 X76.119 Y156.9 E53.14935
G1 X75.463 Y156.86 E53.17121
G1 X74.817 Y156.741 E53.19306
G1 X74.191 Y156.544 E53.21489
G1 X73.592 Y156.272 E53.23677
G1 X73.031 Y155.93 E53.25862
G1 X72.317 Y155.335 E53.28953
G1 X72.199 Y155.218 E53.29506
G1 X71.761 Y154.728 E53.31692
G1 X71.387 Y154.188 E53.33877
G1 X71.08 Y153.607 E53.36062
G1 X71.05 Y153.529 E53.3634
G1 X70.799 Y153.318 E53.37431
G1 X70.682 Y153.201 E53.37981
G1 X70.246 Y152.709 E53.40168
G1 X69.874 Y152.168 E53.42351
G1 X69.57 Y151.586 E53.44535
G1 X69.339 Y150.971 E53.4672
G1 X69.184 Y150.332 E53.48907
G1 X69.1 Y149.383 E53.52076
G1 X69.1 Y71.517 E56.11059
G1 X69.14 Y70.861 E56.13245
G1 X69.259 Y70.215 E56.1543
G1 X69.456 Y69.588 E56.17616
G1 X69.728 Y68.99 E56.19801
G1 X70.07 Y68.429 E56.21986
G1 X70.168 Y68.312 E56.22494
G0 F1080 X70.682 Y67.699
G0 F6000 X70.964 Y67.981
G1 F1200 X71.081 Y67.864 E56.23044
G1 X71.556 Y67.447 E56.25146
G1 X72.079 Y67.092 E56.27249
G1 X72.643 Y66.806 E56.29352
G1 X73.238 Y66.594 E56.31453
G1 X73.856 Y66.458 E56.33558
G1 X74.617 Y66.4 E56.36096
G1 X145.383 Y66.399 E58.71465
G1 X146.014 Y66.439 E58.73568
G1 X146.635 Y66.558 E58.75671
G1 X147.235 Y66.755 E58.77771
G1 X147.807 Y67.026 E58.79876
G1 X148.339 Y67.366 E58.81976
G1 X148.919 Y67.863 E58.84517
G1 X149.036 Y67.98 E58.85067
G1 X149.453 Y68.455 E58.87169
G1 X149.808 Y68.978 E58.89272
G1 X150.094 Y69.542 E58.91375
G1 X150.306 Y70.137 E58.93476
G1 X150.442 Y70.755 E58.9558
G1 X150.5 Y71.516 E58.98119
G1 X150.5 Y149.383 E61.57106
G1 X150.46 Y150.014 E61.59209
G1 X150.341 Y150.635 E61.61312
G1 X150.144 Y151.235 E61.63412
G1 X149.873 Y151.807 E61.65517
G1 X149.533 Y152.339 E61.67617
G1 X149.036 Y152.919 E61.70158
G1 X148.919 Y153.036 E61.70708
G1 X148.609 Y153.308 E61.7208
G1 X148.373 Y153.806 E61.73913
G1 X148.033 Y154.338 E61.76012
G1 X147.52 Y154.933 E61.78625
G1 X147.402 Y155.05 E61.79178
G1 X146.926 Y155.465 E61.81279
G1 X146.402 Y155.818 E61.8338
G1 X145.836 Y156.101 E61.85485
G1 X145.24 Y156.311 E61.87586
G1 X144.622 Y156.444 E61.89689
G1 X143.882 Y156.499 E61.92157
G1 X76.119 Y156.5 E64.17538
G1 X75.488 Y156.46 E64.19641
G1 X74.867 Y156.341 E64.21744
G1 X74.267 Y156.144 E64.23844
G1 X73.695 Y155.873 E64.25949
G1 X73.163 Y155.533 E64.28049
G1 X72.599 Y155.051 E64.30517
G1 X72.481 Y154.934 E64.31069
G1 X72.061 Y154.461 E64.33173
G1 X71.704 Y153.939 E64.35277
G1 X71.416 Y153.377 E64.37377
G1 X71.388 Y153.299 E64.37653
G1 X71.081 Y153.036 E64.38997
G1 X70.964 Y152.919 E64.39548
G1 X70.547 Y152.444 E64.4165
G1 X70.192 Y151.921 E64.43752
G1 X69.906 Y151.357 E64.45856
G1 X69.694 Y150.762 E64.47956
G1 X69.558 Y150.144 E64.50061
G1 X69.5 Y149.383 E64.52599
G1 X69.5 Y71.517 E67.11583
G1 X69.54 Y70.886 E67.13686
G1 X69.659 Y70.265 E67.15789
G1 X69.856 Y69.665 E67.17889
G1 X70.127 Y69.093 E67.19994
G1 X70.448 Y68.592 E67.21973
G0 F1080 X70.467 Y68.561
G0 X70.964 Y67.981
G0 F6000 X71.247 Y68.264
G1 F1200 X71.364 Y68.147 E67.22524
G1 X71.82 Y67.748 E67.24539
G1 X72.325 Y67.412 E67.26557
G1 X72.869 Y67.145 E67.28572
G1 X73.444 Y66.952 E67.30589
G1 X74.039 Y66.836 E67.32606
G1 X74.617 Y66.8 E67.34532
G1 X145.383 Y66.799 E69.699
G1 X145.988 Y66.839 E69.71917
G1 X146.582 Y66.958 E69.73932
G1 X147.156 Y67.154 E69.75949
G1 X147.699 Y67.424 E69.77966
G1 X148.201 Y67.764 E69.79983
G1 X148.636 Y68.146 E69.81908
G1 X148.753 Y68.263 E69.82459
G1 X149.152 Y68.719 E69.84474
G1 X149.488 Y69.224 E69.86491
G1 X149.755 Y69.768 E69.88507
G1 X149.948 Y70.343 E69.90524
G1 X150.064 Y70.938 E69.92541
G1 X150.1 Y71.516 E69.94467
G1 X150.1 Y149.383 E72.53453
G1 X150.06 Y149.988 E72.5547
G1 X149.941 Y150.582 E72.57485
G1 X149.745 Y151.156 E72.59502
G1 X149.474 Y151.699 E72.61521
G1 X149.135 Y152.202 E72.63538
G1 X148.753 Y152.636 E72.65461
G1 X148.636 Y152.753 E72.66012
G1 X148.274 Y153.07 E72.67612
G1 X148.245 Y153.155 E72.67911
G1 X147.974 Y153.698 E72.69929
G1 X147.635 Y154.201 E72.71947
G1 X147.239 Y154.649 E72.73935
G1 X147.121 Y154.766 E72.74488
G1 X146.663 Y155.163 E72.76504
G1 X146.157 Y155.497 E72.7852
G1 X145.611 Y155.762 E72.80539
G1 X145.036 Y155.952 E72.82553
G1 X144.44 Y156.065 E72.84571
G1 X143.882 Y156.099 E72.8643
G1 X76.119 Y156.1 E75.11811
G1 X75.514 Y156.06 E75.13827
G1 X74.92 Y155.941 E75.15842
G1 X74.346 Y155.745 E75.1786
G1 X73.803 Y155.475 E75.19877
G1 X73.301 Y155.135 E75.21893
G1 X72.88 Y154.767 E75.23753
G1 X72.762 Y154.65 E75.24306
G1 X72.361 Y154.195 E75.26323
G1 X72.022 Y153.692 E75.2834
G1 X71.753 Y153.149 E75.30356
G1 X71.727 Y153.073 E75.30623
G1 X71.364 Y152.753 E75.32233
G1 X71.247 Y152.636 E75.32783
G1 X70.848 Y152.18 E75.34798
G1 X70.512 Y151.675 E75.36816
G1 X70.245 Y151.131 E75.38831
G1 X70.052 Y150.556 E75.40848
G1 X69.936 Y149.961 E75.42865
G1 X69.9 Y149.383 E75.44791
G1 X69.9 Y71.517 E78.03774
G1 X69.94 Y70.912 E78.05791
G1 X70.059 Y70.318 E78.07806
G1 X70.255 Y69.744 E78.09823
G1 X70.526 Y69.201 E78.11842
G1 X70.741 Y68.882 E78.13121
G0 F1080 X70.865 Y68.698
G0 X71.247 Y68.264
G0 F6000 X71.53 Y68.547
G1 F1200 X71.647 Y68.43 E78.13671
