;FLAVOR:Marlin
;TIME:9293
;Filament used: 8.055m
;Layer height: 0.2
;MINX:64.7
;MINY:76.099
;MINZ:0.2
;MAXX:155.3
;MAXY:147.901
;MAXZ:15.2
;Generated with Cura_SteamEngine 4.8.0
M140 S60
M105
M190 S60
M104 S205
M105
M109 S205
M82 ;absolute extrusion mode
M201 X500.00 Y500.00 Z100.00 E5000.00 ;Setup machine max acceleration
M203 X500.00 Y500.00 Z10.00 E50.00 ;Setup machine max feedrate
M204 P500.00 R1000.00 T500.00 ;Setup Print/Retract/Travel acceleration
M205 X8.00 Y8.00 Z0.40 E5.00 ;Setup Jerk
M220 S100 ;Reset Feedrate
M221 S100 ;Reset Flowrate

G28 ;Home
G29

G92 E0 ;Reset Extruder
G1 Z2.0 F3000 ;Move Z Axis up
G1 X10.1 Y20 Z0.28 F5000.0 ;Move to start position
G1 X10.1 Y200.0 Z0.28 F1500.0 E15 ;Draw the first line
G1 X10.4 Y200.0 Z0.28 F5000.0 ;Move to side a little
G1 X10.4 Y20 Z0.28 F1500.0 E30 ;Draw the second line
G92 E0 ;Reset Extruder
G1 Z2.0 F3000 ;Move Z Axis up
G92 E0
G92 E0
G1 F2700 E-5
;LAYER_COUNT:75
;LAYER:0
M107
G1 F300 Z0.4
G0 F6000 X68.341 Y78.373 Z0.4
;TYPE:SKIRT
G1 F300 Z0.2
G1 F2700 E0
G1 F1200 X69.046 Y77.838 E0.03238
G1 X69.796 Y77.368 E0.06476
G1 X70.586 Y76.968 E0.09716
G1 X71.408 Y76.64 E0.12954
G1 X72.257 Y76.389 E0.16193
G1 X73.125 Y76.214 E0.19432
G1 X74.005 Y76.119 E0.22671
G1 X74.617 Y76.1 E0.24911
G1 X145.383 Y76.099 E2.83816
G1 X146.267 Y76.139 E2.87054
G1 X147.144 Y76.259 E2.90292
G1 X148.007 Y76.457 E2.93532
G1 X148.848 Y76.732 E2.96769
G1 X149.661 Y77.082 E3.00007
G1 X150.439 Y77.504 E3.03246
G1 X151.176 Y77.995 E3.06486
G1 X151.866 Y78.55 E3.09725
G1 X152.313 Y78.969 E3.11967
G1 X152.43 Y79.086 E3.12572
G1 X153.027 Y79.74 E3.15812
G1 X153.562 Y80.445 E3.1905
G1 X154.032 Y81.195 E3.22288
G1 X154.432 Y81.985 E3.25528
G1 X154.76 Y82.807 E3.28766
G1 X155.011 Y83.656 E3.32005
G1 X155.186 Y84.524 E3.35244
G1 X155.281 Y85.404 E3.38483
G1 X155.3 Y86.016 E3.40723
G1 X155.3 Y128.959 E4.97835
G1 X155.26 Y129.843 E5.01072
G1 X155.14 Y130.72 E5.04311
G1 X154.942 Y131.583 E5.0755
G1 X154.546 Y132.728 E5.11983
G1 X154.516 Y132.8 E5.12268
G1 X154.139 Y133.601 E5.15507
G1 X153.691 Y134.365 E5.18747
G1 X153.177 Y135.085 E5.21984
G1 X152.4 Y135.961 E5.26268
G1 X143.361 Y145 E5.73036
G1 X142.707 Y145.597 E5.76276
G1 X142.002 Y146.132 E5.79514
G1 X141.252 Y146.602 E5.82752
G1 X140.2 Y147.116 E5.87036
G1 X140.128 Y147.146 E5.87321
G1 X139.297 Y147.449 E5.90557
G1 X138.441 Y147.676 E5.93797
G1 X137.568 Y147.825 E5.97038
G1 X136.36 Y147.9 E6.01466
G1 X126.1 Y147.901 E6.39003
G1 X125.216 Y147.861 E6.42241
G1 X123.973 Y147.668 E6.46843
G1 X123.928 Y147.658 E6.47011
G1 X123.074 Y147.427 E6.50248
G1 X122.098 Y147.057 E6.54067
G1 X121.706 Y146.883 E6.55636
G1 X120.004 Y146.165 E6.62394
G1 X118.314 Y145.504 E6.69034
G1 X116.636 Y144.917 E6.75538
G1 X115.105 Y144.45 E6.81394
G1 X113.863 Y144.133 E6.86083
G1 X112.742 Y143.905 E6.90269
G1 X111.766 Y143.763 E6.93877
G1 X110.746 Y143.675 E6.97623
G1 X109.879 Y143.651 E7.00796
G1 X108.967 Y143.68 E7.04134
G1 X107.991 Y143.768 E7.0772
G1 X107.024 Y143.914 E7.11298
G1 X105.764 Y144.173 E7.16004
G1 X104.695 Y144.449 E7.20043
G1 X102.994 Y144.972 E7.26554
G1 X101.432 Y145.527 E7.32619
G1 X99.605 Y146.245 E7.39801
G1 X98.057 Y146.898 E7.45947
G1 X97.773 Y147.026 E7.47087
G1 X96.951 Y147.352 E7.50322
G1 X95.831 Y147.666 E7.54578
G1 X95.785 Y147.676 E7.5475
G1 X94.912 Y147.825 E7.5799
G1 X93.703 Y147.9 E7.62422
G1 X83.641 Y147.9 E7.99235
G1 X82.757 Y147.86 E8.02473
G1 X81.88 Y147.74 E8.05711
G1 X81.017 Y147.542 E8.08951
G1 X79.872 Y147.146 E8.13383
G1 X79.8 Y147.116 E8.13669
G1 X78.999 Y146.739 E8.16908
G1 X78.235 Y146.291 E8.20148
G1 X77.515 Y145.777 E8.23384
G1 X76.639 Y145 E8.27668
G1 X67.6 Y135.961 E8.74437
G1 X67.003 Y135.307 E8.77677
G1 X66.468 Y134.602 E8.80914
G1 X65.998 Y133.852 E8.84153
G1 X65.484 Y132.8 E8.88436
G1 X65.454 Y132.728 E8.88722
G1 X65.151 Y131.897 E8.91958
G1 X64.924 Y131.041 E8.95198
G1 X64.775 Y130.168 E8.98438
G1 X64.7 Y128.959 E9.0287
G1 X64.7 Y86.017 E10.59978
G1 X64.74 Y85.133 E10.63216
G1 X64.86 Y84.256 E10.66454
G1 X65.058 Y83.393 E10.69693
G1 X65.333 Y82.552 E10.72931
G1 X65.683 Y81.739 E10.76169
G1 X66.105 Y80.96 E10.7941
G1 X66.596 Y80.224 E10.82647
G1 X67.151 Y79.534 E10.85887
G1 X67.57 Y79.087 E10.88129
G1 X67.687 Y78.97 E10.88734
G1 X68.341 Y78.373 E10.91974
G0 F6000 X68.611 Y78.669
G1 F1200 X69.303 Y78.146 E10.95147
G1 X70.04 Y77.69 E10.98318
G1 X70.815 Y77.303 E11.01487
G1 X71.624 Y76.989 E11.04662
G1 X72.457 Y76.751 E11.07832
G1 X73.309 Y76.591 E11.11004
G1 X74.172 Y76.511 E11.14174
G1 X74.617 Y76.5 E11.15803
G1 X145.383 Y76.499 E13.74709
G1 X146.249 Y76.539 E13.7788
G1 X147.108 Y76.659 E13.81054
G1 X147.952 Y76.857 E13.84225
G1 X148.774 Y77.132 E13.87396
G1 X149.567 Y77.482 E13.90568
G1 X150.325 Y77.903 E13.9374
G1 X151.04 Y78.392 E13.96909
G1 X151.708 Y78.945 E14.00082
G1 X152.03 Y79.252 E14.0171
G1 X152.147 Y79.369 E14.02315
G1 X152.731 Y80.01 E14.05488
G1 X153.254 Y80.702 E14.08661
G1 X153.71 Y81.439 E14.11832
G1 X154.097 Y82.214 E14.15001
G1 X154.411 Y83.023 E14.18176
G1 X154.649 Y83.856 E14.21346
G1 X154.809 Y84.708 E14.24517
G1 X154.889 Y85.571 E14.27688
G1 X154.9 Y86.016 E14.29317
G1 X154.9 Y128.959 E15.86429
G1 X154.86 Y129.825 E15.896
G1 X154.74 Y130.684 E15.92774
G1 X154.542 Y131.528 E15.95945
G1 X154.177 Y132.574 E15.99999
G1 X154.147 Y132.646 E16.00284
G1 X153.777 Y133.43 E16.03456
G1 X153.336 Y134.177 E16.06629
G1 X152.829 Y134.88 E16.09801
G1 X152.117 Y135.678 E16.13713
G1 X143.078 Y144.717 E16.60482
G1 X142.437 Y145.301 E16.63654
G1 X141.745 Y145.824 E16.66828
G1 X141.008 Y146.28 E16.69999
G1 X140.046 Y146.747 E16.73911
G1 X139.974 Y146.777 E16.74196
G1 X139.16 Y147.073 E16.77365
G1 X138.321 Y147.293 E16.80539
G1 X137.466 Y147.435 E16.83709
G1 X136.36 Y147.5 E16.87763
G1 X126.1 Y147.501 E17.253
G1 X125.234 Y147.461 E17.28472
G1 X124.06 Y147.277 E17.3282
G1 X124.015 Y147.267 E17.32988
G1 X123.178 Y147.04 E17.36161
G1 X122.26 Y146.691 E17.39754
G1 X121.857 Y146.512 E17.41368
G1 X120.17 Y145.801 E17.48066
G1 X118.472 Y145.136 E17.54737
G1 X116.744 Y144.532 E17.61434
G1 X115.214 Y144.064 E17.67288
G1 X113.959 Y143.745 E17.72026
G1 X112.811 Y143.511 E17.76312
G1 X111.806 Y143.364 E17.80028
G1 X110.773 Y143.275 E17.83822
G1 X109.878 Y143.251 E17.87097
G1 X108.935 Y143.28 E17.90549
G1 X107.947 Y143.37 E17.94179
G1 X106.941 Y143.522 E17.97901
G1 X105.682 Y143.781 E18.02604
G1 X104.564 Y144.07 E18.06828
G1 X102.883 Y144.587 E18.13263
G1 X101.281 Y145.156 E18.19483
G1 X99.452 Y145.875 E18.26673
G1 X97.915 Y146.523 E18.32775
G1 X97.609 Y146.661 E18.34003
G1 X96.803 Y146.98 E18.37175
G1 X95.746 Y147.275 E18.4119
G1 X95.7 Y147.285 E18.41362
G1 X94.845 Y147.43 E18.44535
G1 X93.703 Y147.5 E18.48721
G1 X83.641 Y147.5 E18.85534
G1 X82.775 Y147.46 E18.88705
G1 X81.916 Y147.34 E18.91879
G1 X81.072 Y147.142 E18.9505
G1 X80.026 Y146.777 E18.99104
G1 X79.954 Y146.747 E18.99389
G1 X79.17 Y146.377 E19.02561
G1 X78.423 Y145.936 E19.05734
G1 X77.72 Y145.429 E19.08906
G1 X76.922 Y144.717 E19.12818
G1 X67.883 Y135.678 E19.59587
G1 X67.299 Y135.037 E19.62759
G1 X66.776 Y134.345 E19.65933
G1 X66.32 Y133.608 E19.69104
G1 X65.853 Y132.646 E19.73016
G1 X65.823 Y132.574 E19.73301
G1 X65.527 Y131.76 E19.7647
G1 X65.307 Y130.921 E19.79644
G1 X65.165 Y130.066 E19.82814
G1 X65.1 Y128.959 E19.86872
G1 X65.1 Y86.017 E21.4398
G1 X65.14 Y85.151 E21.47152
G1 X65.26 Y84.292 E21.50325
G1 X65.458 Y83.448 E21.53497
G1 X65.733 Y82.626 E21.56668
G1 X66.083 Y81.833 E21.59839
G1 X66.504 Y81.075 E21.63011
G1 X66.993 Y80.36 E21.6618
G1 X67.546 Y79.692 E21.69353
G1 X67.853 Y79.37 E21.70981
G1 X67.97 Y79.253 E21.71586
G1 X68.611 Y78.669 E21.74759
G0 F6000 X68.88 Y78.965
G1 F1200 X69.559 Y78.456 E21.77864
G1 X70.282 Y78.013 E21.80966
G1 X71.044 Y77.64 E21.8407
G1 X71.838 Y77.34 E21.87175
G1 X72.656 Y77.116 E21.90278
G1 X73.492 Y76.971 E21.93382
G1 X74.617 Y76.9 E21.97506
G1 X145.383 Y76.899 E24.56412
G1 X146.23 Y76.939 E24.59514
G1 X147.07 Y77.059 E24.62619
G1 X147.895 Y77.257 E24.65723
G1 X148.697 Y77.532 E24.68825
G1 X149.47 Y77.881 E24.71928
G1 X150.207 Y78.301 E24.75031
G1 X150.901 Y78.789 E24.78135
G1 X151.747 Y79.535 E24.82262
G1 X151.864 Y79.652 E24.82867
G1 X152.435 Y80.279 E24.8597
G1 X152.944 Y80.958 E24.89075
G1 X153.387 Y81.681 E24.92177
G1 X153.76 Y82.443 E24.95281
G1 X154.06 Y83.237 E24.98386
G1 X154.284 Y84.055 E25.01489
G1 X154.429 Y84.891 E25.04593
G1 X154.5 Y86.016 E25.08717
G1 X154.5 Y128.959 E26.65829
G1 X154.46 Y129.806 E26.68932
G1 X154.34 Y130.646 E26.72036
G1 X154.142 Y131.471 E26.7514
G1 X153.808 Y132.421 E26.78824
G1 X153.778 Y132.493 E26.7911
G1 X153.415 Y133.259 E26.82211
G1 X152.981 Y133.989 E26.85318
G1 X152.481 Y134.674 E26.88421
G1 X151.834 Y135.395 E26.91965
G1 X142.795 Y144.434 E27.38733
G1 X142.168 Y145.005 E27.41836
G1 X141.489 Y145.514 E27.44941
G1 X140.766 Y145.957 E27.48043
G1 X139.893 Y146.378 E27.51589
G1 X139.821 Y146.408 E27.51874
G1 X139.023 Y146.697 E27.5498
G1 X138.202 Y146.909 E27.58082
G1 X137.364 Y147.044 E27.61187
G1 X136.36 Y147.1 E27.64866
G1 X126.1 Y147.101 E28.02404
G1 X125.253 Y147.061 E28.05506
G1 X124.147 Y146.887 E28.09602
G1 X124.102 Y146.877 E28.09771
G1 X123.283 Y146.654 E28.12876
G1 X122.421 Y146.325 E28.16252
G1 X122.027 Y146.15 E28.17829
G1 X120.309 Y145.426 E28.2465
G1 X118.592 Y144.754 E28.31396
G1 X116.867 Y144.15 E28.38083
G1 X115.343 Y143.685 E28.43912
G1 X114.04 Y143.353 E28.48832
G1 X112.874 Y143.115 E28.53186
G1 X111.864 Y142.968 E28.5692
G1 X110.803 Y142.877 E28.60816
G1 X109.876 Y142.851 E28.64209
G1 X108.904 Y142.882 E28.67767
G1 X107.904 Y142.973 E28.7144
G1 X106.858 Y143.131 E28.75311
G1 X105.583 Y143.393 E28.80073
G1 X104.559 Y143.657 E28.83942
G1 X104.438 Y143.691 E28.84402
G1 X102.744 Y144.212 E28.90886
G1 X101.129 Y144.786 E28.97157
G1 X99.312 Y145.5 E29.04299
G1 X97.722 Y146.171 E29.10613
G1 X97.445 Y146.296 E29.11725
G1 X96.656 Y146.608 E29.14829
G1 X95.661 Y146.885 E29.18608
G1 X95.615 Y146.895 E29.1878
G1 X94.778 Y147.036 E29.21885
G1 X93.703 Y147.1 E29.25825
G1 X83.641 Y147.1 E29.62638
G1 X82.794 Y147.06 E29.65741
G1 X81.954 Y146.94 E29.68845
G1 X81.129 Y146.742 E29.71949
G1 X80.179 Y146.408 E29.75633
G1 X80.107 Y146.378 E29.75919
G1 X79.341 Y146.015 E29.7902
G1 X78.611 Y145.581 E29.82127
G1 X77.926 Y145.081 E29.8523
G1 X77.205 Y144.434 E29.88774
G1 X68.166 Y135.395 E30.35543
G1 X67.595 Y134.768 E30.38645
G1 X67.086 Y134.089 E30.4175
G1 X66.643 Y133.366 E30.44852
G1 X66.222 Y132.493 E30.48398
G1 X66.192 Y132.421 E30.48683
G1 X65.903 Y131.623 E30.51789
G1 X65.691 Y130.802 E30.54891
G1 X65.556 Y129.964 E30.57996
G1 X65.5 Y128.959 E30.61679
G1 X65.5 Y86.017 E32.18787
G1 X65.54 Y85.17 E32.21889
G1 X65.66 Y84.33 E32.24994
G1 X65.858 Y83.505 E32.28098
G1 X66.133 Y82.702 E32.31203
G1 X66.482 Y81.929 E32.34306
G1 X66.902 Y81.193 E32.37407
G1 X67.39 Y80.499 E32.40511
G1 X68.136 Y79.653 E32.44637
G1 X68.253 Y79.536 E32.45243
G1 X68.88 Y78.965 E32.48345
G0 F6000 X69.15 Y79.261
G1 F1200 X69.815 Y78.766 E32.51378
G1 X70.524 Y78.336 E32.54412
G1 X71.271 Y77.977 E32.57444
G1 X72.05 Y77.692 E32.60479
G1 X72.852 Y77.483 E32.63511
G1 X73.671 Y77.352 E32.66546
G1 X74.617 Y77.3 E32.70012
G1 X145.383 Y77.299 E35.28918
G1 X146.211 Y77.339 E35.3195
G1 X147.032 Y77.459 E35.34986
G1 X147.837 Y77.657 E35.38019
G1 X148.619 Y77.931 E35.41051
G1 X149.372 Y78.28 E35.44087
G1 X150.087 Y78.699 E35.47119
G1 X150.758 Y79.186 E35.50152
G1 X151.464 Y79.818 E35.53619
G1 X151.581 Y79.935 E35.54225
G1 X152.139 Y80.549 E35.5726
G1 X152.634 Y81.214 E35.60293
G1 X153.064 Y81.923 E35.63327
G1 X153.423 Y82.67 E35.66359
G1 X153.708 Y83.449 E35.69394
G1 X153.917 Y84.251 E35.72426
G1 X154.048 Y85.07 E35.75461
G1 X154.1 Y86.016 E35.78927
G1 X154.1 Y128.959 E37.36039
G1 X154.06 Y129.787 E37.39072
G1 X153.94 Y130.608 E37.42107
G1 X153.742 Y131.413 E37.4514
G1 X153.438 Y132.267 E37.48457
G1 X153.408 Y132.339 E37.48742
G1 X153.053 Y133.088 E37.51775
G1 X152.627 Y133.799 E37.54807
G1 X152.135 Y134.466 E37.57839
G1 X151.551 Y135.112 E37.61025
G1 X142.512 Y144.151 E38.07794
G1 X141.898 Y144.709 E38.10829
G1 X141.233 Y145.204 E38.13862
G1 X140.524 Y145.634 E38.16896
G1 X139.739 Y146.008 E38.20077
G1 X139.667 Y146.038 E38.20363
G1 X138.887 Y146.32 E38.23397
G1 X138.083 Y146.525 E38.26433
G1 X137.264 Y146.652 E38.29465
G1 X136.36 Y146.7 E38.32777
G1 X126.1 Y146.701 E38.70314
G1 X125.272 Y146.661 E38.73347
G1 X124.233 Y146.496 E38.77196
G1 X124.188 Y146.486 E38.77365
G1 X123.389 Y146.268 E38.80395
G1 X122.583 Y145.959 E38.83553
G1 X122.177 Y145.779 E38.85178
G1 X120.448 Y145.05 E38.92043
G1 X118.759 Y144.389 E38.98679
G1 X116.994 Y143.771 E39.05521
G1 X115.437 Y143.296 E39.11476
G1 X114.131 Y142.963 E39.16407
G1 X112.943 Y142.721 E39.20843
G1 X111.904 Y142.57 E39.24684
G1 X110.83 Y142.477 E39.28628
G1 X109.875 Y142.451 E39.32124
G1 X108.889 Y142.482 E39.35733
G1 X107.84 Y142.577 E39.39586
G1 X106.824 Y142.73 E39.43345
G1 X105.506 Y143.001 E39.48268
G1 X104.419 Y143.28 E39.52374
G1 X102.619 Y143.832 E39.59262
G1 X101.013 Y144.402 E39.65497
G1 X99.125 Y145.144 E39.72919
G1 X97.58 Y145.796 E39.79054
G1 X97.281 Y145.931 E39.80255
G1 X96.509 Y146.235 E39.8329
G1 X95.576 Y146.494 E39.86833
G1 X95.53 Y146.504 E39.87005
G1 X94.712 Y146.641 E39.90039
G1 X93.703 Y146.7 E39.93737
G1 X83.641 Y146.7 E40.3055
G1 X82.813 Y146.66 E40.33583
G1 X81.992 Y146.54 E40.36619
G1 X81.187 Y146.342 E40.39652
G1 X80.333 Y146.038 E40.42968
G1 X80.261 Y146.008 E40.43253
G1 X79.512 Y145.653 E40.46286
G1 X78.801 Y145.227 E40.49318
G1 X78.134 Y144.735 E40.52351
G1 X77.488 Y144.151 E40.55537
G1 X68.449 Y135.112 E41.02305
G1 X67.891 Y134.498 E41.05341
G1 X67.396 Y133.833 E41.08374
G1 X66.966 Y133.124 E41.11407
G1 X66.592 Y132.339 E41.14589
G1 X66.562 Y132.267 E41.14874
G1 X66.28 Y131.487 E41.17909
G1 X66.075 Y130.683 E41.20944
G1 X65.948 Y129.864 E41.23977
G1 X65.9 Y128.959 E41.27292
G1 X65.9 Y86.017 E42.844
G1 X65.94 Y85.189 E42.87433
G1 X66.06 Y84.368 E42.90469
G1 X66.258 Y83.563 E42.93502
G1 X66.532 Y82.781 E42.96533
G1 X66.881 Y82.028 E42.9957
G1 X67.301 Y81.313 E43.02604
G1 X67.787 Y80.642 E43.05635
G1 X68.419 Y79.936 E43.09102
G1 X68.536 Y79.819 E43.09707
G1 X69.15 Y79.261 E43.12743
G0 F6000 X69.419 Y79.558
G1 F1200 X70.07 Y79.076 E43.15706
G1 X70.765 Y78.661 E43.18668
G1 X71.497 Y78.317 E43.21627
G1 X72.261 Y78.046 E43.24593
G1 X73.047 Y77.852 E43.27555
G1 X73.848 Y77.736 E43.30516
G1 X74.617 Y77.7 E43.33332
G1 X145.383 Y77.699 E45.92238
G1 X146.192 Y77.739 E45.95201
G1 X146.992 Y77.858 E45.9816
G1 X147.778 Y78.056 E46.01126
G1 X148.539 Y78.331 E46.04086
G1 X149.27 Y78.679 E46.07048
G1 X149.963 Y79.098 E46.10011
G1 X150.612 Y79.582 E46.12973
G1 X151.181 Y80.101 E46.15791
G1 X151.298 Y80.218 E46.16396
G1 X151.842 Y80.818 E46.19359
G1 X152.324 Y81.469 E46.22323
G1 X152.739 Y82.164 E46.25284
G1 X153.083 Y82.896 E46.28243
G1 X153.354 Y83.66 E46.31209
G1 X153.548 Y84.446 E46.34171
G1 X153.664 Y85.247 E46.37132
G1 X153.7 Y86.016 E46.39949
G1 X153.7 Y128.959 E47.97061
G1 X153.66 Y129.768 E48.00024
G1 X153.54 Y130.569 E48.02987
G1 X153.343 Y131.354 E48.05949
G1 X153.069 Y132.113 E48.08901
G1 X153.039 Y132.185 E48.09186
G1 X152.691 Y132.916 E48.12148
G1 X152.273 Y133.609 E48.15109
G1 X151.788 Y134.258 E48.18073
G1 X151.268 Y134.829 E48.20899
G1 X142.229 Y143.868 E48.67667
G1 X141.629 Y144.412 E48.7063
G1 X140.978 Y144.894 E48.73594
G1 X140.283 Y145.309 E48.76555
G1 X139.585 Y145.639 E48.7938
G1 X139.513 Y145.669 E48.79666
G1 X138.751 Y145.943 E48.82628
G1 X137.966 Y146.141 E48.8559
G1 X137.165 Y146.26 E48.88553
G1 X136.36 Y146.3 E48.91502
G1 X126.1 Y146.301 E49.29039
G1 X125.291 Y146.261 E49.32003
G1 X124.32 Y146.106 E49.356
G1 X124.275 Y146.096 E49.35769
G1 X123.494 Y145.881 E49.38732
G1 X122.744 Y145.593 E49.41672
G1 X122.326 Y145.407 E49.43346
G1 X120.601 Y144.68 E49.50194
G1 X118.903 Y144.016 E49.56865
G1 X117.12 Y143.391 E49.63777
G1 X115.545 Y142.91 E49.69802
G1 X114.228 Y142.575 E49.74774
G1 X113.026 Y142.33 E49.79262
G1 X111.945 Y142.172 E49.83259
G1 X110.843 Y142.077 E49.87306
G1 X109.873 Y142.051 E49.90856
G1 X108.856 Y142.083 E49.94579
G1 X107.798 Y142.179 E49.98465
G1 X106.76 Y142.334 E50.02305
G1 X105.408 Y142.612 E50.07355
