;FLAVOR:Marlin
;TIME:4537
;Filament used: 3.73647m
;Layer height: 0.2
;MINX:88
;MINY:88
;MINZ:0.2
;MAXX:132
;MAXY:132
;MAXZ:15
;Generated with Cura_SteamEngine 4.8.0
M140 S60
M105
M190 S60
M104 S205
M105
M109 S205
M82 ;absolute extrusion mode
M201 X500.00 Y500.00 Z100.00 E5000.00 ;Setup machine max acceleration
M203 X500.00 Y500.00 Z10.00 E50.00 ;Setup machine max feedrate
M204 P500.00 R1000.00 T500.00 ;Setup Print/Retract/Travel acceleration
M205 X8.00 Y8.00 Z0.40 E5.00 ;Setup Jerk
M220 S100 ;Reset Feedrate
M221 S100 ;Reset Flowrate

G28 ;Home
G29

G92 E0 ;Reset Extruder
G1 Z2.0 F3000 ;Move Z Axis up
G1 X10.1 Y20 Z0.28 F5000.0 ;Move to start position
G1 X10.1 Y200.0 Z0.28 F1500.0 E15 ;Draw the first line
G1 X10.4 Y200.0 Z0.28 F5000.0 ;Move to side a little
G1 X10.4 Y20 Z0.28 F1500.0 E30 ;Draw the second line
G92 E0 ;Reset Extruder
G1 Z2.0 F3000 ;Move Z Axis up
G92 E0
G92 E0
G1 F2700 E-5
;LAYER_COUNT:75
;LAYER:0
M107
G0 F6000 X91.527 Y91.503 Z0.2
;TYPE:SKIRT
G1 F2700 E0
G1 F1200 X92.049 Y91.032 E0.02338
G1 X92.786 Y90.43 E0.05504
G1 X93.349 Y90.015 E0.0783
G1 X93.942 Y89.661 E0.10127
G1 X94.817 Y89.195 E0.13424
G1 X95.495 Y88.879 E0.15912
G1 X96.085 Y88.671 E0.17993
G1 X96.99 Y88.398 E0.21137
G1 X97.483 Y88.269 E0.22832
G1 X98.346 Y88.129 E0.2574
G1 X99.308 Y88.034 E0.28955
G1 X99.996 Y88 E0.31246
G1 X120.004 Y88 E0.97793
G1 X120.692 Y88.034 E1.00084
G1 X121.654 Y88.129 E1.03299
G1 X122.539 Y88.274 E1.06282
G1 X123.007 Y88.398 E1.07892
G1 X123.923 Y88.674 E1.11074
G1 X124.627 Y88.927 E1.13562
G1 X125.203 Y89.202 E1.15685
G1 X126.064 Y89.662 E1.18932
G1 X126.666 Y90.024 E1.21268
G1 X127.217 Y90.431 E1.23547
G1 X127.961 Y91.04 E1.26744
G1 X128.492 Y91.522 E1.2913
G1 X128.958 Y92.037 E1.3144
G1 X129.568 Y92.782 E1.34642
G1 X129.931 Y93.267 E1.36657
G1 X130.337 Y93.935 E1.39257
G1 X130.798 Y94.798 E1.42511
G1 X131.115 Y95.476 E1.45001
G1 X131.328 Y96.083 E1.4714
G1 X131.609 Y97.019 E1.50391
G1 X131.786 Y97.746 E1.52879
G1 X131.871 Y98.344 E1.54888
G1 X131.966 Y99.306 E1.58103
G1 X132 Y99.994 E1.60395
G1 X132 Y120.01 E2.26968
G1 X131.966 Y120.702 E2.29272
G1 X131.871 Y121.658 E2.32468
G1 X131.726 Y122.539 E2.35437
G1 X131.602 Y123.007 E2.37048
G1 X131.326 Y123.923 E2.4023
G1 X131.073 Y124.627 E2.42718
G1 X130.798 Y125.203 E2.44841
G1 X130.338 Y126.064 E2.48087
G1 X129.976 Y126.666 E2.50424
G1 X129.569 Y127.217 E2.52702
G1 X128.96 Y127.961 E2.559
G1 X128.478 Y128.492 E2.58285
G1 X127.963 Y128.958 E2.60595
G1 X127.218 Y129.568 E2.63798
G1 X126.733 Y129.931 E2.65813
G1 X126.065 Y130.337 E2.68413
G1 X125.202 Y130.798 E2.71667
G1 X124.524 Y131.115 E2.74156
G1 X123.923 Y131.326 E2.76275
G1 X123.007 Y131.602 E2.79457
G1 X122.517 Y131.731 E2.81142
G1 X121.654 Y131.871 E2.8405
G1 X120.692 Y131.966 E2.87265
G1 X120.004 Y132 E2.89556
G1 X99.99 Y132 E3.56123
G1 X99.289 Y131.965 E3.58457
G1 X98.325 Y131.868 E3.6168
G1 X97.586 Y131.753 E3.64167
G1 X96.996 Y131.602 E3.66193
G1 X96.059 Y131.318 E3.69449
G1 X95.355 Y131.063 E3.7194
G1 X94.79 Y130.793 E3.74023
G1 X93.929 Y130.333 E3.77269
G1 X93.246 Y129.916 E3.79931
G1 X92.773 Y129.561 E3.81898
G1 X92.028 Y128.95 E3.85103
G1 X91.502 Y128.472 E3.87467
G1 X91.03 Y127.949 E3.8981
G1 X90.429 Y127.213 E3.9297
G1 X90.015 Y126.651 E3.95292
G1 X89.661 Y126.058 E3.97589
G1 X89.195 Y125.183 E4.00886
G1 X88.879 Y124.505 E4.03374
G1 X88.671 Y123.915 E4.05455
G1 X88.398 Y123.01 E4.08599
G1 X88.269 Y122.517 E4.10294
G1 X88.129 Y121.653 E4.13205
G1 X88.034 Y120.689 E4.16427
G1 X88 Y120.002 E4.18714
G1 X88 Y99.996 E4.85255
G1 X88.034 Y99.308 E4.87546
G1 X88.129 Y98.346 E4.90761
G1 X88.274 Y97.461 E4.93744
G1 X88.406 Y96.966 E4.95448
G1 X88.693 Y96.027 E4.98713
G1 X88.949 Y95.324 E5.01202
G1 X89.221 Y94.76 E5.03284
G1 X89.674 Y93.917 E5.06467
G1 X90.028 Y93.329 E5.0875
G1 X90.439 Y92.774 E5.11047
G1 X90.993 Y92.098 E5.13954
G0 F1080 X91.049 Y92.03
G0 X91.527 Y91.503
G0 F6000 X91.81 Y91.786
G1 F1200 X92.302 Y91.341 E5.1616
G1 X93.039 Y90.739 E5.19326
G1 X93.571 Y90.347 E5.21523
G1 X94.13 Y90.014 E5.23688
G1 X95.005 Y89.548 E5.26985
G1 X95.663 Y89.242 E5.29398
G1 X96.201 Y89.054 E5.31294
G1 X97.106 Y88.781 E5.34438
G1 X97.571 Y88.659 E5.36037
G1 X98.385 Y88.527 E5.3878
G1 X99.347 Y88.432 E5.41995
G1 X99.996 Y88.4 E5.44156
G1 X120.004 Y88.4 E6.10703
G1 X120.653 Y88.432 E6.12864
G1 X121.615 Y88.527 E6.16079
G1 X122.451 Y88.664 E6.18897
G1 X122.892 Y88.781 E6.20414
G1 X123.808 Y89.057 E6.23596
G1 X124.491 Y89.304 E6.26012
G1 X125.014 Y89.555 E6.27942
G1 X125.875 Y90.015 E6.31188
G1 X126.444 Y90.356 E6.33395
G1 X126.963 Y90.741 E6.35544
G1 X127.707 Y91.35 E6.38742
G1 X128.209 Y91.805 E6.40995
G1 X128.649 Y92.291 E6.43176
G1 X129.259 Y93.036 E6.46378
G1 X129.602 Y93.494 E6.48281
G1 X129.984 Y94.123 E6.50729
G1 X130.445 Y94.986 E6.53983
G1 X130.752 Y95.645 E6.56401
G1 X130.945 Y96.198 E6.58349
G1 X131.226 Y97.134 E6.616
G1 X131.397 Y97.84 E6.64016
G1 X131.473 Y98.383 E6.65839
G1 X131.568 Y99.345 E6.69055
G1 X131.6 Y99.994 E6.71216
G1 X131.6 Y120.01 E7.37789
G1 X131.568 Y120.663 E7.39964
G1 X131.473 Y121.619 E7.43159
G1 X131.336 Y122.451 E7.45964
G1 X131.219 Y122.892 E7.47481
G1 X130.943 Y123.808 E7.50663
G1 X130.696 Y124.491 E7.53079
G1 X130.445 Y125.014 E7.55008
G1 X129.985 Y125.875 E7.58255
G1 X129.644 Y126.444 E7.60461
G1 X129.259 Y126.963 E7.62611
G1 X128.65 Y127.707 E7.65808
G1 X128.195 Y128.209 E7.68062
G1 X127.709 Y128.649 E7.70242
G1 X126.964 Y129.259 E7.73445
G1 X126.506 Y129.602 E7.75348
G1 X125.877 Y129.984 E7.77796
G1 X125.014 Y130.445 E7.8105
G1 X124.355 Y130.752 E7.83468
G1 X123.808 Y130.943 E7.85395
G1 X122.892 Y131.219 E7.88577
G1 X122.429 Y131.341 E7.90169
G1 X121.615 Y131.473 E7.92912
G1 X120.653 Y131.568 E7.96127
G1 X120.004 Y131.6 E7.98289
G1 X99.99 Y131.6 E8.64855
G1 X99.329 Y131.567 E8.67057
G1 X98.365 Y131.47 E8.70279
G1 X97.648 Y131.357 E8.72693
G1 X97.112 Y131.219 E8.74534
G1 X96.175 Y130.935 E8.77791
G1 X95.492 Y130.687 E8.80207
G1 X94.979 Y130.44 E8.82101
G1 X94.118 Y129.98 E8.85348
G1 X93.473 Y129.587 E8.8786
G1 X93.027 Y129.251 E8.89717
G1 X92.282 Y128.64 E8.92922
G1 X91.785 Y128.189 E8.95154
G1 X91.34 Y127.696 E8.97363
G1 X90.739 Y126.96 E9.00523
G1 X90.347 Y126.429 E9.02719
G1 X90.014 Y125.87 E9.04883
G1 X89.548 Y124.995 E9.0818
G1 X89.242 Y124.337 E9.10594
G1 X89.054 Y123.799 E9.12489
G1 X88.781 Y122.894 E9.15633
G1 X88.659 Y122.429 E9.17232
G1 X88.527 Y121.613 E9.19981
G1 X88.432 Y120.649 E9.23203
G1 X88.4 Y120.002 E9.25358
G1 X88.4 Y99.996 E9.91898
G1 X88.432 Y99.347 E9.94059
G1 X88.527 Y98.385 E9.97274
G1 X88.664 Y97.549 E10.00092
G1 X88.788 Y97.083 E10.01696
G1 X89.075 Y96.144 E10.04962
G1 X89.325 Y95.462 E10.07378
G1 X89.573 Y94.949 E10.09273
G1 X90.026 Y94.106 E10.12456
G1 X90.36 Y93.551 E10.1461
G1 X90.748 Y93.027 E10.16779
G1 X91.277 Y92.382 E10.19553
G0 F1080 X91.358 Y92.283
G0 X91.81 Y91.786
G0 F6000 X92.093 Y92.069
G1 F1200 X92.555 Y91.651 E10.21626
G1 X93.292 Y91.049 E10.24791
G1 X93.793 Y90.68 E10.2686
G1 X94.318 Y90.367 E10.28893
G1 X95.193 Y89.901 E10.3219
G1 X95.832 Y89.606 E10.34531
G1 X96.316 Y89.437 E10.36236
G1 X97.221 Y89.164 E10.3938
G1 X97.66 Y89.049 E10.4089
G1 X98.425 Y88.925 E10.43467
G1 X99.387 Y88.83 E10.46682
G1 X99.996 Y88.8 E10.4871
G1 X120.004 Y88.8 E11.15257
G1 X120.613 Y88.83 E11.17285
G1 X121.575 Y88.925 E11.20501
G1 X122.362 Y89.054 E11.23153
G1 X122.777 Y89.164 E11.24581
G1 X123.693 Y89.44 E11.27763
G1 X124.354 Y89.681 E11.30103
G1 X124.826 Y89.908 E11.31845
G1 X125.687 Y90.368 E11.35092
G1 X126.222 Y90.689 E11.37167
G1 X126.71 Y91.05 E11.39186
G1 X127.454 Y91.659 E11.42384
G1 X127.926 Y92.088 E11.44505
G1 X128.339 Y92.544 E11.46551
G1 X128.949 Y93.289 E11.49754
G1 X129.272 Y93.721 E11.51548
G1 X129.632 Y94.312 E11.5385
G1 X130.093 Y95.175 E11.57104
G1 X130.389 Y95.814 E11.59446
G1 X130.562 Y96.313 E11.61203
G1 X130.843 Y97.249 E11.64453
G1 X131.007 Y97.934 E11.66796
G1 X131.075 Y98.423 E11.68438
G1 X131.17 Y99.385 E11.71653
G1 X131.2 Y99.994 E11.73681
G1 X131.2 Y120.01 E12.40255
G1 X131.17 Y120.623 E12.42296
G1 X131.075 Y121.579 E12.45491
G1 X130.946 Y122.362 E12.48131
G1 X130.836 Y122.777 E12.49559
G1 X130.56 Y123.693 E12.5274
G1 X130.319 Y124.354 E12.5508
G1 X130.092 Y124.826 E12.56822
G1 X129.632 Y125.687 E12.60069
G1 X129.311 Y126.222 E12.62144
G1 X128.95 Y126.71 E12.64163
G1 X128.341 Y127.454 E12.67361
G1 X127.912 Y127.926 E12.69483
G1 X127.456 Y128.339 E12.71529
G1 X126.711 Y128.949 E12.74731
G1 X126.279 Y129.272 E12.76525
G1 X125.688 Y129.632 E12.78827
G1 X124.825 Y130.093 E12.82081
G1 X124.186 Y130.389 E12.84424
G1 X123.693 Y130.56 E12.86159
G1 X122.777 Y130.836 E12.89341
G1 X122.34 Y130.951 E12.90844
G1 X121.575 Y131.075 E12.93422
G1 X120.613 Y131.17 E12.96637
G1 X120.004 Y131.2 E12.98665
G1 X99.99 Y131.2 E13.65232
G1 X99.369 Y131.169 E13.673
G1 X98.405 Y131.072 E13.70522
G1 X97.71 Y130.962 E13.72862
G1 X97.228 Y130.836 E13.74519
G1 X96.291 Y130.552 E13.77776
G1 X95.63 Y130.31 E13.80117
G1 X95.167 Y130.087 E13.81826
G1 X94.306 Y129.627 E13.85073
G1 X93.7 Y129.257 E13.87435
G1 X93.28 Y128.942 E13.89181
G1 X92.535 Y128.331 E13.92386
G1 X92.068 Y127.906 E13.94486
G1 X91.65 Y127.443 E13.9656
G1 X91.049 Y126.707 E13.99721
G1 X90.68 Y126.207 E14.01788
G1 X90.367 Y125.682 E14.03821
G1 X89.901 Y124.807 E14.07118
G1 X89.606 Y124.168 E14.09459
G1 X89.437 Y123.684 E14.11164
G1 X89.164 Y122.779 E14.14308
G1 X89.049 Y122.34 E14.15817
G1 X88.925 Y121.574 E14.18398
G1 X88.83 Y120.61 E14.2162
G1 X88.8 Y120.002 E14.23645
G1 X88.8 Y99.996 E14.90185
G1 X88.83 Y99.387 E14.92213
G1 X88.925 Y98.425 E14.95428
G1 X89.054 Y97.638 E14.98081
G1 X89.171 Y97.2 E14.99588
G1 X89.458 Y96.261 E15.02854
G1 X89.701 Y95.6 E15.05197
G1 X89.926 Y95.138 E15.06906
G1 X90.379 Y94.295 E15.10089
G1 X90.693 Y93.773 E15.12115
G1 X91.057 Y93.281 E15.1415
G1 X91.561 Y92.666 E15.16795
G0 F1080 X91.667 Y92.537
G0 X92.093 Y92.069
G0 F6000 X92.376 Y92.352
G1 F1200 X92.808 Y91.961 E15.18733
G1 X93.545 Y91.359 E15.21898
G1 X94.015 Y91.013 E15.23839
G1 X94.506 Y90.72 E15.25741
G1 X95.381 Y90.254 E15.29038
G1 X95.999 Y89.97 E15.313
G1 X96.432 Y89.82 E15.32824
G1 X97.337 Y89.547 E15.35968
G1 X97.749 Y89.439 E15.37385
G1 X98.464 Y89.323 E15.39794
G1 X99.426 Y89.228 E15.43009
G1 X99.996 Y89.2 E15.44908
G1 X120.004 Y89.2 E16.11454
G1 X120.574 Y89.228 E16.13353
G1 X121.536 Y89.323 E16.16568
G1 X122.273 Y89.444 E16.19052
G1 X122.661 Y89.547 E16.20387
G1 X123.577 Y89.823 E16.23569
G1 X124.217 Y90.057 E16.25835
G1 X124.637 Y90.26 E16.27387
G1 X125.498 Y90.72 E16.30634
G1 X126 Y91.022 E16.32582
G1 X126.457 Y91.36 E16.34473
G1 X127.201 Y91.969 E16.37671
G1 X127.643 Y92.371 E16.39658
G1 X128.03 Y92.798 E16.41575
G1 X128.64 Y93.543 E16.44777
G1 X128.942 Y93.947 E16.46455
G1 X129.279 Y94.5 E16.48609
G1 X129.74 Y95.363 E16.51863
G1 X130.025 Y95.982 E16.54129
G1 X130.179 Y96.428 E16.55699
G1 X130.46 Y97.364 E16.58949
G1 X130.617 Y98.027 E16.61215
G1 X130.677 Y98.462 E16.62676
G1 X130.772 Y99.424 E16.65891
G1 X130.8 Y99.994 E16.67789
G1 X130.8 Y120.01 E17.34363
G1 X130.772 Y120.584 E17.36274
G1 X130.677 Y121.54 E17.39469
G1 X130.556 Y122.273 E17.4194
G1 X130.453 Y122.661 E17.43275
G1 X130.177 Y123.577 E17.46457
G1 X129.943 Y124.217 E17.48724
G1 X129.74 Y124.637 E17.50275
G1 X129.28 Y125.498 E17.53522
G1 X128.978 Y126 E17.55471
G1 X128.64 Y126.457 E17.57361
G1 X128.031 Y127.201 E17.60559
G1 X127.629 Y127.643 E17.62546
G1 X127.202 Y128.03 E17.64463
G1 X126.457 Y128.64 E17.67665
G1 X126.053 Y128.942 E17.69343
G1 X125.5 Y129.279 E17.71497
G1 X124.637 Y129.74 E17.74751
G1 X124.018 Y130.025 E17.77018
G1 X123.577 Y130.177 E17.78569
G1 X122.661 Y130.453 E17.81751
G1 X122.251 Y130.561 E17.83161
G1 X121.536 Y130.677 E17.85571
G1 X120.574 Y130.772 E17.88786
G1 X120.004 Y130.8 E17.90684
G1 X99.99 Y130.8 E18.57251
G1 X99.409 Y130.771 E18.59185
G1 X98.445 Y130.674 E18.62408
G1 X97.773 Y130.566 E18.64672
G1 X97.344 Y130.454 E18.66146
G1 X96.407 Y130.17 E18.69403
G1 X95.768 Y129.934 E18.71668
G1 X95.356 Y129.735 E18.7319
G1 X94.495 Y129.275 E18.76437
G1 X93.926 Y128.927 E18.78655
G1 X93.534 Y128.633 E18.80285
G1 X92.789 Y128.022 E18.8349
G1 X92.351 Y127.623 E18.8546
G1 X91.96 Y127.19 E18.87401
G1 X91.359 Y126.454 E18.90561
G1 X91.013 Y125.985 E18.925
G1 X90.72 Y125.494 E18.94402
G1 X90.254 Y124.619 E18.97699
G1 X89.97 Y124.001 E18.99961
G1 X89.82 Y123.568 E19.01485
G1 X89.547 Y122.663 E19.04629
G1 X89.439 Y122.251 E19.06046
G1 X89.323 Y121.535 E19.08458
G1 X89.228 Y120.571 E19.1168
G1 X89.2 Y120.002 E19.13575
G1 X89.2 Y99.996 E19.80115
G1 X89.228 Y99.426 E19.82013
G1 X89.323 Y98.464 E19.85228
G1 X89.444 Y97.727 E19.87712
G1 X89.553 Y97.317 E19.89123
G1 X89.84 Y96.378 E19.92389
G1 X90.077 Y95.739 E19.94656
G1 X90.278 Y95.328 E19.96178
G1 X90.731 Y94.485 E19.99361
G1 X91.026 Y93.995 E20.01263
G1 X91.367 Y93.535 E20.03167
G1 X91.846 Y92.951 E20.0568
G0 F1080 X91.977 Y92.791
G0 X92.376 Y92.352
G0 F6000 X92.659 Y92.635
G1 F1200 X93.061 Y92.271 E20.07483
G1 X93.798 Y91.669 E20.10648
G1 X94.237 Y91.346 E20.12461
G1 X94.694 Y91.073 E20.14232
G1 X95.569 Y90.607 E20.17529
G1 X96.166 Y90.334 E20.19712
G1 X96.547 Y90.203 E20.21052
G1 X97.452 Y89.93 E20.24196
G1 X97.837 Y89.829 E20.2552
G1 X98.503 Y89.721 E20.27764
G1 X99.465 Y89.626 E20.3098
G1 X99.996 Y89.6 E20.32748
G1 X120.004 Y89.6 E20.99295
G1 X120.535 Y89.626 E21.01063
G1 X121.497 Y89.721 E21.04278
G1 X122.185 Y89.834 E21.06597
G1 X122.546 Y89.93 E21.07839
G1 X123.462 Y90.206 E21.11021
G1 X124.078 Y90.433 E21.13205
G1 X124.449 Y90.613 E21.14576
G1 X125.31 Y91.073 E21.17823
G1 X125.778 Y91.355 E21.1964
G1 X126.203 Y91.669 E21.21398
G1 X126.947 Y92.278 E21.24596
G1 X127.36 Y92.654 E21.26453
G1 X127.72 Y93.051 E21.28236
G1 X128.33 Y93.796 E21.31438
G1 X128.613 Y94.174 E21.33009
G1 X128.926 Y94.689 E21.35013
G1 X129.387 Y95.552 E21.38268
G1 X129.661 Y96.149 E21.40452
G1 X129.796 Y96.543 E21.41838
G1 X130.077 Y97.479 E21.45088
G1 X130.227 Y98.119 E21.47274
G1 X130.279 Y98.501 E21.48557
G1 X130.374 Y99.463 E21.51772
G1 X130.4 Y99.994 E21.5354
G1 X130.4 Y120.01 E22.20114
G1 X130.374 Y120.544 E22.21892
G1 X130.279 Y121.5 E22.25087
G1 X130.166 Y122.185 E22.27396
G1 X130.07 Y122.546 E22.28639
G1 X129.794 Y123.462 E22.31821
G1 X129.567 Y124.078 E22.34004
G1 X129.387 Y124.449 E22.35376
G1 X128.927 Y125.31 E22.38622
G1 X128.645 Y125.778 E22.4044
G1 X128.331 Y126.203 E22.42197
G1 X127.722 Y126.947 E22.45395
G1 X127.346 Y127.36 E22.47253
G1 X126.949 Y127.72 E22.49035
G1 X126.204 Y128.33 E22.52238
G1 X125.826 Y128.613 E22.53808
G1 X125.311 Y128.926 E22.55813
G1 X124.448 Y129.387 E22.59067
G1 X123.851 Y129.661 E22.61252
G1 X123.462 Y129.794 E22.62619
G1 X122.546 Y130.07 E22.65801
G1 X122.163 Y130.171 E22.67118
G1 X121.497 Y130.279 E22.69362
G1 X120.535 Y130.374 E22.72578
G1 X120.004 Y130.4 E22.74346
G1 X99.99 Y130.4 E23.40913
G1 X99.449 Y130.373 E23.42714
G1 X98.485 Y130.276 E23.45937
G1 X97.837 Y130.17 E23.48121
G1 X97.46 Y130.071 E23.49417
G1 X96.523 Y129.787 E23.52674
G1 X95.907 Y129.558 E23.54859
G1 X95.544 Y129.382 E23.56201
G1 X94.683 Y128.922 E23.59448
G1 X94.153 Y128.598 E23.61514
G1 X93.788 Y128.323 E23.63034
G1 X93.043 Y127.712 E23.66239
G1 X92.634 Y127.34 E23.68078
G1 X92.269 Y126.937 E23.69886
G1 X91.668 Y126.201 E23.73046
G1 X91.346 Y125.763 E23.74854
G1 X91.073 Y125.306 E23.76625
G1 X90.607 Y124.431 E23.79922
G1 X90.334 Y123.834 E23.82106
G1 X90.203 Y123.453 E23.83446
G1 X89.93 Y122.548 E23.8659
G1 X89.829 Y122.163 E23.87914
G1 X89.721 Y121.496 E23.90161
G1 X89.626 Y120.532 E23.93383
G1 X89.6 Y120.002 E23.95148
G1 X89.6 Y99.996 E24.61688
G1 X89.626 Y99.465 E24.63456
G1 X89.721 Y98.503 E24.66671
G1 X89.834 Y97.815 E24.6899
G1 X89.936 Y97.434 E24.70302
G1 X90.223 Y96.495 E24.73568
G1 X90.453 Y95.879 E24.75755
G1 X90.63 Y95.517 E24.77095
G1 X91.083 Y94.674 E24.80278
G1 X91.359 Y94.217 E24.82054
G1 X91.676 Y93.788 E24.83828
G1 X92.13 Y93.235 E24.86208
G0 F1080 X92.286 Y93.044
G0 X92.659 Y92.635
G0 F6000 X92.941 Y92.917
G1 F1200 X93.314 Y92.581 E24.87877
G1 X94.051 Y91.979 E24.91042
G1 X94.458 Y91.679 E24.92724
G1 X94.882 Y91.426 E24.94366
G1 X95.757 Y90.96 E24.97664
G1 X96.332 Y90.699 E24.99764
G1 X96.663 Y90.586 E25.00927
G1 X97.568 Y90.313 E25.04071
