;FLAVOR:Marlin
;TIME:16406
;Filament used: 12.9659m
;Layer height: 0.2
;MINX:65.349
;MINY:68.899
;MINZ:0.2
;MAXX:151.101
;MAXY:151.101
;MAXZ:39
;Generated with Cura_SteamEngine 4.8.0
M140 S60
M105
M190 S60
M104 S205
M105
M109 S205
M82 ;absolute extrusion mode
M201 X500.00 Y500.00 Z100.00 E5000.00 ;Setup machine max acceleration
M203 X500.00 Y500.00 Z10.00 E50.00 ;Setup machine max feedrate
M204 P500.00 R1000.00 T500.00 ;Setup Print/Retract/Travel acceleration
M205 X8.00 Y8.00 Z0.40 E5.00 ;Setup Jerk
M220 S100 ;Reset Feedrate
M221 S100 ;Reset Flowrate

G28 ;Home
G29

G92 E0 ;Reset Extruder
G1 Z2.0 F3000 ;Move Z Axis up
G1 X10.1 Y20 Z0.28 F5000.0 ;Move to start position
G1 X10.1 Y200.0 Z0.28 F1500.0 E15 ;Draw the first line
G1 X10.4 Y200.0 Z0.28 F5000.0 ;Move to side a little
G1 X10.4 Y20 Z0.28 F1500.0 E30 ;Draw the second line
G92 E0 ;Reset Extruder
G1 Z2.0 F3000 ;Move Z Axis up
G92 E0
G92 E0
G1 F2700 E-5
;LAYER_COUNT:195
;LAYER:0
M107
G0 F6000 X70.949 Y71.066 Z0.2
;TYPE:SKIRT
G1 F2700 E0
G1 F1200 X71.066 Y70.949 E0.0055
G1 X71.623 Y70.449 E0.0304
G1 X72.229 Y70.012 E0.05525
G1 X72.879 Y69.641 E0.08014
G1 X73.565 Y69.342 E0.10503
G1 X74.279 Y69.118 E0.12992
G1 X75.012 Y68.971 E0.15478
G1 X76.016 Y68.899 E0.18826
G1 X143.984 Y68.899 E2.44889
G1 X144.731 Y68.939 E2.47377
G1 X145.469 Y69.058 E2.49863
G1 X146.191 Y69.256 E2.52353
G1 X146.887 Y69.529 E2.5484
G1 X147.55 Y69.876 E2.57329
G1 X148.173 Y70.291 E2.59819
G1 X148.934 Y70.949 E2.63165
G1 X149.051 Y71.066 E2.63715
G1 X149.551 Y71.623 E2.66204
G1 X149.988 Y72.229 E2.68689
G1 X150.359 Y72.879 E2.71179
G1 X150.658 Y73.565 E2.73668
G1 X150.882 Y74.279 E2.76157
G1 X151.029 Y75.012 E2.78643
G1 X151.101 Y76.016 E2.81991
G1 X151.101 Y143.984 E5.08053
G1 X151.061 Y144.731 E5.10542
G1 X150.942 Y145.469 E5.13028
G1 X150.744 Y146.191 E5.15518
G1 X150.471 Y146.887 E5.18004
G1 X150.124 Y147.55 E5.20493
G1 X149.709 Y148.173 E5.22983
G1 X149.051 Y148.934 E5.26329
G1 X148.934 Y149.051 E5.2688
G1 X148.377 Y149.551 E5.29369
G1 X147.771 Y149.988 E5.31854
G1 X147.121 Y150.359 E5.34343
G1 X146.435 Y150.658 E5.36832
G1 X145.721 Y150.882 E5.39321
G1 X144.988 Y151.029 E5.41808
G1 X143.984 Y151.101 E5.45156
G1 X76.016 Y151.101 E7.71218
G1 X75.269 Y151.061 E7.73706
G1 X74.531 Y150.942 E7.76192
G1 X73.809 Y150.744 E7.78682
G1 X73.113 Y150.471 E7.81169
G1 X72.45 Y150.124 E7.83658
G1 X71.827 Y149.709 E7.86148
G1 X71.066 Y149.051 E7.89494
G1 X70.949 Y148.934 E7.90044
G1 X70.449 Y148.377 E7.92534
G1 X70.012 Y147.771 E7.95019
G1 X69.641 Y147.121 E7.97508
G1 X69.342 Y146.435 E7.99997
G1 X69.118 Y145.721 E8.02486
G1 X68.971 Y144.988 E8.04972
G1 X68.899 Y143.984 E8.0832
G1 X68.899 Y104.235 E9.40526
G1 X68.783 Y104.174 E9.40962
G1 X68.16 Y103.759 E9.43451
G1 X67.586 Y103.28 E9.45938
G1 X67.065 Y102.743 E9.48427
G1 X66.606 Y102.153 E9.50913
G1 X66.211 Y101.517 E9.53403
G1 X65.887 Y100.843 E9.5589
G1 X65.637 Y100.138 E9.58378
G1 X65.463 Y99.41 E9.60868
G1 X65.368 Y98.668 E9.63356
G1 X65.349 Y98.151 E9.65076
G1 X65.349 Y93.849 E9.79385
G1 X65.389 Y93.102 E9.81873
G1 X65.508 Y92.364 E9.84359
G1 X65.706 Y91.642 E9.86849
G1 X65.979 Y90.946 E9.89336
G1 X66.326 Y90.283 E9.91825
G1 X66.741 Y89.66 E9.94315
G1 X67.22 Y89.086 E9.96801
G1 X67.757 Y88.565 E9.9929
G1 X68.347 Y88.106 E10.01776
G1 X68.899 Y87.763 E10.03938
G1 X68.899 Y76.016 E10.43008
G1 X68.939 Y75.269 E10.45496
G1 X69.058 Y74.531 E10.47983
G1 X69.256 Y73.809 E10.50473
G1 X69.529 Y73.113 E10.52959
G1 X69.876 Y72.45 E10.55448
G1 X70.291 Y71.827 E10.57938
G1 X70.426 Y71.671 E10.58624
G0 F1080 X70.949 Y71.066
G0 F6000 X71.232 Y71.349
G1 F1200 X71.349 Y71.232 E10.59174
G1 X71.89 Y70.748 E10.61589
G1 X72.481 Y70.325 E10.64006
G1 X73.115 Y69.971 E10.66421
G1 X73.784 Y69.688 E10.68837
G1 X74.48 Y69.48 E10.71253
G1 X75.195 Y69.35 E10.7367
G1 X76.016 Y69.299 E10.76406
G1 X143.984 Y69.299 E13.02469
G1 X144.709 Y69.339 E13.04884
G1 X145.426 Y69.458 E13.07301
G1 X146.125 Y69.656 E13.09718
G1 X146.798 Y69.929 E13.12133
G1 X147.437 Y70.274 E13.14548
G1 X148.034 Y70.688 E13.16965
G1 X148.651 Y71.232 E13.19701
G1 X148.768 Y71.349 E13.20251
G1 X149.252 Y71.89 E13.22665
G1 X149.675 Y72.481 E13.25083
G1 X150.029 Y73.115 E13.27498
G1 X150.312 Y73.784 E13.29914
G1 X150.52 Y74.48 E13.3233
G1 X150.65 Y75.195 E13.34747
G1 X150.701 Y76.016 E13.37483
G1 X150.701 Y143.984 E15.63545
G1 X150.661 Y144.709 E15.6596
G1 X150.542 Y145.426 E15.68378
G1 X150.344 Y146.125 E15.70794
G1 X150.071 Y146.798 E15.7321
G1 X149.726 Y147.437 E15.75625
G1 X149.312 Y148.034 E15.78041
G1 X148.768 Y148.651 E15.80777
G1 X148.651 Y148.768 E15.81328
G1 X148.11 Y149.252 E15.83742
G1 X147.519 Y149.675 E15.86159
G1 X146.885 Y150.029 E15.88574
G1 X146.216 Y150.312 E15.9099
G1 X145.52 Y150.52 E15.93406
G1 X144.805 Y150.65 E15.95823
G1 X143.984 Y150.701 E15.98559
G1 X76.016 Y150.701 E18.24622
G1 X75.291 Y150.661 E18.27037
G1 X74.574 Y150.542 E18.29454
G1 X73.875 Y150.344 E18.31871
G1 X73.202 Y150.071 E18.34286
G1 X72.563 Y149.726 E18.36701
G1 X71.966 Y149.312 E18.39118
G1 X71.349 Y148.768 E18.41854
G1 X71.232 Y148.651 E18.42404
G1 X70.748 Y148.11 E18.44818
G1 X70.325 Y147.519 E18.47236
G1 X69.971 Y146.885 E18.49651
G1 X69.688 Y146.216 E18.52067
G1 X69.48 Y145.52 E18.54483
G1 X69.35 Y144.805 E18.569
G1 X69.299 Y143.984 E18.59636
G1 X69.299 Y103.994 E19.92643
G1 X68.896 Y103.776 E19.94167
G1 X68.299 Y103.362 E19.96583
G1 X67.751 Y102.886 E19.98998
G1 X67.258 Y102.352 E20.01415
G1 X66.828 Y101.767 E20.0383
G1 X66.464 Y101.138 E20.06247
G1 X66.171 Y100.473 E20.08664
G1 X65.953 Y99.78 E20.1108
G1 X65.813 Y99.068 E20.13494
G1 X65.749 Y98.151 E20.16551
G1 X65.749 Y93.849 E20.3086
G1 X65.789 Y93.124 E20.33275
G1 X65.908 Y92.407 E20.35692
G1 X66.106 Y91.708 E20.38108
G1 X66.379 Y91.035 E20.40524
G1 X66.724 Y90.396 E20.42939
G1 X67.138 Y89.799 E20.45355
G1 X67.614 Y89.251 E20.4777
G1 X68.148 Y88.758 E20.50187
G1 X68.733 Y88.328 E20.52602
G1 X69.299 Y88 E20.54778
G1 X69.299 Y76.016 E20.94637
G1 X69.339 Y75.291 E20.97052
G1 X69.458 Y74.574 E20.99469
G1 X69.656 Y73.875 E21.01885
G1 X69.929 Y73.202 E21.04301
G1 X70.274 Y72.563 E21.06716
G1 X70.688 Y71.966 E21.09133
G1 X70.703 Y71.949 E21.09208
G0 F1080 X71.232 Y71.349
G0 F6000 X71.515 Y71.632
G1 F1200 X71.632 Y71.515 E21.09758
G1 X72.157 Y71.046 E21.121
G1 X72.732 Y70.64 E21.14441
G1 X73.35 Y70.302 E21.16784
G1 X74.001 Y70.035 E21.19124
G1 X74.679 Y69.845 E21.21466
G1 X75.374 Y69.732 E21.23808
G1 X76.016 Y69.699 E21.25946
G1 X143.984 Y69.699 E23.52008
G1 X144.687 Y69.739 E23.5435
G1 X145.381 Y69.858 E23.56692
G1 X146.056 Y70.056 E23.59032
G1 X146.705 Y70.328 E23.61372
G1 X147.319 Y70.673 E23.63715
G1 X147.89 Y71.084 E23.66055
G1 X148.368 Y71.515 E23.68196
G1 X148.485 Y71.632 E23.68746
G1 X148.954 Y72.157 E23.71087
G1 X149.36 Y72.732 E23.73428
G1 X149.698 Y73.35 E23.75771
G1 X149.965 Y74.001 E23.78112
G1 X150.155 Y74.679 E23.80453
G1 X150.268 Y75.374 E23.82795
G1 X150.301 Y76.016 E23.84934
G1 X150.301 Y143.984 E26.10996
G1 X150.261 Y144.687 E26.13338
G1 X150.142 Y145.381 E26.1568
G1 X149.944 Y146.056 E26.1802
G1 X149.672 Y146.705 E26.2036
G1 X149.327 Y147.319 E26.22703
G1 X148.916 Y147.89 E26.25043
G1 X148.485 Y148.368 E26.27183
G1 X148.368 Y148.485 E26.27734
G1 X147.843 Y148.954 E26.30075
G1 X147.268 Y149.36 E26.32416
G1 X146.65 Y149.698 E26.34759
G1 X145.999 Y149.965 E26.37099
G1 X145.321 Y150.155 E26.39441
G1 X144.626 Y150.268 E26.41783
G1 X143.984 Y150.301 E26.43921
G1 X76.016 Y150.301 E28.69984
G1 X75.313 Y150.261 E28.72326
G1 X74.619 Y150.142 E28.74668
G1 X73.944 Y149.944 E28.77007
G1 X73.295 Y149.672 E28.79348
G1 X72.681 Y149.327 E28.8169
G1 X72.11 Y148.916 E28.8403
G1 X71.632 Y148.485 E28.86171
G1 X71.515 Y148.368 E28.86721
G1 X71.046 Y147.843 E28.89063
G1 X70.64 Y147.268 E28.91404
G1 X70.302 Y146.65 E28.93747
G1 X70.035 Y145.999 E28.96087
G1 X69.845 Y145.321 E28.98429
G1 X69.732 Y144.626 E29.00771
G1 X69.699 Y143.984 E29.02909
G1 X69.699 Y103.752 E30.36721
G1 X69.628 Y103.722 E30.36977
G1 X69.014 Y103.377 E30.3932
G1 X68.443 Y102.966 E30.4166
G1 X67.922 Y102.492 E30.44002
G1 X67.458 Y101.962 E30.46345
G1 X67.058 Y101.383 E30.48686
G1 X66.726 Y100.762 E30.51028
G1 X66.466 Y100.108 E30.53369
G1 X66.282 Y99.428 E30.55712
G1 X66.176 Y98.732 E30.58054
G1 X66.149 Y98.151 E30.59988
G1 X66.149 Y93.849 E30.74297
G1 X66.189 Y93.146 E30.76638
G1 X66.308 Y92.452 E30.7898
G1 X66.506 Y91.777 E30.8132
G1 X66.778 Y91.128 E30.83661
G1 X67.123 Y90.514 E30.86003
G1 X67.534 Y89.943 E30.88343
G1 X68.008 Y89.422 E30.90686
G1 X68.538 Y88.958 E30.93029
G1 X69.117 Y88.558 E30.95369
G1 X69.699 Y88.247 E30.97564
G1 X69.699 Y76.016 E31.38244
G1 X69.739 Y75.313 E31.40586
G1 X69.858 Y74.619 E31.42928
G1 X70.056 Y73.944 E31.45268
G1 X70.328 Y73.295 E31.47609
G1 X70.673 Y72.681 E31.49951
G1 X70.993 Y72.237 E31.51771
G0 F1080 X71.084 Y72.11
G0 X71.515 Y71.632
G0 F6000 X71.798 Y71.915
G1 F1200 X71.915 Y71.798 E31.52322
G1 X72.424 Y71.345 E31.54588
G1 X72.982 Y70.956 E31.5685
G1 X73.582 Y70.634 E31.59115
G1 X74.216 Y70.385 E31.61381
G1 X74.875 Y70.212 E31.63647
G1 X75.549 Y70.118 E31.6591
G1 X76.016 Y70.099 E31.67465
G1 X143.984 Y70.099 E33.93527
G1 X144.664 Y70.139 E33.95793
G1 X145.334 Y70.258 E33.98056
G1 X145.986 Y70.455 E34.00322
G1 X146.61 Y70.727 E34.02586
G1 X147.198 Y71.071 E34.04851
G1 X147.742 Y71.481 E34.07117
G1 X148.085 Y71.798 E34.0867
G1 X148.202 Y71.915 E34.09221
G1 X148.655 Y72.424 E34.11487
G1 X149.044 Y72.982 E34.13749
G1 X149.366 Y73.582 E34.16014
G1 X149.615 Y74.216 E34.1828
G1 X149.788 Y74.875 E34.20546
G1 X149.882 Y75.549 E34.22809
G1 X149.901 Y76.016 E34.24364
G1 X149.901 Y143.984 E36.50426
G1 X149.861 Y144.664 E36.52692
G1 X149.742 Y145.334 E36.54955
G1 X149.545 Y145.986 E36.57221
G1 X149.273 Y146.61 E36.59485
G1 X148.929 Y147.198 E36.6175
G1 X148.519 Y147.742 E36.64016
G1 X148.202 Y148.085 E36.6557
G1 X148.085 Y148.202 E36.6612
G1 X147.576 Y148.655 E36.68386
G1 X147.018 Y149.044 E36.70649
G1 X146.418 Y149.366 E36.72913
G1 X145.784 Y149.615 E36.75179
G1 X145.125 Y149.788 E36.77445
G1 X144.451 Y149.882 E36.79708
G1 X143.984 Y149.901 E36.81263
G1 X76.016 Y149.901 E39.07326
G1 X75.336 Y149.861 E39.09591
G1 X74.666 Y149.742 E39.11854
G1 X74.014 Y149.545 E39.1412
G1 X73.39 Y149.273 E39.16384
G1 X72.802 Y148.929 E39.1865
G1 X72.258 Y148.519 E39.20915
G1 X71.915 Y148.202 E39.22469
G1 X71.798 Y148.085 E39.23019
G1 X71.345 Y147.576 E39.25285
G1 X70.956 Y147.018 E39.27548
G1 X70.634 Y146.418 E39.29813
G1 X70.385 Y145.784 E39.32078
G1 X70.212 Y145.125 E39.34344
G1 X70.118 Y144.451 E39.36608
G1 X70.099 Y143.984 E39.38162
G1 X70.099 Y103.487 E40.72856
G1 X69.723 Y103.323 E40.7422
G1 X69.135 Y102.979 E40.76486
G1 X68.591 Y102.569 E40.78752
G1 X68.1 Y102.098 E40.81015
G1 X67.666 Y101.573 E40.8328
G1 X67.297 Y101.001 E40.85544
G1 X66.998 Y100.389 E40.8781
G1 X66.773 Y99.747 E40.90072
G1 X66.624 Y99.082 E40.92339
G1 X66.549 Y98.151 E40.95445
G1 X66.549 Y93.849 E41.09754
G1 X66.589 Y93.169 E41.12019
G1 X66.708 Y92.499 E41.14283
G1 X66.905 Y91.847 E41.16548
G1 X67.177 Y91.223 E41.18812
G1 X67.521 Y90.635 E41.21078
G1 X67.931 Y90.091 E41.23344
G1 X68.402 Y89.6 E41.25607
G1 X68.927 Y89.166 E41.27872
G1 X69.499 Y88.797 E41.30136
G1 X70.099 Y88.504 E41.32357
G1 X70.099 Y76.016 E41.73892
G1 X70.139 Y75.336 E41.76158
G1 X70.258 Y74.666 E41.78421
G1 X70.455 Y74.014 E41.80687
G1 X70.727 Y73.39 E41.82951
G1 X71.071 Y72.802 E41.85216
G1 X71.281 Y72.524 E41.86375
G0 F1080 X71.481 Y72.258
G0 X71.798 Y71.915
G0 F6000 X72.081 Y72.198
G1 F1200 X72.198 Y72.081 E41.86926
G1 X72.69 Y71.645 E41.89112
G1 X73.231 Y71.273 E41.91296
G1 X73.813 Y70.969 E41.9348
G1 X74.428 Y70.738 E41.95665
G1 X75.067 Y70.583 E41.97852
G1 X76.016 Y70.499 E42.0102
G1 X143.984 Y70.499 E44.27083
G1 X144.64 Y70.539 E44.29269
G1 X145.286 Y70.658 E44.31454
G1 X145.913 Y70.855 E44.33639
G1 X146.511 Y71.127 E44.35824
G1 X147.072 Y71.469 E44.3801
G1 X147.802 Y72.081 E44.41178
G1 X147.919 Y72.198 E44.41728
G1 X148.355 Y72.69 E44.43915
G1 X148.727 Y73.231 E44.46099
G1 X149.031 Y73.813 E44.48283
G1 X149.262 Y74.428 E44.50468
G1 X149.417 Y75.067 E44.52655
G1 X149.501 Y76.016 E44.55823
G1 X149.501 Y143.984 E46.81886
G1 X149.461 Y144.64 E46.84072
G1 X149.342 Y145.286 E46.86256
G1 X149.145 Y145.913 E46.88442
G1 X148.873 Y146.511 E46.90627
G1 X148.531 Y147.072 E46.92813
G1 X147.919 Y147.802 E46.95981
G1 X147.802 Y147.919 E46.96531
G1 X147.31 Y148.355 E46.98718
G1 X146.769 Y148.727 E47.00902
G1 X146.187 Y149.031 E47.03085
G1 X145.572 Y149.262 E47.0527
G1 X144.933 Y149.417 E47.07457
G1 X143.984 Y149.501 E47.10626
G1 X76.016 Y149.501 E49.36689
G1 X75.36 Y149.461 E49.38875
G1 X74.714 Y149.342 E49.41059
G1 X74.087 Y149.145 E49.43245
G1 X73.489 Y148.873 E49.4543
G1 X72.928 Y148.531 E49.47616
G1 X72.198 Y147.919 E49.50784
G1 X72.081 Y147.802 E49.51334
G1 X71.645 Y147.31 E49.53521
G1 X71.273 Y146.769 E49.55704
G1 X70.969 Y146.187 E49.57888
G1 X70.738 Y145.572 E49.60073
G1 X70.583 Y144.933 E49.6226
G1 X70.499 Y143.984 E49.65429
G1 X70.499 Y103.22 E51.01011
G1 X70.42 Y103.195 E51.01286
G1 X69.822 Y102.923 E51.03471
G1 X69.261 Y102.581 E51.05657
G1 X68.746 Y102.173 E51.07842
G1 X68.284 Y101.706 E51.10027
G1 X67.883 Y101.186 E51.12211
G1 X67.547 Y100.622 E51.14394
G1 X67.283 Y100.02 E51.16581
G1 X67.093 Y99.391 E51.18766
G1 X66.982 Y98.744 E51.20949
G1 X66.949 Y98.151 E51.22925
G1 X66.949 Y93.849 E51.37233
G1 X66.989 Y93.193 E51.39419
G1 X67.108 Y92.547 E51.41604
G1 X67.305 Y91.92 E51.4379
G1 X67.577 Y91.322 E51.45975
G1 X67.919 Y90.761 E51.4816
G1 X68.327 Y90.246 E51.50346
G1 X68.794 Y89.784 E51.5253
G1 X69.314 Y89.383 E51.54715
G1 X69.878 Y89.047 E51.56898
G1 X70.48 Y88.783 E51.59084
G1 X70.499 Y88.777 E51.59151
G1 X70.499 Y76.016 E52.01594
G1 X70.539 Y75.36 E52.0378
G1 X70.658 Y74.714 E52.05965
G1 X70.855 Y74.087 E52.08151
G1 X71.127 Y73.489 E52.10336
G1 X71.469 Y72.928 E52.12521
G1 X71.567 Y72.811 E52.13028
G0 F1080 X72.081 Y72.198
G0 F6000 X72.363 Y72.48
G1 F1200 X72.48 Y72.363 E52.13579
G1 X72.955 Y71.946 E52.15681
G1 X73.478 Y71.591 E52.17783
G1 X74.042 Y71.305 E52.19887
G1 X74.637 Y71.093 E52.21988
G1 X75.255 Y70.957 E52.24092
G1 X76.016 Y70.899 E52.26631
G1 X143.984 Y70.899 E54.52693
G1 X144.615 Y70.939 E54.54796
G1 X145.236 Y71.058 E54.56899
G1 X145.836 Y71.255 E54.59
G1 X146.408 Y71.526 E54.61105
G1 X146.94 Y71.866 E54.63205
G1 X147.52 Y72.363 E54.65745
G1 X147.637 Y72.48 E54.66295
G1 X148.054 Y72.955 E54.68398
G1 X148.409 Y73.478 E54.705
G1 X148.695 Y74.042 E54.72603
G1 X148.907 Y74.637 E54.74704
G1 X149.043 Y75.255 E54.76809
G1 X149.101 Y76.016 E54.79347
G1 X149.101 Y143.984 E57.0541
G1 X149.061 Y144.615 E57.07513
G1 X148.942 Y145.236 E57.09616
G1 X148.745 Y145.836 E57.11716
G1 X148.474 Y146.408 E57.13821
G1 X148.134 Y146.94 E57.15921
G1 X147.637 Y147.52 E57.18462
G1 X147.52 Y147.637 E57.19012
G1 X147.045 Y148.054 E57.21114
G1 X146.522 Y148.409 E57.23217
G1 X145.958 Y148.695 E57.2532
G1 X145.363 Y148.907 E57.27421
G1 X144.745 Y149.043 E57.29526
G1 X143.984 Y149.101 E57.32064
G1 X76.016 Y149.101 E59.58126
G1 X75.385 Y149.061 E59.60229
G1 X74.764 Y148.942 E59.62332
G1 X74.164 Y148.745 E59.64433
G1 X73.592 Y148.474 E59.66538
G1 X73.06 Y148.134 E59.68638
G1 X72.48 Y147.637 E59.71178
G1 X72.363 Y147.52 E59.71729
G1 X71.946 Y147.045 E59.73831
G1 X71.591 Y146.522 E59.75933
G1 X71.305 Y145.958 E59.78037
G1 X71.093 Y145.363 E59.80138
G1 X70.957 Y144.745 E59.82242
G1 X70.899 Y143.984 E59.84781
G1 X70.899 Y102.927 E61.21337
G1 X70.497 Y102.795 E61.22744
G1 X69.925 Y102.524 E61.24849
G1 X69.393 Y102.184 E61.26949
G1 X68.908 Y101.778 E61.29053
G1 X68.478 Y101.315 E61.31155
G1 X68.109 Y100.801 E61.33259
G1 X67.809 Y100.245 E61.3536
G1 X67.581 Y99.656 E61.37461
G1 X67.429 Y99.042 E61.39565
G1 X67.349 Y98.151 E61.4254
G1 X67.349 Y93.849 E61.56849
G1 X67.389 Y93.218 E61.58952
G1 X67.508 Y92.597 E61.61055
G1 X67.705 Y91.997 E61.63155
G1 X67.976 Y91.425 E61.6526
G1 X68.316 Y90.893 E61.6736
G1 X68.722 Y90.408 E61.69464
G1 X69.185 Y89.978 E61.71566
G1 X69.699 Y89.609 E61.7367
G1 X70.255 Y89.309 E61.75771
G1 X70.844 Y89.081 E61.77872
G1 X70.899 Y89.067 E61.78061
G1 X70.899 Y76.016 E62.21469
G1 X70.939 Y75.385 E62.23572
