;FLAVOR:Marlin
;TIME:16758
;Filament used: 12.6381m
;Layer height: 0.2
;MINX:69.899
;MINY:69.899
;MINZ:0.2
;MAXX:150.101
;MAXY:150.101
;MAXZ:39
;Generated with Cura_SteamEngine 4.8.0
M140 S60
M105
M190 S60
M104 S205
M105
M109 S205
M82 ;absolute extrusion mode
M201 X500.00 Y500.00 Z100.00 E5000.00 ;Setup machine max acceleration
M203 X500.00 Y500.00 Z10.00 E50.00 ;Setup machine max feedrate
M204 P500.00 R1000.00 T500.00 ;Setup Print/Retract/Travel acceleration
M205 X8.00 Y8.00 Z0.40 E5.00 ;Setup Jerk
M220 S100 ;Reset Feedrate
M221 S100 ;Reset Flowrate

G28 ;Home
G29

G92 E0 ;Reset Extruder
G1 Z2.0 F3000 ;Move Z Axis up
G1 X10.1 Y20 Z0.28 F5000.0 ;Move to start position
G1 X10.1 Y200.0 Z0.28 F1500.0 E15 ;Draw the first line
G1 X10.4 Y200.0 Z0.28 F5000.0 ;Move to side a little
G1 X10.4 Y20 Z0.28 F1500.0 E30 ;Draw the second line
G92 E0 ;Reset Extruder
G1 Z2.0 F3000 ;Move Z Axis up
G92 E0
G92 E0
G1 F2700 E-5
;LAYER_COUNT:195
;LAYER:0
M107
G0 F6000 X71.823 Y71.513 Z0.2
;TYPE:SKIRT
G1 F2700 E0
G1 F1200 X72.357 Y71.072 E0.02303
G1 X72.938 Y70.695 E0.04607
G1 X73.558 Y70.387 E0.0691
G1 X74.21 Y70.153 E0.09214
G1 X74.884 Y69.996 E0.11515
G1 X75.74 Y69.91 E0.14377
G1 X76.061 Y69.901 E0.15445
G1 X76.229 Y69.899 E0.16004
G1 X143.394 Y69.899 E2.39395
G1 X144.178 Y69.91 E2.42003
G1 X144.869 Y69.959 E2.44307
G1 X145.549 Y70.089 E2.4661
G1 X146.21 Y70.295 E2.48913
G1 X146.843 Y70.577 E2.51217
G1 X147.439 Y70.929 E2.5352
G1 X147.99 Y71.348 E2.55822
G1 X148.49 Y71.828 E2.58127
G1 X148.931 Y72.362 E2.60431
G1 X149.308 Y72.943 E2.62734
G1 X149.615 Y73.564 E2.65038
G1 X149.848 Y74.216 E2.67341
G1 X150.005 Y74.89 E2.69643
G1 X150.09 Y75.74 E2.72484
G1 X150.099 Y76.06 E2.73549
G1 X150.101 Y76.229 E2.74111
G1 X150.101 Y143.439 E4.97653
G1 X150.092 Y144.166 E5.00071
G1 X150.043 Y144.857 E5.02375
G1 X149.915 Y145.538 E5.04679
G1 X149.71 Y146.199 E5.06981
G1 X149.43 Y146.832 E5.09283
G1 X149.078 Y147.429 E5.11588
G1 X148.661 Y147.982 E5.13892
G1 X148.182 Y148.482 E5.16195
G1 X147.649 Y148.924 E5.18498
G1 X147.068 Y149.302 E5.20803
G1 X146.448 Y149.61 E5.23106
G1 X145.797 Y149.845 E5.25408
G1 X145.122 Y150.003 E5.27714
G1 X144.26 Y150.09 E5.30595
G1 X143.939 Y150.099 E5.31663
G1 X143.771 Y150.101 E5.32222
G1 X76.529 Y150.101 E7.5587
G1 X75.831 Y150.092 E7.58192
G1 X75.14 Y150.043 E7.60496
G1 X74.459 Y149.914 E7.62801
G1 X73.798 Y149.709 E7.65103
G1 X73.165 Y149.428 E7.67406
G1 X72.568 Y149.077 E7.6971
G1 X72.016 Y148.659 E7.72013
G1 X71.516 Y148.18 E7.74316
G1 X71.074 Y147.646 E7.76621
G1 X70.697 Y147.066 E7.78922
G1 X70.389 Y146.445 E7.81228
G1 X70.154 Y145.794 E7.8353
G1 X69.997 Y145.119 E7.85835
G1 X69.91 Y144.254 E7.88726
G1 X69.901 Y143.921 E7.89834
G1 X69.899 Y143.759 E7.90373
G1 X69.9 Y76.492 E10.14104
G1 X69.909 Y75.827 E10.16316
G1 X69.958 Y75.136 E10.1862
G1 X70.086 Y74.456 E10.20921
G1 X70.293 Y73.794 E10.23228
G1 X70.574 Y73.161 E10.25532
G1 X70.926 Y72.565 E10.27834
G1 X71.279 Y72.099 E10.29778
G0 F1080 X71.344 Y72.013
G0 X71.823 Y71.513
G0 F6000 X72.213 Y71.7
G1 F1200 X72.742 Y71.289 E10.32007
G1 X73.315 Y70.944 E10.34231
G1 X73.926 Y70.671 E10.36457
G1 X74.564 Y70.472 E10.3868
G1 X75.222 Y70.35 E10.40906
G1 X75.751 Y70.31 E10.4267
G1 X76.072 Y70.301 E10.43738
G1 X76.229 Y70.299 E10.4426
G1 X143.394 Y70.299 E12.67652
G1 X144.172 Y70.31 E12.7024
G1 X144.839 Y70.359 E12.72464
G1 X145.496 Y70.488 E12.74691
G1 X146.132 Y70.694 E12.76915
G1 X146.74 Y70.975 E12.79143
G1 X147.309 Y71.325 E12.81364
G1 X147.833 Y71.742 E12.83592
G1 X148.303 Y72.218 E12.85817
G1 X148.713 Y72.746 E12.8804
G1 X149.058 Y73.32 E12.90268
G1 X149.331 Y73.931 E12.92493
G1 X149.529 Y74.57 E12.94718
G1 X149.65 Y75.228 E12.96944
G1 X149.69 Y75.752 E12.98692
G1 X149.699 Y76.072 E12.99756
G1 X149.701 Y76.229 E13.00278
G1 X149.701 Y143.434 E15.23803
G1 X149.692 Y144.161 E15.26221
G1 X149.643 Y144.829 E15.28449
G1 X149.516 Y145.485 E15.30672
G1 X149.311 Y146.122 E15.32897
G1 X149.032 Y146.73 E15.35122
G1 X148.682 Y147.3 E15.37347
G1 X148.266 Y147.825 E15.39575
G1 X147.791 Y148.296 E15.418
G1 X147.264 Y148.707 E15.44022
G1 X146.691 Y149.053 E15.46249
G1 X146.081 Y149.327 E15.48473
G1 X145.442 Y149.527 E15.507
G1 X144.784 Y149.649 E15.52926
G1 X144.249 Y149.69 E15.5471
G1 X143.928 Y149.699 E15.55778
G1 X143.771 Y149.701 E15.56301
G1 X76.534 Y149.701 E17.79932
G1 X75.836 Y149.692 E17.82254
G1 X75.169 Y149.643 E17.84478
G1 X74.512 Y149.515 E17.86704
G1 X73.875 Y149.31 E17.8893
G1 X73.267 Y149.03 E17.91156
G1 X72.697 Y148.68 E17.93381
G1 X72.173 Y148.264 E17.95606
G1 X71.702 Y147.789 E17.97831
G1 X71.291 Y147.261 E18.00057
G1 X70.946 Y146.688 E18.02281
G1 X70.672 Y146.078 E18.04505
G1 X70.472 Y145.439 E18.06732
G1 X70.351 Y144.781 E18.08958
G1 X70.31 Y144.243 E18.10752
G1 X70.301 Y143.91 E18.1186
G1 X70.299 Y143.759 E18.12362
G1 X70.3 Y76.497 E20.36077
G1 X70.309 Y75.832 E20.38289
G1 X70.358 Y75.165 E20.40513
G1 X70.486 Y74.508 E20.42739
G1 X70.691 Y73.872 E20.44962
G1 X70.971 Y73.264 E20.47188
G1 X71.322 Y72.694 E20.49415
G1 X71.656 Y72.273 E20.51202
G0 F1080 X71.738 Y72.17
G0 X72.213 Y71.7
G0 F6000 X72.602 Y71.894
G1 F1200 X73.125 Y71.516 E20.53348
G1 X73.689 Y71.205 E20.55491
G1 X74.288 Y70.967 E20.57634
G1 X74.912 Y70.804 E20.59779
G1 X75.762 Y70.71 E20.62624
G1 X76.083 Y70.701 E20.63692
G1 X76.229 Y70.699 E20.64177
G1 X143.394 Y70.699 E22.87569
G1 X144.166 Y70.71 E22.90137
G1 X144.809 Y70.759 E22.92282
G1 X145.441 Y70.887 E22.94427
G1 X146.052 Y71.093 E22.96571
G1 X146.633 Y71.372 E22.98715
G1 X147.175 Y71.721 E23.00859
G1 X147.669 Y72.135 E23.03003
G1 X148.109 Y72.607 E23.05149
G1 X148.487 Y73.129 E23.07293
G1 X148.797 Y73.694 E23.09436
G1 X149.035 Y74.293 E23.1158
G1 X149.197 Y74.917 E23.13724
G1 X149.29 Y75.763 E23.16555
G1 X149.299 Y76.083 E23.1762
G1 X149.301 Y76.229 E23.18105
G1 X149.301 Y143.429 E25.41613
G1 X149.292 Y144.156 E25.44032
G1 X149.244 Y144.799 E25.46176
G1 X149.117 Y145.431 E25.4832
G1 X148.912 Y146.043 E25.50467
G1 X148.634 Y146.624 E25.52609
G1 X148.286 Y147.167 E25.54754
G1 X147.873 Y147.662 E25.56898
G1 X147.402 Y148.102 E25.59042
G1 X146.88 Y148.481 E25.61188
G1 X146.316 Y148.792 E25.6333
G1 X145.717 Y149.031 E25.65475
G1 X145.094 Y149.195 E25.67618
G1 X144.238 Y149.29 E25.70482
G1 X143.917 Y149.299 E25.7155
G1 X143.771 Y149.301 E25.72036
G1 X76.539 Y149.301 E27.9565
G1 X75.841 Y149.292 E27.97972
G1 X75.198 Y149.243 E28.00117
G1 X74.566 Y149.116 E28.02261
G1 X73.955 Y148.911 E28.04404
G1 X73.374 Y148.633 E28.06547
G1 X72.831 Y148.284 E28.08694
G1 X72.336 Y147.871 E28.10838
G1 X71.896 Y147.4 E28.12982
G1 X71.517 Y146.878 E28.15127
G1 X71.206 Y146.314 E28.17269
G1 X70.968 Y145.715 E28.19413
G1 X70.805 Y145.091 E28.21558
G1 X70.71 Y144.232 E28.24433
G1 X70.699 Y143.759 E28.26006
G1 X70.699 Y76.503 E30.49701
G1 X70.708 Y75.838 E30.51913
G1 X70.757 Y75.195 E30.54057
G1 X70.885 Y74.563 E30.56202
G1 X71.09 Y73.952 E30.58346
G1 X71.369 Y73.371 E30.60489
G1 X71.718 Y72.828 E30.62636
G1 X72.031 Y72.453 E30.64261
G0 F1080 X72.131 Y72.334
G0 X72.602 Y71.894
G1 F2700 E25.64261
;MESH:SailCamMK5_BasicCaseV2_Front.stl
G0 F6000 X99.165 Y100.273
G0 X97.73 Y100.273
G0 X97.9 Y102.2
;TYPE:WALL-INNER
G1 F2700 E30.64261
G1 F1200 X122.1 Y102.2 E31.4475
G1 X122.1 Y85.201 E32.01289
G1 X98.099 Y85.2 E32.81117
G1 X97.9 Y85.2 E32.81779
G1 X97.9 Y85.399 E32.82207
G1 X97.9 Y102.2 E33.38087
G0 F6000 X98.3 Y101.8
;TYPE:WALL-OUTER
G1 F1200 X121.7 Y101.8 E34.15916
G1 X121.7 Y85.601 E34.69794
G1 X98.3 Y85.6 E35.47623
G1 X98.3 Y101 E35.98843
G0 F1080 X98.3 Y101.8
G1 F2700 E30.98843
G0 F6000 X98 Y101.8
G0 X109.425 Y102.39
G0 X109.425 Y100.935
G0 X109.518 Y120.778
G0 X109.418 Y119.324
G0 X105.431 Y120.673
G0 X103.641 Y121.726
G0 X102.088 Y123.099
G0 X100.823 Y124.744
G0 X99.895 Y126.602
G0 X99.34 Y128.599
G0 X99.159 Y130.5
G0 X99.357 Y132.563
G0 X99.944 Y134.551
G0 X100.905 Y136.397
G0 X102.196 Y138.022
G0 X103.773 Y139.371
G0 X105.581 Y140.394
G0 X107.174 Y140.928
G0 X109.425 Y141.485
;TYPE:WALL-INNER
G1 F2700 E35.98843
G1 F1200 X109.608 Y141.486 E35.99452
G1 X111.531 Y141.393 E36.05856
G1 X111.71 Y141.356 E36.06463
G1 X113.581 Y140.902 E36.12867
G1 X113.748 Y140.83 E36.13472
G1 X115.501 Y140.028 E36.19884
G1 X117.214 Y138.808 E36.26878
G1 X118.545 Y137.413 E36.33291
G1 X118.667 Y137.276 E36.33901
G1 X119.706 Y135.658 E36.40297
G1 X119.799 Y135.5 E36.40907
G1 X120.515 Y133.71 E36.47319
G1 X120.572 Y133.536 E36.47928
G1 X120.935 Y131.647 E36.54326
G1 X120.955 Y131.465 E36.54935
G1 X120.954 Y129.539 E36.61341
G1 X120.936 Y129.358 E36.61946
G1 X120.572 Y127.47 E36.68341
G1 X120.519 Y127.295 E36.68949
G1 X119.8 Y125.504 E36.75368
G1 X119.709 Y125.345 E36.75977
G1 X118.668 Y123.726 E36.82379
G1 X118.546 Y123.59 E36.82987
G1 X117.218 Y122.199 E36.89383
G1 X117.073 Y122.089 E36.89988
G1 X115.5 Y120.972 E36.96405
G1 X113.588 Y120.098 E37.03397
G1 X111.715 Y119.645 E37.09807
G1 X111.535 Y119.606 E37.10419
G1 X109.614 Y119.515 E37.16816
G1 X109.43 Y119.514 E37.17428
G1 X107.525 Y119.789 E37.23829
G1 X107.346 Y119.825 E37.24437
G1 X105.526 Y120.457 E37.30845
G1 X105.359 Y120.529 E37.31449
G1 X103.691 Y121.492 E37.37855
G1 X103.541 Y121.6 E37.3847
G1 X102.089 Y122.86 E37.44864
G1 X101.965 Y122.994 E37.45472
G1 X100.776 Y124.509 E37.51877
G1 X100.682 Y124.666 E37.52486
G1 X99.799 Y126.382 E37.58904
G1 X99.742 Y126.554 E37.59507
G1 X99.2 Y128.402 E37.65912
G1 X99.18 Y128.583 E37.66518
G1 X98.998 Y130.5 E37.72923
G1 X99.198 Y132.594 E37.79919
G1 X99.794 Y134.612 E37.86918
G1 X100.68 Y136.328 E37.93341
G1 X100.771 Y136.487 E37.9395
G1 X101.962 Y138 E38.00355
G1 X102.083 Y138.136 E38.0096
G1 X103.539 Y139.396 E38.07364
G1 X103.685 Y139.505 E38.0797
G1 X105.354 Y140.467 E38.14378
G1 X105.521 Y140.543 E38.14988
G1 X107.341 Y141.173 E38.21394
G1 X107.52 Y141.212 E38.22003
G1 X108.633 Y141.372 E38.25743
G0 F1080 X109.425 Y141.485
G0 F6000 X109.455 Y141.085
;TYPE:WALL-OUTER
G1 F1200 X109.6 Y141.086 E38.26225
G1 X111.481 Y140.995 E38.32489
G1 X111.623 Y140.966 E38.32971
G1 X113.454 Y140.521 E38.39238
G1 X113.586 Y140.464 E38.39716
G1 X115.3 Y139.68 E38.45985
G1 X116.951 Y138.504 E38.52727
G1 X118.251 Y137.141 E38.58991
G1 X118.348 Y137.033 E38.59474
G1 X119.365 Y135.449 E38.65735
G1 X119.439 Y135.323 E38.66221
G1 X120.139 Y133.574 E38.72487
G1 X120.184 Y133.436 E38.7297
G1 X120.539 Y131.587 E38.79232
G1 X120.555 Y131.443 E38.79714
G1 X120.554 Y129.559 E38.8598
G1 X120.54 Y129.415 E38.86461
G1 X120.183 Y127.566 E38.92725
G1 X120.141 Y127.428 E38.93204
G1 X119.439 Y125.679 E38.99473
G1 X119.367 Y125.553 E38.99955
G1 X118.348 Y123.969 E39.0622
G1 X118.252 Y123.861 E39.067
G1 X116.951 Y122.499 E39.12965
G1 X116.836 Y122.412 E39.13445
G1 X115.299 Y121.32 E39.19715
G1 X113.457 Y120.478 E39.26452
G1 X111.626 Y120.035 E39.32717
G1 X111.483 Y120.004 E39.33204
G1 X109.603 Y119.915 E39.39464
G1 X109.457 Y119.914 E39.3995
G1 X107.594 Y120.183 E39.4621
G1 X107.452 Y120.212 E39.46692
G1 X105.671 Y120.83 E39.52962
G1 X105.539 Y120.887 E39.53441
G1 X103.908 Y121.829 E39.59705
G1 X103.789 Y121.914 E39.60191
G1 X102.368 Y123.148 E39.66451
G1 X102.27 Y123.254 E39.66931
G1 X101.106 Y124.736 E39.73199
G1 X101.032 Y124.86 E39.73679
G1 X100.169 Y126.537 E39.79952
G1 X100.124 Y126.673 E39.80429
G1 X99.594 Y128.481 E39.86695
G1 X99.578 Y128.624 E39.87174
G1 X99.4 Y130.5 E39.93441
G1 X99.593 Y132.518 E40.00184
G1 X100.167 Y134.462 E40.06926
G1 X101.032 Y136.137 E40.13196
G1 X101.104 Y136.263 E40.13678
G1 X102.269 Y137.743 E40.19943
G1 X102.365 Y137.851 E40.20424
G1 X103.789 Y139.084 E40.26689
G1 X103.905 Y139.17 E40.27169
G1 X105.537 Y140.111 E40.33435
G1 X105.669 Y140.171 E40.33917
G1 X107.45 Y140.787 E40.40185
G1 X107.591 Y140.818 E40.40665
G1 X108.664 Y140.972 E40.4427
G0 F1080 X109.455 Y141.085
G0 F6000 X109.423 Y141.523
G1 F2700 E35.4427
G0 F6000 X111.752 Y141.542
G0 X111.752 Y143.291
G0 X143.501 Y143.501
;TYPE:WALL-INNER
G1 F2700 E40.4427
G1 F1200 X76.499 Y143.501 E42.6712
G1 X76.499 Y76.499 E44.89969
G1 X143.501 Y76.499 E47.12819
G1 X143.501 Y142.701 E49.33008
G0 F1080 X143.501 Y143.501
G0 F6000 X143.901 Y143.901
;TYPE:WALL-OUTER
G1 F1200 X76.099 Y143.901 E51.58518
G1 X76.099 Y76.099 E53.84028
G1 X143.901 Y76.099 E56.09539
G1 X143.901 Y143.101 E58.32388
G0 F1080 X143.901 Y143.901
G0 F6000 X143.631 Y143.631
G0 X143.391 Y143.111
G0 X143.111 Y143.111
;TYPE:SKIN
G1 F1200 X76.889 Y143.111 E60.52644
G1 X76.889 Y76.889 E62.72899
G1 X143.111 Y76.889 E64.93154
G1 X143.111 Y142.311 E67.10749
G0 F1080 X143.111 Y143.111
G1 F2700 E62.10749
G0 F6000 X143.391 Y143.111
G0 X143.291 Y133.747
G0 X144.766 Y133.747
G0 X119.344 Y133.226
G0 X120.757 Y133.584
G0 X120.882 Y133.843
G1 F2700 E67.10749
G1 F1200 X120.95 Y133.634 E67.1148
G1 X121.321 Y131.705 E67.18013
G1 X121.345 Y131.486 E67.18746
G1 X121.344 Y129.519 E67.25288
G1 X121.322 Y129.301 E67.26017
G1 X120.951 Y127.377 E67.32534
G1 X120.887 Y127.166 E67.33267
G1 X120.152 Y125.334 E67.39833
G1 X120.043 Y125.143 E67.40564
G1 X118.98 Y123.488 E67.47106
G1 X118.832 Y123.325 E67.47839
G1 X117.479 Y121.907 E67.54357
G1 X117.303 Y121.775 E67.55089
G1 X115.695 Y120.633 E67.61649
G1 X113.716 Y119.728 E67.68887
G1 X111.802 Y119.265 E67.75436
G1 X111.586 Y119.218 E67.76172
G1 X109.624 Y119.125 E67.82704
G1 X109.403 Y119.124 E67.8344
G1 X107.459 Y119.405 E67.89973
G1 X107.243 Y119.448 E67.90705
G1 X105.385 Y120.093 E67.97247
G1 X105.184 Y120.18 E67.97975
G1 X103.479 Y121.164 E68.04522
G1 X103.299 Y121.294 E68.05261
G1 X101.818 Y122.579 E68.11783
G1 X101.668 Y122.741 E68.12517
G1 X100.454 Y124.287 E68.19055
G1 X100.341 Y124.477 E68.1979
G1 X99.438 Y126.23 E68.26349
G1 X99.37 Y126.437 E68.27073
G1 X98.816 Y128.326 E68.33621
G1 X98.792 Y128.544 E68.3435
G1 X98.606 Y130.5 E68.40885
G1 X98.814 Y132.668 E68.48129
G1 X99.431 Y134.758 E68.55377
G1 X100.337 Y136.515 E68.61952
G1 X100.447 Y136.706 E68.62685
G1 X101.663 Y138.25 E68.69222
G1 X101.808 Y138.414 E68.6995
G1 X103.295 Y139.7 E68.76489
G1 X103.47 Y139.831 E68.77216
G1 X105.175 Y140.814 E68.83762
G1 X105.376 Y140.906 E68.84497
G1 X107.235 Y141.549 E68.91039
G1 X107.45 Y141.596 E68.91771
G1 X109.396 Y141.875 E68.9831
G1 X109.616 Y141.876 E68.99042
G1 X111.58 Y141.781 E69.05582
G1 X111.796 Y141.736 E69.06315
G1 X113.705 Y141.273 E69.12849
G1 X113.906 Y141.187 E69.13576
G1 X115.697 Y140.367 E69.20128
G1 X117.471 Y139.104 E69.27371
G1 X118.832 Y137.678 E69.33927
G1 X118.979 Y137.512 E69.34664
G1 X120.038 Y135.863 E69.41183
G1 X120.15 Y135.672 E69.41919
G1 X120.585 Y134.585 E69.45813
G0 F1080 X120.882 Y133.843
G1 F2700 E64.45813
G0 F6000 X120.619 Y133.747
G0 X120.76 Y131.893
G0 X120.757 Y127.424
G0 X119.327 Y127.721
G0 X120.757 Y100.935
G0 X120.757 Y102.39
G0 X122.21 Y102.34
G0 X122.49 Y102.59
G1 F2700 E69.45813
G1 F1200 X122.49 Y84.811 E70.04946
G1 X97.51 Y84.81 E70.8803
G1 X97.51 Y102.59 E71.47167
G1 X121.69 Y102.59 E72.2759
G0 F1080 X122.49 Y102.59
G1 F2700 E67.2759
G0 F6000 X122.21 Y102.34
G0 X122.27 Y99.95
G0 X120.835 Y99.95
G0 X144.766 Y85.005
G0 X143.291 Y85.005
G0 X143.391 Y77.331
G0 X142.95 Y77.331
G1 F2700 E72.2759
G1 F1200 X142.668 Y77.049 E72.28916
G0 F6000 X142.103 Y77.049
G1 F1200 X142.95 Y77.897 E72.32903
G0 F6000 X142.95 Y78.462
G1 F1200 X141.537 Y77.049 E72.39549
G0 F6000 X140.971 Y77.049
G1 F1200 X142.95 Y79.028 E72.48857
G0 F6000 X142.95 Y79.594
G1 F1200 X140.405 Y77.049 E72.60828
G0 F6000 X139.84 Y77.049
G1 F1200 X142.95 Y80.159 E72.75457
G0 F6000 X142.95 Y80.725
G1 F1200 X139.274 Y77.049 E72.92748
G0 F6000 X138.708 Y77.049
G1 F1200 X142.95 Y81.291 E73.12701
G0 F6000 X142.95 Y81.856
G1 F1200 X138.143 Y77.049 E73.35311
G0 F6000 X137.577 Y77.049
G1 F1200 X142.95 Y82.422 E73.60584
G0 F6000 X142.95 Y82.988
G1 F1200 X137.011 Y77.049 E73.8852
G0 F6000 X136.446 Y77.049
G1 F1200 X142.95 Y83.553 E74.19112
G0 F6000 X142.95 Y84.119
G1 F1200 X135.88 Y77.049 E74.52367
G0 F6000 X135.314 Y77.049
G1 F1200 X142.95 Y84.685 E74.88285
G0 F6000 X142.95 Y85.25
G1 F1200 X134.749 Y77.049 E75.2686
G0 F6000 X134.183 Y77.049
G1 F1200 X142.95 Y85.816 E75.68097
G0 F6000 X142.95 Y86.382
G1 F1200 X133.617 Y77.049 E76.11997
G0 F6000 X133.052 Y77.049
G1 F1200 X142.95 Y86.947 E76.58554
G0 F6000 X142.95 Y87.513
G1 F1200 X132.486 Y77.049 E77.07773
