;FLAVOR:Marlin
;TIME:9000
;Filament used: 9.94279m
;Layer height: 0.2
;MINX:66.013
;MINY:61.599
;MINZ:0.2
;MAXX:154.076
;MAXY:161.3
;MAXZ:16.2
;Generated with Cura_SteamEngine 4.8.0
M140 S60
M105
M190 S60
M104 S205
M105
M109 S205
M82 ;absolute extrusion mode
M201 X500.00 Y500.00 Z100.00 E5000.00 ;Setup machine max acceleration
M203 X500.00 Y500.00 Z10.00 E50.00 ;Setup machine max feedrate
M204 P500.00 R1000.00 T500.00 ;Setup Print/Retract/Travel acceleration
M205 X8.00 Y8.00 Z0.40 E5.00 ;Setup Jerk
M220 S100 ;Reset Feedrate
M221 S100 ;Reset Flowrate

G28 ;Home
G29

G92 E0 ;Reset Extruder
G1 Z2.0 F3000 ;Move Z Axis up
G1 X10.1 Y20 Z0.28 F5000.0 ;Move to start position
G1 X10.1 Y200.0 Z0.28 F1500.0 E15 ;Draw the first line
G1 X10.4 Y200.0 Z0.28 F5000.0 ;Move to side a little
G1 X10.4 Y20 Z0.28 F1500.0 E30 ;Draw the second line
G92 E0 ;Reset Extruder
G1 Z2.0 F3000 ;Move Z Axis up
G92 E0
G92 E0
G1 F2700 E-5
;LAYER_COUNT:80
;LAYER:0
M107
G1 F300 Z0.4
G0 F6000 X69.43 Y65.014 Z0.4
;TYPE:SKIRT
G1 F300 Z0.2
G1 F2700 E0
G1 F1200 X69.832 Y64.586 E0.02363
G1 X69.949 Y64.469 E0.03029
G1 X70.603 Y63.872 E0.06593
G1 X71.308 Y63.337 E0.10154
G1 X72.058 Y62.867 E0.13717
G1 X72.848 Y62.467 E0.1728
G1 X73.67 Y62.139 E0.20842
G1 X74.519 Y61.888 E0.24405
G1 X75.387 Y61.713 E0.27968
G1 X76.267 Y61.618 E0.31531
G1 X76.879 Y61.599 E0.33995
G1 X143.12 Y61.599 E3.0058
G1 X144.004 Y61.639 E3.04141
G1 X144.881 Y61.759 E3.07704
G1 X145.744 Y61.957 E3.11267
G1 X146.585 Y62.232 E3.14828
G1 X147.398 Y62.582 E3.1839
G1 X148.177 Y63.004 E3.21956
G1 X148.913 Y63.495 E3.25516
G1 X149.603 Y64.05 E3.2908
G1 X150.05 Y64.469 E3.31546
G1 X150.167 Y64.586 E3.32212
G1 X150.764 Y65.24 E3.35775
G1 X151.299 Y65.945 E3.39337
G1 X151.769 Y66.695 E3.42899
G1 X152.169 Y67.485 E3.46463
G1 X152.497 Y68.307 E3.50025
G1 X152.748 Y69.156 E3.53588
G1 X152.923 Y70.024 E3.57151
G1 X153.018 Y70.904 E3.60713
G1 X153.037 Y71.499 E3.63109
G1 X153.048 Y77.945 E3.89051
G1 X153.018 Y85.392 E4.19021
G1 X153.028 Y85.49 E4.19418
G1 X153.048 Y86.587 E4.23833
G1 X153.035 Y86.928 E4.25207
G1 X152.961 Y87.81 E4.28769
G1 X152.913 Y88.086 E4.29896
G1 X152.967 Y88.38 E4.31099
G1 X152.97 Y88.405 E4.312
G1 X153.04 Y89.573 E4.35909
G1 X153.039 Y145.125 E6.59477
G1 X153.323 Y145.727 E6.62156
G1 X153.627 Y146.558 E6.65717
G1 X153.855 Y147.413 E6.69278
G1 X154.005 Y148.286 E6.72843
G1 X154.076 Y149.168 E6.76404
G1 X154.067 Y150.053 E6.79966
G1 X153.978 Y150.934 E6.8353
G1 X153.809 Y151.803 E6.87092
G1 X153.776 Y151.918 E6.87574
G1 X153.76 Y152.266 E6.88976
G1 X153.64 Y153.143 E6.92538
G1 X153.442 Y154.006 E6.96102
G1 X153.167 Y154.847 E6.99663
G1 X152.817 Y155.66 E7.03225
G1 X152.395 Y156.439 E7.0679
G1 X151.904 Y157.175 E7.10351
G1 X151.349 Y157.865 E7.13915
G1 X150.9 Y158.341 E7.16548
G1 X150.782 Y158.458 E7.17217
G1 X150.126 Y159.052 E7.20778
G1 X149.419 Y159.585 E7.24342
G1 X148.667 Y160.052 E7.27904
G1 X147.875 Y160.448 E7.31468
G1 X147.052 Y160.772 E7.35027
G1 X146.202 Y161.02 E7.38591
G1 X145.333 Y161.191 E7.42155
G1 X144.453 Y161.282 E7.45716
G1 X143.882 Y161.299 E7.48015
G1 X76.119 Y161.3 E10.20725
G1 X75.235 Y161.26 E10.24286
G1 X74.358 Y161.14 E10.27849
G1 X73.495 Y160.942 E10.31412
G1 X72.654 Y160.667 E10.34973
G1 X71.841 Y160.317 E10.38535
G1 X71.063 Y159.895 E10.42097
G1 X70.326 Y159.404 E10.45661
G1 X69.636 Y158.849 E10.49225
G1 X69.219 Y158.459 E10.51523
G1 X69.101 Y158.342 E10.52192
G1 X68.501 Y157.691 E10.55754
G1 X67.962 Y156.989 E10.59316
G1 X67.489 Y156.24 E10.62881
G1 X67.086 Y155.452 E10.66443
G1 X66.755 Y154.631 E10.70006
G1 X66.5 Y153.784 E10.73566
G1 X66.322 Y152.917 E10.77128
G1 X66.223 Y152.037 E10.80692
G1 X66.201 Y151.394 E10.83281
G1 X66.109 Y150.913 E10.85252
G1 X66.021 Y150.032 E10.88815
G1 X66.013 Y149.147 E10.92377
G1 X66.085 Y148.265 E10.95938
G1 X66.236 Y147.393 E10.995
G1 X66.465 Y146.538 E11.03062
G1 X66.771 Y145.707 E11.06626
G1 X66.958 Y145.313 E11.08381
G1 X66.953 Y139.506 E11.31751
G1 X66.98 Y89.547 E13.3281
G1 X67.011 Y88.775 E13.35919
G1 X67.025 Y88.599 E13.3663
G1 X67.124 Y87.783 E13.39938
G1 X67.142 Y87.672 E13.40391
G1 X67.081 Y87.202 E13.42298
G1 X67.001 Y86.326 E13.45838
G1 X66.96 Y85.471 E13.49283
G1 X66.94 Y80 E13.71301
G1 X66.962 Y71.491 E14.05545
G1 X67.004 Y70.606 E14.09111
G1 X67.126 Y69.73 E14.1267
G1 X67.327 Y68.867 E14.16237
G1 X67.604 Y68.027 E14.19796
G1 X67.956 Y67.215 E14.23358
G1 X68.38 Y66.438 E14.2692
G1 X68.873 Y65.702 E14.30485
G1 X69.43 Y65.014 E14.34048
G0 F6000 X70.115 Y64.869
G1 F1200 X70.232 Y64.752 E14.34714
G1 X70.873 Y64.168 E14.38204
G1 X71.565 Y63.645 E14.41694
G1 X72.302 Y63.189 E14.45182
G1 X73.077 Y62.802 E14.48668
G1 X73.886 Y62.488 E14.52161
G1 X74.719 Y62.25 E14.55647
G1 X75.571 Y62.09 E14.59136
G1 X76.434 Y62.01 E14.62624
G1 X76.879 Y61.999 E14.64416
G1 X143.12 Y61.999 E17.31001
G1 X143.986 Y62.039 E17.3449
G1 X144.845 Y62.159 E17.37981
G1 X145.689 Y62.357 E17.41469
G1 X146.511 Y62.632 E17.44958
G1 X147.304 Y62.982 E17.48446
G1 X148.062 Y63.403 E17.51936
G1 X148.777 Y63.892 E17.55422
G1 X149.445 Y64.445 E17.58912
G1 X149.767 Y64.752 E17.60702
G1 X149.884 Y64.869 E17.61368
G1 X150.468 Y65.51 E17.64858
G1 X150.991 Y66.202 E17.68349
G1 X151.447 Y66.939 E17.71837
G1 X151.834 Y67.714 E17.75323
G1 X152.148 Y68.523 E17.78815
G1 X152.386 Y69.356 E17.82302
G1 X152.546 Y70.208 E17.85791
G1 X152.637 Y71.5 E17.91003
G1 X152.648 Y77.943 E18.16933
G1 X152.618 Y85.404 E18.4696
G1 X152.629 Y85.52 E18.47429
G1 X152.648 Y86.572 E18.51663
G1 X152.635 Y86.913 E18.53036
G1 X152.562 Y87.777 E18.56526
G1 X152.507 Y88.086 E18.57789
G1 X152.57 Y88.428 E18.59189
G1 X152.573 Y88.453 E18.5929
G1 X152.64 Y89.573 E18.63805
G1 X152.639 Y145.213 E20.87727
G1 X152.69 Y145.304 E20.88147
G1 X153.041 Y146.097 E20.91637
G1 X153.318 Y146.918 E20.95124
G1 X153.518 Y147.762 E20.98615
G1 X153.64 Y148.62 E21.02103
G1 X153.682 Y149.486 E21.05592
G1 X153.644 Y150.352 E21.09081
G1 X153.526 Y151.211 E21.1257
G1 X153.379 Y151.846 E21.15193
G1 X153.36 Y152.248 E21.16813
G1 X153.24 Y153.107 E21.20303
G1 X153.042 Y153.951 E21.23792
G1 X152.767 Y154.773 E21.27281
G1 X152.417 Y155.566 E21.30769
G1 X151.996 Y156.324 E21.34259
G1 X151.507 Y157.039 E21.37745
G1 X150.954 Y157.707 E21.41235
G1 X150.618 Y158.057 E21.43187
G1 X150.5 Y158.174 E21.43856
G1 X149.857 Y158.755 E21.47344
G1 X149.163 Y159.275 E21.50834
G1 X148.425 Y159.729 E21.54321
G1 X147.647 Y160.112 E21.57811
G1 X146.837 Y160.422 E21.61301
G1 X146.003 Y160.657 E21.64788
G1 X145.15 Y160.813 E21.68278
G1 X143.882 Y160.899 E21.73393
G1 X76.119 Y160.9 E24.46103
G1 X75.253 Y160.86 E24.49592
G1 X74.394 Y160.74 E24.53083
G1 X73.55 Y160.542 E24.56572
G1 X72.728 Y160.267 E24.6006
G1 X71.935 Y159.917 E24.63548
G1 X71.177 Y159.496 E24.67038
G1 X70.462 Y159.007 E24.70524
G1 X69.501 Y158.175 E24.7564
G1 X69.383 Y158.058 E24.76308
G1 X68.796 Y157.42 E24.79797
G1 X68.27 Y156.73 E24.83289
G1 X67.81 Y155.995 E24.86779
G1 X67.42 Y155.221 E24.90267
G1 X67.103 Y154.414 E24.93756
G1 X66.862 Y153.582 E24.97242
G1 X66.698 Y152.73 E25.00734
G1 X66.613 Y151.867 E25.04224
G1 X66.601 Y151.357 E25.06277
G1 X66.495 Y150.785 E25.08618
G1 X66.416 Y149.921 E25.1211
G1 X66.418 Y149.054 E25.15599
G1 X66.499 Y148.191 E25.19087
G1 X66.659 Y147.339 E25.22576
G1 X66.897 Y146.505 E25.26067
G1 X67.211 Y145.697 E25.29555
G1 X67.358 Y145.402 E25.30882
G1 X67.353 Y139.506 E25.5461
G1 X67.38 Y89.547 E27.55669
G1 X67.41 Y88.807 E27.58649
G1 X67.424 Y88.631 E27.5936
G1 X67.519 Y87.848 E27.62534
G1 X67.537 Y87.655 E27.63314
G1 X67.479 Y87.166 E27.65296
G1 X67.399 Y86.29 E27.68836
G1 X67.36 Y85.47 E27.7214
G1 X67.34 Y80.001 E27.9415
G1 X67.362 Y71.492 E28.28394
G1 X67.404 Y70.626 E28.31884
G1 X67.526 Y69.767 E28.35375
G1 X67.726 Y68.924 E28.38862
G1 X68.004 Y68.103 E28.42351
G1 X68.355 Y67.31 E28.45841
G1 X68.779 Y66.554 E28.49329
G1 X69.27 Y65.839 E28.5282
G1 X70.115 Y64.869 E28.57997
G0 F6000 X70.398 Y65.152
G1 F1200 X70.515 Y65.035 E28.58663
G1 X71.142 Y64.464 E28.62076
G1 X71.821 Y63.955 E28.65491
G1 X72.544 Y63.512 E28.68903
G1 X73.306 Y63.139 E28.72318
G1 X74.1 Y62.839 E28.75734
G1 X74.918 Y62.615 E28.79147
G1 X75.754 Y62.47 E28.82562
G1 X76.879 Y62.399 E28.87098
G1 X143.12 Y62.399 E31.53683
G1 X143.967 Y62.439 E31.57096
G1 X144.807 Y62.559 E31.60511
G1 X145.632 Y62.757 E31.63925
G1 X146.435 Y63.032 E31.67341
G1 X147.208 Y63.381 E31.70754
G1 X147.944 Y63.801 E31.74165
G1 X148.638 Y64.289 E31.77579
G1 X149.484 Y65.035 E31.82119
G1 X149.601 Y65.152 E31.82784
G1 X150.172 Y65.779 E31.86197
G1 X150.681 Y66.458 E31.89613
G1 X151.124 Y67.181 E31.93025
G1 X151.497 Y67.943 E31.96439
G1 X151.797 Y68.737 E31.99855
G1 X152.021 Y69.555 E32.03268
G1 X152.166 Y70.391 E32.06683
G1 X152.237 Y71.501 E32.11159
G1 X152.248 Y77.942 E32.37081
G1 X152.218 Y85.43 E32.67217
G1 X152.23 Y85.549 E32.67698
G1 X152.248 Y86.557 E32.71755
G1 X152.235 Y86.898 E32.73129
G1 X152.163 Y87.743 E32.76542
G1 X152.101 Y88.086 E32.77944
G1 X152.173 Y88.476 E32.79541
G1 X152.176 Y88.501 E32.79642
G1 X152.24 Y89.573 E32.83964
G1 X152.239 Y145.324 E35.08332
G1 X152.427 Y145.68 E35.09953
G1 X152.752 Y146.464 E35.13368
G1 X153.001 Y147.275 E35.16782
G1 X153.172 Y148.106 E35.20197
G1 X153.265 Y148.949 E35.2361
G1 X153.277 Y149.797 E35.27023
G1 X153.21 Y150.643 E35.30438
G1 X153.064 Y151.478 E35.3385
G1 X152.981 Y151.779 E35.35106
G1 X152.96 Y152.229 E35.36919
G1 X152.84 Y153.069 E35.40334
G1 X152.642 Y153.894 E35.43749
G1 X152.367 Y154.697 E35.47165
G1 X152.018 Y155.47 E35.50578
G1 X151.598 Y156.206 E35.53988
G1 X151.11 Y156.9 E35.57403
G1 X150.337 Y157.773 E35.62095
G1 X150.219 Y157.89 E35.62764
G1 X149.589 Y158.458 E35.66178
G1 X148.908 Y158.965 E35.69595
G1 X148.183 Y159.405 E35.73008
G1 X147.42 Y159.775 E35.7642
G1 X146.625 Y160.071 E35.79834
G1 X145.806 Y160.291 E35.83247
G1 X144.969 Y160.433 E35.86664
G1 X143.882 Y160.499 E35.91047
G1 X76.119 Y160.5 E38.63757
G1 X75.272 Y160.46 E38.6717
G1 X74.432 Y160.34 E38.70585
G1 X73.607 Y160.142 E38.73999
G1 X72.805 Y159.867 E38.77411
G1 X72.032 Y159.518 E38.80825
G1 X71.295 Y159.098 E38.84238
G1 X70.601 Y158.61 E38.87653
G1 X69.782 Y157.891 E38.92039
G1 X69.664 Y157.774 E38.92707
G1 X69.091 Y157.149 E38.9612
G1 X68.578 Y156.473 E38.99535
G1 X68.132 Y155.751 E39.0295
G1 X67.756 Y154.991 E39.06363
G1 X67.453 Y154.199 E39.09776
G1 X67.226 Y153.381 E39.13192
G1 X67.077 Y152.546 E39.16606
G1 X67.001 Y151.383 E39.21296
G1 X67.001 Y151.329 E39.21513
G1 X66.882 Y150.658 E39.24256
G1 X66.812 Y149.812 E39.27672
G1 X66.823 Y148.964 E39.31085
G1 X66.913 Y148.12 E39.34501
G1 X67.083 Y147.289 E39.37915
G1 X67.33 Y146.478 E39.41327
G1 X67.652 Y145.693 E39.44741
G1 X67.758 Y145.492 E39.45656
G1 X67.753 Y139.506 E39.69746
G1 X67.78 Y89.547 E41.70805
G1 X67.808 Y88.838 E41.73661
G1 X67.822 Y88.662 E41.74371
G1 X67.914 Y87.913 E41.77408
G1 X67.957 Y87.654 E41.78465
G1 X67.877 Y87.13 E41.80598
G1 X67.797 Y86.254 E41.84138
G1 X67.76 Y85.468 E41.87305
G1 X67.74 Y80.002 E42.09303
G1 X67.762 Y71.493 E42.43547
G1 X67.804 Y70.645 E42.46964
G1 X67.926 Y69.806 E42.50376
G1 X68.126 Y68.982 E42.53789
G1 X68.403 Y68.18 E42.57203
G1 X68.754 Y67.408 E42.60616
G1 X69.177 Y66.672 E42.64033
G1 X69.667 Y65.979 E42.67449
G1 X70.398 Y65.152 E42.71891
G0 F6000 X70.063 Y66.123
G1 F1200 X70.681 Y65.435 E42.75612
G1 X70.798 Y65.318 E42.76278
G1 X71.412 Y64.76 E42.79617
G1 X72.077 Y64.265 E42.82954
G1 X72.786 Y63.835 E42.86291
G1 X73.533 Y63.476 E42.89626
G1 X74.312 Y63.191 E42.92965
G1 X75.114 Y62.982 E42.963
G1 X75.933 Y62.851 E42.99638
G1 X76.879 Y62.799 E43.03451
G1 X143.12 Y62.799 E45.70036
G1 X143.948 Y62.839 E45.73372
G1 X144.769 Y62.959 E45.76711
G1 X145.574 Y63.157 E45.80048
G1 X146.356 Y63.431 E45.83382
G1 X147.109 Y63.78 E45.86723
G1 X147.824 Y64.2 E45.9006
G1 X148.495 Y64.686 E45.93394
G1 X149.201 Y65.318 E45.97208
G1 X149.318 Y65.435 E45.97873
G1 X149.876 Y66.049 E46.01212
G1 X150.371 Y66.714 E46.04549
G1 X150.801 Y67.423 E46.07886
G1 X151.16 Y68.17 E46.11221
G1 X151.445 Y68.949 E46.1456
G1 X151.654 Y69.751 E46.17895
G1 X151.785 Y70.57 E46.21233
G1 X151.837 Y71.501 E46.24986
G1 X151.848 Y77.94 E46.50899
G1 X151.818 Y85.435 E46.81063
G1 X151.832 Y85.579 E46.81645
G1 X151.849 Y86.542 E46.85521
G1 X151.836 Y86.883 E46.86895
G1 X151.764 Y87.709 E46.90232
G1 X151.695 Y88.085 E46.9177
G1 X151.776 Y88.523 E46.93563
G1 X151.779 Y88.548 E46.93664
G1 X151.84 Y89.573 E46.97796
G1 X151.839 Y145.412 E49.22519
G1 X152.158 Y146.054 E49.25404
G1 X152.454 Y146.829 E49.28743
G1 X152.674 Y147.628 E49.32078
G1 X152.816 Y148.445 E49.35415
G1 X152.879 Y149.272 E49.38753
G1 X152.862 Y150.101 E49.4209
G1 X152.765 Y150.924 E49.45425
G1 X152.589 Y151.735 E49.48765
G1 X152.582 Y151.757 E49.48858
G1 X152.56 Y152.21 E49.50683
G1 X152.44 Y153.031 E49.54023
G1 X152.242 Y153.836 E49.57359
G1 X151.968 Y154.618 E49.60694
G1 X151.619 Y155.371 E49.64034
G1 X151.199 Y156.086 E49.67371
G1 X150.713 Y156.757 E49.70705
G1 X150.055 Y157.489 E49.74666
G1 X149.937 Y157.606 E49.75335
G1 X149.321 Y158.161 E49.78672
G1 X148.654 Y158.654 E49.8201
G1 X147.943 Y159.08 E49.85346
G1 X147.194 Y159.436 E49.88683
G1 X146.414 Y159.718 E49.92021
G1 X145.611 Y159.923 E49.95356
G1 X144.791 Y160.051 E49.98696
G1 X143.882 Y160.099 E50.0236
G1 X76.119 Y160.1 E52.7507
G1 X75.291 Y160.06 E52.78407
G1 X74.47 Y159.94 E52.81746
G1 X73.665 Y159.742 E52.85082
G1 X72.883 Y159.468 E52.88417
G1 X72.13 Y159.119 E52.91757
G1 X71.415 Y158.7 E52.95092
G1 X70.744 Y158.213 E52.98429
G1 X70.064 Y157.607 E53.02094
G1 X69.946 Y157.49 E53.02763
G1 X69.386 Y156.878 E53.06102
G1 X68.887 Y156.216 E53.09438
G1 X68.455 Y155.508 E53.12776
G1 X68.093 Y154.762 E53.16113
G1 X67.804 Y153.985 E53.19449
G1 X67.592 Y153.183 E53.22788
G1 X67.457 Y152.365 E53.26124
G1 X67.401 Y151.383 E53.30083
G1 X67.401 Y151.309 E53.3038
G1 X67.269 Y150.532 E53.33552
G1 X67.209 Y149.705 E53.36889
G1 X67.23 Y148.876 E53.40227
G1 X67.33 Y148.053 E53.43563
G1 X67.508 Y147.243 E53.46901
G1 X67.764 Y146.454 E53.50239
G1 X68.095 Y145.694 E53.53575
G1 X68.158 Y145.581 E53.54096
G1 X68.153 Y139.506 E53.78544
G1 X68.18 Y89.547 E55.79603
G1 X68.207 Y88.87 E55.8233
G1 X68.221 Y88.694 E55.83041
G1 X68.308 Y87.978 E55.85943
G1 X68.357 Y87.683 E55.87147
G1 X68.276 Y87.093 E55.89544
G1 X68.196 Y86.217 E55.93084
G1 X68.16 Y85.467 E55.96105
G1 X68.14 Y80.003 E56.18095
G1 X68.162 Y71.494 E56.5234
G1 X68.204 Y70.666 E56.55676
G1 X68.326 Y69.845 E56.59017
G1 X68.526 Y69.041 E56.62351
G1 X68.803 Y68.259 E56.6569
G1 X69.153 Y67.508 E56.69024
G1 X69.575 Y66.793 E56.72365
G1 X70.063 Y66.123 E56.75701
G0 F6000 X70.459 Y66.271
G1 F1200 X70.964 Y65.718 E56.78715
G1 X71.081 Y65.601 E56.79381
G1 X71.681 Y65.057 E56.82641
G1 X72.332 Y64.575 E56.859
G1 X73.027 Y64.16 E56.89158
G1 X73.759 Y63.816 E56.92413
G1 X74.523 Y63.545 E56.95676
G1 X75.309 Y63.351 E56.98934
G1 X76.11 Y63.235 E57.02191
G1 X76.879 Y63.199 E57.05289
G1 X143.12 Y63.199 E59.71874
G1 X143.929 Y63.239 E59.75134
G1 X144.73 Y63.359 E59.78394
G1 X145.515 Y63.556 E59.81651
G1 X146.276 Y63.831 E59.84907
G1 X147.007 Y64.179 E59.88166
G1 X147.701 Y64.598 E59.91428
G1 X148.349 Y65.083 E59.94686
G1 X148.918 Y65.601 E59.97782
G1 X149.035 Y65.718 E59.98448
G1 X149.579 Y66.318 E60.01708
G1 X150.061 Y66.969 E60.04968
G1 X150.476 Y67.664 E60.08225
G1 X150.82 Y68.396 E60.1148
G1 X151.091 Y69.16 E60.14743
G1 X151.285 Y69.946 E60.18001
G1 X151.401 Y70.747 E60.21258
G1 X151.437 Y71.502 E60.243
G1 X151.448 Y77.939 E60.50206
G1 X151.418 Y85.457 E60.80462
G1 X151.433 Y85.608 E60.81073
G1 X151.449 Y86.526 E60.84768
G1 X151.436 Y86.867 E60.86141
G1 X151.365 Y87.674 E60.89401
G1 X151.288 Y88.081 E60.91068
G1 X151.379 Y88.571 E60.93074
G1 X151.382 Y88.596 E60.93175
G1 X151.44 Y89.573 E60.97114
G1 X151.439 Y145.522 E63.2228
G1 X151.539 Y145.691 E63.2307
G1 X151.881 Y146.425 E63.26329
G1 X152.147 Y147.19 E63.29588
G1 X152.338 Y147.977 E63.32847
G1 X152.45 Y148.779 E63.36106
G1 X152.482 Y149.588 E63.39365
G1 X152.434 Y150.396 E63.42622
G1 X152.306 Y151.196 E63.45883
G1 X152.187 Y151.652 E63.47779
G1 X152.16 Y152.191 E63.49951
G1 X152.04 Y152.992 E63.53211
G1 X151.843 Y153.777 E63.56468
G1 X151.568 Y154.538 E63.59725
G1 X151.22 Y155.269 E63.62983
