;FLAVOR:Marlin
;TIME:10666
;Filament used: 8.71633m
;Layer height: 0.2
;MINX:67.5
;MINY:78.899
;MINZ:0.2
;MAXX:152.5
;MAXY:145.101
;MAXZ:15
;Generated with Cura_SteamEngine 4.8.0
M140 S60
M105
M190 S60
M104 S205
M105
M109 S205
M82 ;absolute extrusion mode
M201 X500.00 Y500.00 Z100.00 E5000.00 ;Setup machine max acceleration
M203 X500.00 Y500.00 Z10.00 E50.00 ;Setup machine max feedrate
M204 P500.00 R1000.00 T500.00 ;Setup Print/Retract/Travel acceleration
M205 X8.00 Y8.00 Z0.40 E5.00 ;Setup Jerk
M220 S100 ;Reset Feedrate
M221 S100 ;Reset Flowrate

G28 ;Home
G29

G92 E0 ;Reset Extruder
G1 Z2.0 F3000 ;Move Z Axis up
G1 X10.1 Y20 Z0.28 F5000.0 ;Move to start position
G1 X10.1 Y200.0 Z0.28 F1500.0 E15 ;Draw the first line
G1 X10.4 Y200.0 Z0.28 F5000.0 ;Move to side a little
G1 X10.4 Y20 Z0.28 F1500.0 E30 ;Draw the second line
G92 E0 ;Reset Extruder
G1 Z2.0 F3000 ;Move Z Axis up
G92 E0
G92 E0
G1 F2700 E-5
;LAYER_COUNT:75
;LAYER:0
M107
G0 F6000 X70.224 Y80.45 Z0.2
;TYPE:SKIRT
G1 F2700 E0
G1 F1200 X70.83 Y80.013 E0.02485
G1 X71.48 Y79.642 E0.04974
G1 X72.166 Y79.343 E0.07463
G1 X72.88 Y79.119 E0.09952
G1 X73.613 Y78.972 E0.12439
G1 X74.617 Y78.9 E0.15786
G1 X145.383 Y78.899 E2.51155
G1 X146.13 Y78.939 E2.53643
G1 X146.868 Y79.058 E2.5613
G1 X147.59 Y79.256 E2.5862
G1 X148.286 Y79.529 E2.61106
G1 X148.949 Y79.876 E2.63595
G1 X149.572 Y80.291 E2.66085
G1 X150.333 Y80.949 E2.69431
G1 X150.45 Y81.066 E2.69981
G1 X150.95 Y81.623 E2.72471
G1 X151.387 Y82.229 E2.74956
G1 X151.758 Y82.879 E2.77445
G1 X152.057 Y83.565 E2.79934
G1 X152.281 Y84.279 E2.82423
G1 X152.428 Y85.012 E2.84909
G1 X152.5 Y86.016 E2.88257
G1 X152.5 Y128.959 E4.31086
G1 X152.46 Y129.706 E4.33574
G1 X152.341 Y130.444 E4.36061
G1 X152.143 Y131.166 E4.38551
G1 X151.962 Y131.651 E4.40273
G1 X151.932 Y131.723 E4.40532
G1 X151.607 Y132.397 E4.43021
G1 X151.213 Y133.033 E4.45509
G1 X150.753 Y133.623 E4.47997
G1 X150.42 Y133.981 E4.49624
G1 X141.381 Y143.02 E4.9214
G1 X140.824 Y143.52 E4.9463
G1 X140.218 Y143.957 E4.97115
G1 X139.568 Y144.328 E4.99604
G1 X139.123 Y144.532 E5.01232
G1 X139.051 Y144.562 E5.01492
G1 X138.346 Y144.812 E5.03979
G1 X137.619 Y144.986 E5.06466
G1 X136.877 Y145.081 E5.08954
G1 X136.359 Y145.1 E5.10678
G1 X83.642 Y145.101 E6.86015
G1 X82.895 Y145.061 E6.88503
G1 X82.157 Y144.942 E6.9099
G1 X81.435 Y144.744 E6.9348
G1 X80.95 Y144.563 E6.95202
G1 X80.878 Y144.533 E6.95461
G1 X80.204 Y144.208 E6.9795
G1 X79.568 Y143.814 E7.00438
G1 X78.978 Y143.354 E7.02926
G1 X78.62 Y143.021 E7.04553
G1 X69.58 Y133.981 E7.47074
G1 X69.08 Y133.424 E7.49563
G1 X68.643 Y132.818 E7.52048
G1 X68.272 Y132.168 E7.54538
G1 X68.068 Y131.723 E7.56166
G1 X68.038 Y131.651 E7.56425
G1 X67.788 Y130.946 E7.58913
G1 X67.614 Y130.219 E7.614
G1 X67.519 Y129.477 E7.63888
G1 X67.5 Y128.959 E7.65612
G1 X67.5 Y86.017 E9.08437
G1 X67.54 Y85.27 E9.10925
G1 X67.659 Y84.532 E9.13412
G1 X67.857 Y83.81 E9.15902
G1 X68.13 Y83.114 E9.18388
G1 X68.477 Y82.451 E9.20877
G1 X68.892 Y81.828 E9.23367
G1 X69.55 Y81.067 E9.26713
G1 X69.631 Y80.986 E9.27094
G0 F1080 X69.667 Y80.95
G0 X70.224 Y80.45
G0 F6000 X70.491 Y80.749
G1 F1200 X71.082 Y80.326 E9.29511
G1 X71.716 Y79.972 E9.31926
G1 X72.385 Y79.689 E9.34342
G1 X73.081 Y79.481 E9.36759
G1 X73.796 Y79.351 E9.39176
G1 X74.617 Y79.3 E9.41912
G1 X145.383 Y79.299 E11.7728
G1 X146.108 Y79.339 E11.79695
G1 X146.825 Y79.458 E11.82113
G1 X147.524 Y79.656 E11.84529
G1 X148.197 Y79.929 E11.86945
G1 X148.836 Y80.274 E11.8936
G1 X149.433 Y80.688 E11.91776
G1 X150.05 Y81.232 E11.94512
G1 X150.167 Y81.349 E11.95062
G1 X150.651 Y81.89 E11.97477
G1 X151.074 Y82.481 E11.99894
G1 X151.428 Y83.115 E12.02309
G1 X151.711 Y83.784 E12.04725
G1 X151.919 Y84.48 E12.07141
G1 X152.049 Y85.195 E12.09558
G1 X152.1 Y86.016 E12.12294
G1 X152.1 Y128.959 E13.55123
G1 X152.06 Y129.684 E13.57538
G1 X151.941 Y130.401 E13.59956
G1 X151.743 Y131.1 E13.62372
G1 X151.592 Y131.497 E13.63785
G1 X151.562 Y131.569 E13.64044
G1 X151.246 Y132.224 E13.66463
G1 X150.861 Y132.839 E13.68876
G1 X150.41 Y133.408 E13.71291
G1 X150.137 Y133.698 E13.72616
G1 X141.098 Y142.737 E14.15133
G1 X140.557 Y143.221 E14.17547
G1 X139.966 Y143.644 E14.19964
G1 X139.332 Y143.998 E14.22379
G1 X138.969 Y144.162 E14.23704
G1 X138.897 Y144.192 E14.23964
G1 X138.213 Y144.434 E14.26377
G1 X137.505 Y144.6 E14.28795
G1 X136.784 Y144.686 E14.3121
G1 X136.359 Y144.7 E14.32625
G1 X83.642 Y144.701 E16.07962
G1 X82.917 Y144.661 E16.10377
G1 X82.2 Y144.542 E16.12795
G1 X81.501 Y144.344 E16.15211
G1 X81.104 Y144.193 E16.16624
G1 X81.032 Y144.163 E16.16883
G1 X80.377 Y143.847 E16.19302
G1 X79.762 Y143.462 E16.21715
G1 X79.193 Y143.011 E16.2413
G1 X78.903 Y142.738 E16.25455
G1 X69.863 Y133.698 E16.67976
G1 X69.379 Y133.157 E16.70391
G1 X68.956 Y132.566 E16.72808
G1 X68.602 Y131.932 E16.75223
G1 X68.438 Y131.569 E16.76548
G1 X68.408 Y131.497 E16.76807
G1 X68.166 Y130.813 E16.7922
G1 X68 Y130.105 E16.81639
G1 X67.914 Y129.384 E16.84054
G1 X67.9 Y128.959 E16.85468
G1 X67.9 Y86.017 E18.28294
G1 X67.94 Y85.292 E18.30709
G1 X68.059 Y84.575 E18.33127
G1 X68.257 Y83.876 E18.35543
G1 X68.53 Y83.203 E18.37958
G1 X68.875 Y82.564 E18.40374
G1 X69.289 Y81.967 E18.4279
G1 X69.833 Y81.35 E18.45526
G1 X69.897 Y81.286 E18.45827
G0 F1080 X69.95 Y81.233
G0 X70.491 Y80.749
G0 F6000 X70.758 Y81.047
G1 F1200 X71.333 Y80.641 E18.48168
G1 X71.951 Y80.303 E18.50511
G1 X72.602 Y80.036 E18.52851
G1 X73.28 Y79.846 E18.55193
G1 X73.975 Y79.733 E18.57535
G1 X74.617 Y79.7 E18.59673
G1 X145.383 Y79.699 E20.95042
G1 X146.086 Y79.739 E20.97384
G1 X146.78 Y79.858 E20.99726
G1 X147.455 Y80.056 E21.02065
G1 X148.104 Y80.328 E21.04406
G1 X148.718 Y80.673 E21.06748
G1 X149.289 Y81.084 E21.09088
G1 X149.767 Y81.515 E21.11229
G1 X149.884 Y81.632 E21.11779
G1 X150.353 Y82.157 E21.14121
G1 X150.759 Y82.732 E21.16462
G1 X151.097 Y83.35 E21.18805
G1 X151.364 Y84.001 E21.21145
G1 X151.554 Y84.679 E21.23487
G1 X151.667 Y85.374 E21.25829
G1 X151.7 Y86.016 E21.27967
G1 X151.7 Y128.959 E22.70796
G1 X151.66 Y129.662 E22.73138
G1 X151.541 Y130.356 E22.7548
G1 X151.223 Y131.344 E22.78932
G1 X151.193 Y131.416 E22.79192
G1 X150.886 Y132.049 E22.81531
G1 X150.509 Y132.644 E22.83874
G1 X149.854 Y133.415 E22.87239
G1 X140.815 Y142.454 E23.29756
G1 X140.29 Y142.923 E23.32097
G1 X139.715 Y143.329 E23.34438
G1 X138.816 Y143.793 E23.37803
G1 X138.744 Y143.823 E23.38063
G1 X138.079 Y144.057 E23.40407
G1 X137.393 Y144.213 E23.42747
G1 X136.359 Y144.3 E23.46198
G1 X83.642 Y144.301 E25.21536
G1 X82.939 Y144.261 E25.23878
G1 X82.245 Y144.142 E25.2622
G1 X81.257 Y143.824 E25.29672
G1 X81.185 Y143.794 E25.29931
G1 X80.552 Y143.487 E25.32271
G1 X79.957 Y143.11 E25.34614
G1 X79.186 Y142.455 E25.37979
G1 X70.146 Y133.415 E25.805
G1 X69.677 Y132.89 E25.82842
G1 X69.271 Y132.315 E25.85183
G1 X68.807 Y131.416 E25.88548
G1 X68.777 Y131.344 E25.88807
G1 X68.543 Y130.679 E25.91152
G1 X68.387 Y129.993 E25.93492
G1 X68.3 Y128.959 E25.96943
G1 X68.3 Y86.017 E27.39769
G1 X68.34 Y85.314 E27.42111
G1 X68.459 Y84.62 E27.44453
G1 X68.657 Y83.945 E27.46792
G1 X68.929 Y83.296 E27.49133
G1 X69.274 Y82.682 E27.51475
G1 X69.685 Y82.111 E27.53815
G1 X70.116 Y81.633 E27.55956
G1 X70.165 Y81.584 E27.56186
G0 F1080 X70.233 Y81.516
G0 X70.758 Y81.047
G0 F6000 X71.025 Y81.346
G1 F1200 X71.583 Y80.957 E27.58449
G1 X72.183 Y80.635 E27.60714
G1 X72.817 Y80.386 E27.62979
G1 X73.476 Y80.213 E27.65245
G1 X74.15 Y80.119 E27.67509
G1 X74.617 Y80.1 E27.69063
G1 X145.383 Y80.099 E30.04432
G1 X146.063 Y80.139 E30.06697
G1 X146.733 Y80.258 E30.08961
G1 X147.385 Y80.455 E30.11226
G1 X148.009 Y80.727 E30.1349
G1 X148.597 Y81.071 E30.15756
G1 X149.14 Y81.481 E30.18019
G1 X149.484 Y81.798 E30.19575
G1 X149.601 Y81.915 E30.20125
G1 X150.054 Y82.424 E30.22392
G1 X150.443 Y82.982 E30.24654
G1 X150.765 Y83.582 E30.26919
G1 X151.014 Y84.216 E30.29184
G1 X151.187 Y84.875 E30.3145
G1 X151.281 Y85.549 E30.33714
G1 X151.3 Y86.016 E30.35268
G1 X151.3 Y128.959 E31.78097
G1 X151.26 Y129.639 E31.80363
G1 X151.141 Y130.309 E31.82626
G1 X150.854 Y131.19 E31.85708
G1 X150.824 Y131.262 E31.85967
G1 X150.526 Y131.874 E31.88231
G1 X150.158 Y132.447 E31.90496
G1 X149.571 Y133.132 E31.93497
G1 X140.532 Y142.171 E32.36014
G1 X140.023 Y142.624 E32.3828
G1 X139.465 Y143.013 E32.40542
G1 X138.662 Y143.424 E32.43542
G1 X138.59 Y143.454 E32.43802
G1 X137.947 Y143.678 E32.46067
G1 X137.282 Y143.826 E32.48333
G1 X136.359 Y143.9 E32.51412
G1 X83.642 Y143.901 E34.2675
G1 X82.962 Y143.861 E34.29015
G1 X82.292 Y143.742 E34.31279
G1 X81.411 Y143.455 E34.3436
G1 X81.339 Y143.425 E34.3462
G1 X80.727 Y143.127 E34.36884
G1 X80.154 Y142.759 E34.39149
G1 X79.469 Y142.172 E34.42149
G1 X70.429 Y133.132 E34.84671
G1 X69.976 Y132.623 E34.86937
G1 X69.587 Y132.065 E34.89199
G1 X69.176 Y131.262 E34.922
G1 X69.146 Y131.19 E34.92459
G1 X68.922 Y130.547 E34.94724
G1 X68.774 Y129.882 E34.9699
G1 X68.7 Y128.959 E35.00069
G1 X68.7 Y86.017 E36.42895
G1 X68.74 Y85.337 E36.45161
G1 X68.859 Y84.667 E36.47424
G1 X69.056 Y84.015 E36.49689
G1 X69.328 Y83.391 E36.51953
G1 X69.672 Y82.803 E36.54219
G1 X70.082 Y82.259 E36.56485
G1 X70.399 Y81.916 E36.58038
G1 X70.432 Y81.883 E36.58194
G0 F1080 X70.516 Y81.799
G0 X71.025 Y81.346
G0 F6000 X71.291 Y81.646
G1 F1200 X71.832 Y81.274 E36.60377
G1 X72.414 Y80.97 E36.62561
G1 X73.029 Y80.739 E36.64746
G1 X73.668 Y80.584 E36.66933
G1 X74.617 Y80.5 E36.70102
G1 X145.383 Y80.499 E39.05471
G1 X146.039 Y80.539 E39.07656
G1 X146.685 Y80.658 E39.09841
G1 X147.311 Y80.855 E39.12024
G1 X147.91 Y81.127 E39.14212
G1 X148.471 Y81.469 E39.16397
G1 X149.201 Y82.081 E39.19566
G1 X149.318 Y82.198 E39.20116
G1 X149.754 Y82.69 E39.22302
G1 X150.126 Y83.231 E39.24486
G1 X150.43 Y83.813 E39.2667
G1 X150.661 Y84.428 E39.28855
G1 X150.816 Y85.067 E39.31042
G1 X150.9 Y86.016 E39.34211
G1 X150.9 Y128.959 E40.7704
G1 X150.86 Y129.615 E40.79226
G1 X150.741 Y130.261 E40.8141
G1 X150.485 Y131.036 E40.84125
G1 X150.455 Y131.108 E40.84385
G1 X150.166 Y131.698 E40.8657
G1 X149.807 Y132.248 E40.88754
G1 X149.288 Y132.849 E40.91395
G1 X140.249 Y141.888 E41.33912
G1 X139.757 Y142.324 E41.36098
G1 X139.216 Y142.696 E41.38282
G1 X138.508 Y143.055 E41.40922
G1 X138.436 Y143.085 E41.41182
G1 X137.815 Y143.3 E41.43368
G1 X137.173 Y143.438 E41.45552
G1 X136.359 Y143.5 E41.48267
G1 X83.642 Y143.501 E43.23604
G1 X82.986 Y143.461 E43.2579
G1 X82.34 Y143.342 E43.27975
G1 X81.565 Y143.086 E43.3069
G1 X81.493 Y143.056 E43.30949
G1 X80.903 Y142.767 E43.33134
G1 X80.353 Y142.408 E43.35319
G1 X79.752 Y141.889 E43.3796
G1 X70.712 Y132.849 E43.80481
G1 X70.276 Y132.357 E43.82668
G1 X69.904 Y131.816 E43.84851
G1 X69.545 Y131.108 E43.87492
G1 X69.515 Y131.036 E43.87751
G1 X69.3 Y130.415 E43.89937
G1 X69.162 Y129.773 E43.92121
G1 X69.1 Y128.959 E43.94836
G1 X69.1 Y86.017 E45.37662
G1 X69.14 Y85.361 E45.39848
G1 X69.259 Y84.715 E45.42032
G1 X69.456 Y84.088 E45.44218
G1 X69.728 Y83.49 E45.46403
G1 X70.07 Y82.929 E45.48589
G1 X70.682 Y82.199 E45.51757
G1 X70.698 Y82.183 E45.51832
G0 F1080 X70.799 Y82.082
G0 X71.291 Y81.646
G0 F6000 X71.556 Y81.947
G1 F1200 X72.079 Y81.592 E45.53935
G1 X72.643 Y81.306 E45.56038
G1 X73.238 Y81.094 E45.58139
G1 X73.856 Y80.958 E45.60244
G1 X74.617 Y80.9 E45.62782
G1 X145.383 Y80.899 E47.98151
G1 X146.014 Y80.939 E48.00254
G1 X146.635 Y81.058 E48.02357
G1 X147.235 Y81.255 E48.04457
G1 X147.807 Y81.526 E48.06562
G1 X148.339 Y81.866 E48.08662
G1 X148.919 Y82.363 E48.11203
G1 X149.036 Y82.48 E48.11753
G1 X149.453 Y82.955 E48.13855
G1 X149.808 Y83.478 E48.15958
G1 X150.094 Y84.042 E48.18061
G1 X150.306 Y84.637 E48.20162
G1 X150.442 Y85.255 E48.22266
G1 X150.5 Y86.016 E48.24805
G1 X150.5 Y128.959 E49.67634
G1 X150.46 Y129.59 E49.69737
G1 X150.341 Y130.211 E49.7184
G1 X150.115 Y130.882 E49.74195
G1 X150.085 Y130.954 E49.74454
G1 X149.806 Y131.521 E49.76556
G1 X149.457 Y132.048 E49.78658
G1 X149.006 Y132.567 E49.80945
G1 X139.967 Y141.606 E50.23462
G1 X139.492 Y142.023 E50.25564
G1 X138.969 Y142.378 E50.27666
G1 X138.354 Y142.685 E50.29953
G1 X138.282 Y142.715 E50.30212
G1 X137.684 Y142.921 E50.32316
G1 X137.065 Y143.05 E50.34419
G1 X136.359 Y143.1 E50.36773
G1 X83.642 Y143.101 E52.1211
G1 X83.011 Y143.061 E52.14213
G1 X82.39 Y142.942 E52.16316
G1 X81.719 Y142.716 E52.18671
G1 X81.647 Y142.686 E52.18931
G1 X81.08 Y142.407 E52.21032
G1 X80.553 Y142.058 E52.23135
G1 X80.034 Y141.607 E52.25422
G1 X70.994 Y132.567 E52.67943
G1 X70.577 Y132.092 E52.70045
G1 X70.222 Y131.569 E52.72148
G1 X69.915 Y130.954 E52.74434
G1 X69.885 Y130.882 E52.74693
G1 X69.679 Y130.284 E52.76797
G1 X69.55 Y129.665 E52.789
G1 X69.5 Y128.959 E52.81254
G1 X69.5 Y86.017 E54.2408
G1 X69.54 Y85.386 E54.26183
G1 X69.659 Y84.765 E54.28286
G1 X69.856 Y84.165 E54.30386
G1 X70.127 Y83.593 E54.32491
G1 X70.467 Y83.061 E54.34591
G1 X70.963 Y82.483 E54.37124
G0 F1080 X70.964 Y82.481
G0 X71.081 Y82.364
G0 X71.556 Y81.947
G0 F6000 X71.82 Y82.248
G1 F1200 X72.325 Y81.912 E54.39142
G1 X72.869 Y81.645 E54.41157
G1 X73.444 Y81.452 E54.43175
G1 X74.039 Y81.336 E54.45191
G1 X74.617 Y81.3 E54.47117
G1 X145.383 Y81.299 E56.82486
G1 X145.988 Y81.339 E56.84502
G1 X146.582 Y81.458 E56.86517
G1 X147.156 Y81.654 E56.88535
G1 X147.699 Y81.924 E56.90552
G1 X148.201 Y82.264 E56.92568
G1 X148.636 Y82.646 E56.94494
G1 X148.753 Y82.763 E56.95044
G1 X149.152 Y83.219 E56.97059
G1 X149.488 Y83.724 E56.99077
G1 X149.755 Y84.268 E57.01092
G1 X149.948 Y84.843 E57.0311
G1 X150.064 Y85.438 E57.05126
G1 X150.1 Y86.016 E57.07052
G1 X150.1 Y128.959 E58.49881
G1 X150.06 Y129.564 E58.51898
G1 X149.941 Y130.158 E58.53913
G1 X149.746 Y130.728 E58.55916
G1 X149.716 Y130.8 E58.56176
G1 X149.447 Y131.343 E58.58191
G1 X149.108 Y131.846 E58.60209
G1 X148.723 Y132.284 E58.62148
G1 X139.684 Y141.323 E59.04665
G1 X139.228 Y141.722 E59.0668
G1 X138.723 Y142.058 E59.08698
G1 X138.2 Y142.316 E59.10637
G1 X138.128 Y142.346 E59.10897
G1 X137.554 Y142.542 E59.12914
G1 X136.96 Y142.661 E59.14929
G1 X136.359 Y142.7 E59.16932
G1 X83.642 Y142.701 E60.9227
G1 X83.037 Y142.661 E60.94286
G1 X82.443 Y142.542 E60.96301
G1 X81.873 Y142.347 E60.98305
G1 X81.801 Y142.317 E60.98564
G1 X81.258 Y142.048 E61.0058
G1 X80.755 Y141.709 E61.02597
G1 X80.317 Y141.324 E61.04537
G1 X71.277 Y132.284 E61.47058
G1 X70.878 Y131.828 E61.49074
G1 X70.542 Y131.323 E61.51091
G1 X70.284 Y130.8 E61.53031
G1 X70.254 Y130.728 E61.5329
G1 X70.058 Y130.154 E61.55307
G1 X69.939 Y129.56 E61.57322
G1 X69.9 Y128.959 E61.59325
G1 X69.9 Y86.017 E63.02151
G1 X69.94 Y85.412 E63.04168
G1 X70.059 Y84.818 E63.06183
G1 X70.255 Y84.244 E63.082
G1 X70.526 Y83.701 E63.10218
G1 X70.865 Y83.198 E63.12236
G1 X71.228 Y82.786 E63.14062
G0 F1080 X71.247 Y82.764
G0 X71.364 Y82.647
G0 X71.82 Y82.248
G0 F6000 X72.084 Y82.55
G1 F1200 X72.569 Y82.233 E63.15989
G1 X73.093 Y81.986 E63.17916
G1 X73.646 Y81.814 E63.19842
G1 X74.218 Y81.719 E63.21771
G1 X74.617 Y81.7 E63.23099
G1 X145.383 Y81.699 E65.58468
G1 X145.961 Y81.739 E65.60395
G1 X146.528 Y81.858 E65.62322
G1 X147.073 Y82.054 E65.64248
G1 X147.586 Y82.323 E65.66175
G1 X148.057 Y82.66 E65.68101
G1 X148.353 Y82.929 E65.69432
G1 X148.47 Y83.046 E65.69982
G1 X148.85 Y83.483 E65.71908
G1 X149.167 Y83.968 E65.73835
G1 X149.414 Y84.492 E65.75762
G1 X149.586 Y85.045 E65.77688
G1 X149.681 Y85.617 E65.79617
G1 X149.7 Y86.016 E65.80945
G1 X149.7 Y128.959 E67.23774
G1 X149.66 Y129.537 E67.25701
G1 X149.541 Y130.104 E67.27628
G1 X149.377 Y130.574 E67.29284
G1 X149.347 Y130.646 E67.29543
G1 X149.088 Y131.164 E67.3147
G1 X148.76 Y131.642 E67.33398
G1 X148.44 Y132.001 E67.34997
G1 X139.401 Y141.04 E67.77514
G1 X138.964 Y141.42 E67.7944
G1 X138.479 Y141.737 E67.81367
G1 X138.046 Y141.947 E67.82968
G1 X137.974 Y141.977 E67.83227
G1 X137.426 Y142.162 E67.85151
G1 X136.856 Y142.27 E67.8708
G1 X136.359 Y142.3 E67.88736
G1 X83.642 Y142.301 E69.64074
G1 X83.064 Y142.261 E69.66001
G1 X82.497 Y142.142 E69.67928
G1 X82.027 Y141.978 E69.69584
G1 X81.955 Y141.948 E69.69843
G1 X81.437 Y141.689 E69.71769
G1 X80.959 Y141.361 E69.73697
G1 X80.6 Y141.041 E69.75297
G1 X71.56 Y132.001 E70.17818
G1 X71.18 Y131.564 E70.19744
G1 X70.863 Y131.079 E70.21672
G1 X70.653 Y130.646 E70.23272
