;FLAVOR:Marlin
;TIME:9261
;Filament used: 8.06787m
;Layer height: 0.2
;MINX:64.7
;MINY:76.1
;MINZ:0.2
;MAXX:155.3
;MAXY:147.863
;MAXZ:15.2
;Generated with Cura_SteamEngine 4.8.0
M140 S60
M105
M190 S60
M104 S205
M105
M109 S205
M82 ;absolute extrusion mode
M201 X500.00 Y500.00 Z100.00 E5000.00 ;Setup machine max acceleration
M203 X500.00 Y500.00 Z10.00 E50.00 ;Setup machine max feedrate
M204 P500.00 R1000.00 T500.00 ;Setup Print/Retract/Travel acceleration
M205 X8.00 Y8.00 Z0.40 E5.00 ;Setup Jerk
M220 S100 ;Reset Feedrate
M221 S100 ;Reset Flowrate

G28 ;Home
G29

G92 E0 ;Reset Extruder
G1 Z2.0 F3000 ;Move Z Axis up
G1 X10.1 Y20 Z0.28 F5000.0 ;Move to start position
G1 X10.1 Y200.0 Z0.28 F1500.0 E15 ;Draw the first line
G1 X10.4 Y200.0 Z0.28 F5000.0 ;Move to side a little
G1 X10.4 Y20 Z0.28 F1500.0 E30 ;Draw the second line
G92 E0 ;Reset Extruder
G1 Z2.0 F3000 ;Move Z Axis up
G92 E0
G92 E0
G1 F2700 E-5
;LAYER_COUNT:75
;LAYER:0
M107
G1 F300 Z0.4
G0 F6000 X68.341 Y78.373 Z0.4
;TYPE:SKIRT
G1 F300 Z0.2
G1 F2700 E0
G1 F1200 X69.046 Y77.838 E0.03562
G1 X69.796 Y77.368 E0.07124
G1 X70.586 Y76.968 E0.10687
G1 X71.408 Y76.64 E0.14249
G1 X72.257 Y76.389 E0.17812
G1 X73.125 Y76.214 E0.21376
G1 X74.005 Y76.119 E0.24938
G1 X74.617 Y76.1 E0.27402
G1 X145.383 Y76.1 E3.12198
G1 X146.267 Y76.14 E3.15759
G1 X147.144 Y76.26 E3.19322
G1 X148.007 Y76.458 E3.22885
G1 X148.848 Y76.733 E3.26446
G1 X149.661 Y77.083 E3.30008
G1 X150.44 Y77.505 E3.33574
G1 X151.176 Y77.996 E3.37134
G1 X151.866 Y78.551 E3.40698
G1 X152.313 Y78.97 E3.43164
G1 X152.43 Y79.087 E3.4383
G1 X153.027 Y79.741 E3.47393
G1 X153.562 Y80.446 E3.50955
G1 X154.032 Y81.196 E3.54517
G1 X154.432 Y81.986 E3.58081
G1 X154.76 Y82.808 E3.61643
G1 X155.011 Y83.657 E3.65206
G1 X155.186 Y84.525 E3.68769
G1 X155.281 Y85.405 E3.72331
G1 X155.3 Y86.017 E3.74795
G1 X155.299 Y126.114 E5.36165
G1 X155.251 Y127.086 E5.40081
G1 X155.116 Y128.44 E5.45558
G1 X154.988 Y129.316 E5.4912
G1 X154.747 Y130.295 E5.53178
G1 X154.355 Y131.596 E5.58646
G1 X153.909 Y132.791 E5.6378
G1 X153.601 Y133.417 E5.66587
G1 X152.965 Y134.604 E5.72007
G1 X152.469 Y135.43 E5.75884
G1 X151.898 Y136.202 E5.79749
G1 X151.031 Y137.261 E5.85257
G1 X150.378 Y137.983 E5.89175
G1 X143.398 Y144.963 E6.28901
G1 X142.744 Y145.56 E6.32465
G1 X142.039 Y146.095 E6.36027
G1 X141.289 Y146.565 E6.39589
G1 X140.237 Y147.079 E6.44301
G1 X140.165 Y147.109 E6.44615
G1 X139.334 Y147.412 E6.48174
G1 X138.478 Y147.639 E6.51738
G1 X137.605 Y147.788 E6.55303
G1 X136.395 Y147.863 E6.60181
G1 X128.949 Y147.862 E6.90148
G1 X128.064 Y147.822 E6.93713
G1 X126.761 Y147.614 E6.99023
G1 X126.713 Y147.603 E6.99221
G1 X125.86 Y147.367 E7.02783
G1 X125.032 Y147.054 E7.06346
G1 X124.585 Y146.849 E7.08325
G1 X124.274 Y146.696 E7.0972
G1 X122.691 Y145.942 E7.16776
G1 X122.094 Y145.632 E7.19483
G1 X121.462 Y145.274 E7.22407
G1 X120.389 Y144.903 E7.26976
G1 X119.875 Y144.688 E7.29218
G1 X119.518 Y144.519 E7.30808
G1 X119.375 Y144.471 E7.31415
G1 X118.738 Y144.231 E7.34154
G1 X116.583 Y143.333 E7.4355
G1 X116.343 Y143.22 E7.44617
G1 X115.707 Y143.077 E7.47241
G1 X113.723 Y142.505 E7.55551
G1 X113.014 Y142.319 E7.585
G1 X112.733 Y142.217 E7.59704
G1 X112.575 Y142.206 E7.60341
G1 X112.158 Y142.167 E7.62026
G1 X111.011 Y142.035 E7.66673
G1 X109.778 Y141.971 E7.71642
G1 X109.285 Y141.923 E7.73635
G1 X108.882 Y142.005 E7.7529
G1 X107.517 Y142.198 E7.80838
G1 X106.218 Y142.461 E7.86172
G1 X105.506 Y142.572 E7.89072
G1 X105.186 Y142.711 E7.90476
G1 X104.076 Y143.073 E7.95175
G1 X103.635 Y143.188 E7.97009
G1 X103.468 Y143.225 E7.97698
G1 X102.671 Y143.578 E8.01206
G1 X101.533 Y144.022 E8.06122
G1 X100.738 Y144.336 E8.09562
G1 X100.373 Y144.461 E8.11115
G1 X98.586 Y145.252 E8.18979
G1 X98.221 Y145.437 E8.20626
G1 X97.669 Y145.681 E8.23055
G1 X96.901 Y145.98 E8.26372
G1 X96.183 Y146.381 E8.29681
G1 X95.461 Y146.728 E8.32905
G1 X95.236 Y146.839 E8.33915
G1 X94.426 Y147.195 E8.37476
G1 X93.586 Y147.476 E8.4104
G1 X93.039 Y147.615 E8.43312
G1 X92.168 Y147.774 E8.46875
G1 X90.85 Y147.863 E8.52191
G1 X83.604 Y147.863 E8.81353
G1 X82.72 Y147.823 E8.84914
G1 X81.843 Y147.703 E8.88476
G1 X80.98 Y147.505 E8.9204
G1 X79.835 Y147.109 E8.96916
G1 X79.763 Y147.079 E8.9723
G1 X78.962 Y146.702 E9.00792
G1 X78.198 Y146.254 E9.04357
G1 X77.478 Y145.74 E9.07917
G1 X76.602 Y144.962 E9.12632
G1 X69.616 Y137.975 E9.52395
G1 X68.962 Y137.253 E9.56316
G1 X68.101 Y136.201 E9.61787
G1 X67.519 Y135.412 E9.65733
G1 X67.035 Y134.604 E9.69523
G1 X66.399 Y133.417 E9.74943
G1 X66.091 Y132.791 E9.7775
G1 X65.64 Y131.58 E9.82951
G1 X65.245 Y130.261 E9.88492
G1 X65.03 Y129.403 E9.92052
G1 X64.881 Y128.415 E9.96073
G1 X64.748 Y127.071 E10.01509
G1 X64.7 Y126.106 E10.05397
G1 X64.7 Y86.017 E11.66734
G1 X64.74 Y85.133 E11.70295
G1 X64.86 Y84.256 E11.73858
G1 X65.058 Y83.393 E11.77421
G1 X65.333 Y82.552 E11.80982
G1 X65.683 Y81.739 E11.84544
G1 X66.105 Y80.96 E11.8811
G1 X66.596 Y80.224 E11.91671
G1 X67.151 Y79.534 E11.95234
G1 X67.57 Y79.087 E11.977
G1 X67.687 Y78.97 E11.98366
G1 X68.341 Y78.373 E12.0193
G0 F6000 X68.611 Y78.669
G1 F1200 X69.303 Y78.146 E12.0542
G1 X70.04 Y77.69 E12.08908
G1 X70.815 Y77.303 E12.12394
G1 X71.624 Y76.989 E12.15887
G1 X72.457 Y76.751 E12.19373
G1 X73.309 Y76.591 E12.22862
G1 X74.172 Y76.511 E12.2635
G1 X74.617 Y76.5 E12.28142
G1 X145.383 Y76.5 E15.12938
G1 X146.249 Y76.54 E15.16427
G1 X147.108 Y76.66 E15.19917
G1 X147.952 Y76.858 E15.23406
G1 X148.774 Y77.133 E15.26894
G1 X149.567 Y77.483 E15.30383
G1 X150.325 Y77.904 E15.33872
G1 X151.04 Y78.393 E15.37359
G1 X151.708 Y78.946 E15.40849
G1 X152.03 Y79.253 E15.42639
G1 X152.147 Y79.37 E15.43305
G1 X152.731 Y80.011 E15.46795
G1 X153.254 Y80.703 E15.50286
G1 X153.71 Y81.44 E15.53773
G1 X154.097 Y82.215 E15.5726
G1 X154.411 Y83.024 E15.60752
G1 X154.649 Y83.857 E15.64239
G1 X154.809 Y84.709 E15.67727
G1 X154.889 Y85.572 E15.71215
G1 X154.9 Y86.017 E15.73007
G1 X154.899 Y126.114 E17.34376
G1 X154.853 Y127.047 E17.38136
G1 X154.718 Y128.401 E17.43612
G1 X154.592 Y129.258 E17.47098
G1 X154.364 Y130.18 E17.5092
G1 X153.972 Y131.481 E17.56389
G1 X153.535 Y132.646 E17.61396
G1 X153.249 Y133.228 E17.64006
G1 X152.613 Y134.415 E17.69425
G1 X152.136 Y135.208 E17.7315
G1 X151.588 Y135.949 E17.76859
G1 X150.721 Y137.008 E17.82367
G1 X150.095 Y137.7 E17.86122
G1 X143.115 Y144.68 E18.25849
G1 X142.474 Y145.264 E18.29338
G1 X141.782 Y145.787 E18.32829
G1 X141.045 Y146.243 E18.36317
G1 X140.083 Y146.71 E18.40621
G1 X140.011 Y146.74 E18.40935
G1 X139.197 Y147.036 E18.4442
G1 X138.358 Y147.256 E18.47911
G1 X137.503 Y147.398 E18.51399
G1 X136.395 Y147.463 E18.55866
G1 X128.949 Y147.462 E18.85832
G1 X128.083 Y147.422 E18.89321
G1 X126.85 Y147.224 E18.94347
G1 X126.802 Y147.213 E18.94545
G1 X125.967 Y146.981 E18.98033
G1 X125.157 Y146.673 E19.0152
G1 X124.762 Y146.49 E19.03272
G1 X124.485 Y146.354 E19.04514
G1 X122.863 Y145.581 E19.11745
G1 X122.291 Y145.283 E19.14341
G1 X121.635 Y144.912 E19.17374
G1 X121.602 Y144.904 E19.17511
G1 X120.544 Y144.534 E19.22021
G1 X120.03 Y144.319 E19.24264
G1 X119.668 Y144.148 E19.25875
G1 X119.503 Y144.092 E19.26576
G1 X118.892 Y143.862 E19.29204
G1 X116.737 Y142.964 E19.38599
G1 X116.477 Y142.841 E19.39757
G1 X115.818 Y142.693 E19.42475
G1 X113.829 Y142.119 E19.50806
G1 X113.115 Y141.931 E19.53778
G1 X112.816 Y141.822 E19.55058
G1 X112.603 Y141.807 E19.55918
G1 X112.204 Y141.769 E19.57531
G1 X111.046 Y141.636 E19.62222
G1 X109.799 Y141.571 E19.67247
G1 X109.269 Y141.519 E19.6939
G1 X108.825 Y141.609 E19.71214
G1 X107.453 Y141.803 E19.7679
G1 X106.139 Y142.069 E19.82186
G1 X105.398 Y142.184 E19.85203
G1 X105.04 Y142.339 E19.86773
G1 X103.975 Y142.686 E19.91281
G1 X103.534 Y142.801 E19.93115
G1 X103.29 Y142.867 E19.94133
G1 X102.526 Y143.205 E19.97495
G1 X101.424 Y143.635 E20.02255
G1 X100.591 Y143.964 E20.0586
G1 X100.219 Y144.091 E20.07442
G1 X98.442 Y144.879 E20.15265
G1 X98.059 Y145.072 E20.16991
G1 X97.507 Y145.316 E20.1942
G1 X96.732 Y145.616 E20.22764
G1 X96.01 Y146.02 E20.26094
G1 X95.377 Y146.324 E20.2892
G1 X95.059 Y146.481 E20.30347
G1 X94.265 Y146.828 E20.33834
G1 X93.442 Y147.101 E20.37324
G1 X92.95 Y147.225 E20.39366
G1 X92.097 Y147.38 E20.42855
G1 X90.85 Y147.463 E20.47885
G1 X83.604 Y147.463 E20.77046
G1 X82.738 Y147.423 E20.80535
G1 X81.879 Y147.303 E20.84026
G1 X81.035 Y147.105 E20.87514
G1 X79.989 Y146.74 E20.91973
G1 X79.917 Y146.71 E20.92287
G1 X79.133 Y146.34 E20.95776
G1 X78.386 Y145.899 E20.99267
G1 X77.683 Y145.392 E21.02755
G1 X76.885 Y144.679 E21.07062
G1 X69.899 Y137.692 E21.46825
G1 X69.272 Y137 E21.50583
G1 X68.411 Y135.948 E21.56054
G1 X67.852 Y135.19 E21.59845
G1 X67.387 Y134.415 E21.63482
G1 X66.751 Y133.228 E21.68902
G1 X66.456 Y132.626 E21.716
G1 X66.023 Y131.466 E21.76583
G1 X65.628 Y130.147 E21.82124
G1 X65.418 Y129.306 E21.85612
G1 X65.279 Y128.376 E21.89397
G1 X65.146 Y127.032 E21.94832
G1 X65.1 Y126.106 E21.98563
G1 X65.1 Y86.017 E23.599
G1 X65.14 Y85.151 E23.63389
G1 X65.26 Y84.292 E23.6688
G1 X65.458 Y83.448 E23.70369
G1 X65.733 Y82.626 E23.73857
G1 X66.083 Y81.833 E23.77346
G1 X66.504 Y81.075 E23.80835
G1 X66.993 Y80.36 E23.84321
G1 X67.546 Y79.692 E23.87811
G1 X67.853 Y79.37 E23.89602
G1 X67.97 Y79.253 E23.90268
G1 X68.611 Y78.669 E23.93757
G0 F6000 X68.88 Y78.965
G1 F1200 X69.559 Y78.456 E23.97172
G1 X70.282 Y78.013 E24.00585
G1 X71.044 Y77.64 E24.03999
G1 X71.838 Y77.34 E24.07415
G1 X72.656 Y77.116 E24.10828
G1 X73.492 Y76.971 E24.14243
G1 X74.617 Y76.9 E24.1878
G1 X145.383 Y76.9 E27.03576
G1 X146.23 Y76.94 E27.06988
G1 X147.07 Y77.06 E27.10403
G1 X147.895 Y77.258 E27.13818
G1 X148.698 Y77.533 E27.17234
G1 X149.471 Y77.882 E27.20647
G1 X150.207 Y78.302 E27.24057
G1 X150.901 Y78.79 E27.27472
G1 X151.747 Y79.536 E27.32011
G1 X151.864 Y79.653 E27.32677
G1 X152.435 Y80.28 E27.3609
G1 X152.944 Y80.959 E27.39505
G1 X153.387 Y81.682 E27.42917
G1 X153.76 Y82.444 E27.46332
G1 X154.06 Y83.238 E27.49748
G1 X154.284 Y84.056 E27.53161
G1 X154.429 Y84.892 E27.56576
G1 X154.5 Y86.017 E27.61112
G1 X154.499 Y126.114 E29.22482
G1 X154.455 Y127.007 E29.2608
G1 X154.32 Y128.361 E29.31556
G1 X154.196 Y129.2 E29.34969
G1 X153.981 Y130.064 E29.38552
G1 X153.589 Y131.365 E29.44021
G1 X153.17 Y132.482 E29.48822
G1 X152.896 Y133.04 E29.51324
G1 X152.26 Y134.227 E29.56743
G1 X151.803 Y134.986 E29.60309
G1 X151.279 Y135.695 E29.63857
G1 X150.412 Y136.754 E29.69365
G1 X149.812 Y137.417 E29.72963
G1 X142.832 Y144.397 E30.1269
G1 X142.205 Y144.968 E30.16103
G1 X141.526 Y145.477 E30.19518
G1 X140.803 Y145.92 E30.2293
G1 X139.93 Y146.341 E30.26831
G1 X139.858 Y146.371 E30.27145
G1 X139.06 Y146.66 E30.30561
G1 X138.239 Y146.872 E30.33973
G1 X137.401 Y147.007 E30.37389
G1 X136.395 Y147.063 E30.41444
G1 X128.949 Y147.062 E30.7141
G1 X128.101 Y147.022 E30.74827
G1 X126.94 Y146.835 E30.79559
G1 X126.892 Y146.824 E30.79758
G1 X126.075 Y146.595 E30.83172
G1 X124.938 Y146.131 E30.88114
G1 X124.657 Y145.993 E30.89374
G1 X123.035 Y145.22 E30.96605
G1 X122.487 Y144.935 E30.99091
G1 X121.891 Y144.599 E31.01845
G1 X121.659 Y144.504 E31.02854
G1 X120.698 Y144.165 E31.06955
G1 X120.184 Y143.95 E31.09197
G1 X119.818 Y143.776 E31.10828
G1 X119.631 Y143.713 E31.11622
G1 X119.046 Y143.493 E31.14137
G1 X116.891 Y142.595 E31.23533
G1 X116.608 Y142.461 E31.24793
G1 X115.929 Y142.308 E31.27594
G1 X113.992 Y141.749 E31.35708
G1 X113.217 Y141.544 E31.38934
G1 X112.893 Y141.425 E31.40323
G1 X112.632 Y141.408 E31.41376
G1 X112.25 Y141.372 E31.4292
G1 X111.08 Y141.237 E31.4766
G1 X109.82 Y141.172 E31.52737
G1 X109.256 Y141.116 E31.55018
G1 X108.769 Y141.213 E31.57017
G1 X107.383 Y141.409 E31.6265
G1 X106.059 Y141.677 E31.68087
G1 X105.292 Y141.795 E31.7121
G1 X104.894 Y141.967 E31.72955
G1 X103.874 Y142.299 E31.77272
G1 X103.433 Y142.414 E31.79106
G1 X103.112 Y142.509 E31.80453
G1 X102.38 Y142.832 E31.83673
G1 X101.277 Y143.263 E31.88439
G1 X100.444 Y143.592 E31.92043
G1 X100.077 Y143.717 E31.93604
G1 X99.995 Y143.755 E31.93967
G1 X98.274 Y144.516 E32.0154
G1 X97.898 Y144.706 E32.03236
G1 X97.346 Y144.95 E32.05665
G1 X96.571 Y145.249 E32.09008
G1 X95.837 Y145.66 E32.12393
G1 X95.115 Y146.007 E32.15617
G1 X94.882 Y146.122 E32.16663
G1 X94.105 Y146.461 E32.20074
G1 X92.908 Y146.825 E32.2511
G1 X92.86 Y146.836 E32.25308
G1 X92.026 Y146.986 E32.28718
G1 X90.85 Y147.063 E32.33461
G1 X83.604 Y147.063 E32.62622
G1 X82.757 Y147.023 E32.66035
G1 X81.917 Y146.903 E32.6945
G1 X81.092 Y146.705 E32.72864
G1 X80.142 Y146.371 E32.76917
G1 X80.07 Y146.341 E32.77231
G1 X79.304 Y145.978 E32.80642
G1 X78.574 Y145.544 E32.8406
G1 X77.889 Y145.044 E32.87473
G1 X77.168 Y144.397 E32.91372
G1 X70.182 Y137.41 E33.31135
G1 X69.581 Y136.746 E33.34739
G1 X68.72 Y135.694 E33.4021
G1 X68.185 Y134.968 E33.4384
G1 X67.74 Y134.227 E33.47318
G1 X67.104 Y133.04 E33.52738
G1 X66.821 Y132.462 E33.55328
G1 X66.406 Y131.351 E33.60101
G1 X66.011 Y130.032 E33.65642
G1 X65.807 Y129.209 E33.69054
G1 X65.677 Y128.336 E33.72607
G1 X65.544 Y126.992 E33.78042
G1 X65.5 Y126.106 E33.81612
G1 X65.5 Y86.017 E35.42949
G1 X65.54 Y85.17 E35.46362
G1 X65.66 Y84.33 E35.49777
G1 X65.858 Y83.505 E35.53191
G1 X66.133 Y82.702 E35.56607
G1 X66.482 Y81.929 E35.6002
G1 X66.902 Y81.193 E35.63431
G1 X67.39 Y80.499 E35.66845
G1 X68.136 Y79.653 E35.71384
G1 X68.253 Y79.536 E35.7205
G1 X68.88 Y78.965 E35.75463
G0 F6000 X69.15 Y79.261
G1 F1200 X69.815 Y78.766 E35.78799
G1 X70.524 Y78.336 E35.82137
G1 X71.271 Y77.977 E35.85472
G1 X72.05 Y77.692 E35.8881
G1 X72.852 Y77.483 E35.92146
G1 X73.671 Y77.352 E35.95484
G1 X74.617 Y77.3 E35.99297
G1 X145.383 Y77.3 E38.84093
G1 X146.211 Y77.34 E38.87429
G1 X147.032 Y77.46 E38.90768
G1 X147.837 Y77.658 E38.94104
G1 X148.619 Y77.932 E38.97439
G1 X149.372 Y78.281 E39.00779
G1 X150.087 Y78.701 E39.04116
G1 X150.758 Y79.187 E39.07451
G1 X151.464 Y79.819 E39.11264
G1 X151.581 Y79.936 E39.1193
G1 X152.139 Y80.55 E39.15269
G1 X152.634 Y81.215 E39.18605
G1 X153.064 Y81.924 E39.21942
G1 X153.423 Y82.671 E39.25278
G1 X153.708 Y83.45 E39.28616
G1 X153.917 Y84.252 E39.31952
G1 X154.048 Y85.071 E39.3529
G1 X154.1 Y86.017 E39.39102
G1 X154.099 Y126.114 E41.00472
G1 X154.057 Y126.967 E41.03909
G1 X153.922 Y128.321 E41.09385
G1 X153.8 Y129.141 E41.12721
G1 X153.598 Y129.949 E41.16073
G1 X153.206 Y131.25 E41.21542
G1 X152.806 Y132.318 E41.26131
G1 X152.543 Y132.851 E41.28523
G1 X151.907 Y134.038 E41.33943
G1 X151.471 Y134.764 E41.37351
G1 X150.969 Y135.442 E41.40746
G1 X150.102 Y136.501 E41.46254
G1 X149.529 Y137.134 E41.4969
G1 X142.549 Y144.114 E41.89417
G1 X141.935 Y144.672 E41.92756
G1 X141.27 Y145.167 E41.96092
G1 X140.561 Y145.597 E41.99429
G1 X139.776 Y145.971 E42.02929
G1 X139.704 Y146.001 E42.03243
G1 X138.924 Y146.283 E42.06581
G1 X138.12 Y146.488 E42.0992
G1 X137.301 Y146.615 E42.13255
G1 X136.395 Y146.663 E42.16907
G1 X128.949 Y146.662 E42.46873
G1 X128.121 Y146.622 E42.50209
G1 X127.029 Y146.445 E42.54661
G1 X126.981 Y146.434 E42.54859
G1 X126.183 Y146.21 E42.58195
G1 X125.114 Y145.772 E42.62844
G1 X124.741 Y145.589 E42.64516
G1 X123.207 Y144.858 E42.71355
G1 X122.684 Y144.587 E42.73725
G1 X122.088 Y144.251 E42.76479
G1 X121.927 Y144.156 E42.77231
G1 X121.717 Y144.104 E42.78102
G1 X120.852 Y143.796 E42.81797
G1 X120.338 Y143.581 E42.84039
G1 X119.971 Y143.406 E42.85676
G1 X119.758 Y143.334 E42.86581
G1 X119.2 Y143.123 E42.88981
G1 X117.045 Y142.225 E42.98377
G1 X116.744 Y142.082 E42.99718
G1 X116.04 Y141.924 E43.02622
G1 X114.109 Y141.367 E43.1071
G1 X113.32 Y141.157 E43.13996
G1 X112.972 Y141.028 E43.1549
G1 X112.661 Y141.009 E43.16743
G1 X112.296 Y140.975 E43.18219
G1 X111.1 Y140.837 E43.23064
G1 X109.84 Y140.772 E43.28142
G1 X109.242 Y140.713 E43.3056
G1 X108.713 Y140.817 E43.3273
G1 X107.316 Y141.015 E43.38408
G1 X105.98 Y141.285 E43.43893
G1 X105.185 Y141.406 E43.4713
G1 X104.748 Y141.594 E43.49044
G1 X103.773 Y141.912 E43.53171
G1 X103.332 Y142.027 E43.55006
G1 X103.072 Y142.082 E43.56075
G1 X102.934 Y142.15 E43.56694
G1 X102.235 Y142.46 E43.59772
G1 X101.097 Y142.904 E43.64688
G1 X100.297 Y143.22 E43.68149
G1 X99.926 Y143.346 E43.69726
G1 X99.833 Y143.389 E43.70139
G1 X98.127 Y144.144 E43.77647
G1 X97.736 Y144.34 E43.79407
