;FLAVOR:Marlin
;TIME:18275
;Filament used: 15.5264m
;Layer height: 0.2
;MINX:68.5
;MINY:33.005
;MINZ:0.2
;MAXX:151.5
;MAXY:185.896
;MAXZ:39
;Generated with Cura_SteamEngine 4.8.0
M140 S60
M105
M190 S60
M104 S205
M105
M109 S205
M82 ;absolute extrusion mode
M201 X500.00 Y500.00 Z100.00 E5000.00 ;Setup machine max acceleration
M203 X500.00 Y500.00 Z10.00 E50.00 ;Setup machine max feedrate
M204 P500.00 R1000.00 T500.00 ;Setup Print/Retract/Travel acceleration
M205 X8.00 Y8.00 Z0.40 E5.00 ;Setup Jerk
M220 S100 ;Reset Feedrate
M221 S100 ;Reset Flowrate

G28 ;Home
G29

G92 E0 ;Reset Extruder
G1 Z2.0 F3000 ;Move Z Axis up
G1 X10.1 Y20 Z0.28 F5000.0 ;Move to start position
G1 X10.1 Y200.0 Z0.28 F1500.0 E15 ;Draw the first line
G1 X10.4 Y200.0 Z0.28 F5000.0 ;Move to side a little
G1 X10.4 Y20 Z0.28 F1500.0 E30 ;Draw the second line
G92 E0 ;Reset Extruder
G1 Z2.0 F3000 ;Move Z Axis up
G92 E0
G92 E0
G1 F3000 E-8
;LAYER_COUNT:195
;LAYER:0
M107
G0 F6000 X69.477 Y37.056 Z0.2
;TYPE:SKIRT
G1 F3000 E0
G1 F1200 X69.892 Y36.433 E0.0249
G1 X70.55 Y35.672 E0.05836
G1 X70.667 Y35.555 E0.06386
G1 X71.224 Y35.055 E0.08876
G1 X71.83 Y34.618 E0.11361
G1 X72.48 Y34.247 E0.1385
G1 X73.166 Y33.948 E0.16339
G1 X73.88 Y33.724 E0.18828
G1 X74.613 Y33.577 E0.21314
G1 X75.614 Y33.505 E0.24652
G1 X78.366 Y33.504 E0.33805
G1 X78.567 Y33.43 E0.34518
G1 X78.826 Y33.346 E0.35423
G1 X79.549 Y33.154 E0.37911
G1 X80.289 Y33.04 E0.40402
G1 X80.986 Y33.005 E0.42723
G1 X85 Y33.005 E0.56073
G1 X85.747 Y33.045 E0.58562
G1 X86.797 Y33.239 E0.62113
G1 X87.038 Y33.303 E0.62942
G1 X87.66 Y33.505 E0.65118
G1 X142.959 Y33.505 E2.49043
G1 X143.706 Y33.545 E2.51531
G1 X144.444 Y33.664 E2.54017
G1 X145.166 Y33.862 E2.56507
G1 X145.651 Y34.043 E2.58229
G1 X145.723 Y34.073 E2.58488
G1 X146.397 Y34.398 E2.60977
G1 X147.033 Y34.792 E2.63465
G1 X147.623 Y35.252 E2.65954
G1 X147.981 Y35.585 E2.6758
G1 X149.42 Y37.024 E2.74349
G1 X149.92 Y37.581 E2.76838
G1 X150.357 Y38.187 E2.79323
G1 X150.728 Y38.837 E2.81812
G1 X150.932 Y39.282 E2.83441
G1 X150.962 Y39.354 E2.837
G1 X151.212 Y40.059 E2.86188
G1 X151.386 Y40.786 E2.88674
G1 X151.481 Y41.528 E2.91162
G1 X151.5 Y42.046 E2.92886
G1 X151.5 Y105.964 E5.05478
G1 X151.46 Y106.711 E5.07966
G1 X151.341 Y107.449 E5.10453
G1 X151.143 Y108.171 E5.12943
G1 X150.962 Y108.656 E5.14665
G1 X150.836 Y108.927 E5.15659
G1 X150.882 Y109.074 E5.16171
G1 X151.029 Y109.807 E5.18657
G1 X151.101 Y110.811 E5.22005
G1 X151.101 Y178.779 E7.48068
G1 X151.061 Y179.526 E7.50556
G1 X150.942 Y180.264 E7.53042
G1 X150.744 Y180.986 E7.55532
G1 X150.471 Y181.682 E7.58019
G1 X150.124 Y182.345 E7.60508
G1 X149.709 Y182.968 E7.62998
G1 X149.051 Y183.729 E7.66344
G1 X148.934 Y183.846 E7.66894
G1 X148.377 Y184.346 E7.69383
G1 X147.771 Y184.783 E7.71868
G1 X147.121 Y185.154 E7.74358
G1 X146.435 Y185.453 E7.76847
G1 X145.721 Y185.677 E7.79336
G1 X144.988 Y185.824 E7.81822
G1 X143.984 Y185.896 E7.8517
G1 X76.016 Y185.896 E10.11232
G1 X75.269 Y185.856 E10.13721
G1 X74.531 Y185.737 E10.16207
G1 X73.809 Y185.539 E10.18697
G1 X73.113 Y185.266 E10.21183
G1 X72.45 Y184.919 E10.23672
G1 X71.827 Y184.504 E10.26162
G1 X71.066 Y183.846 E10.29508
G1 X70.949 Y183.729 E10.30059
G1 X70.449 Y183.172 E10.32548
G1 X70.012 Y182.566 E10.35033
G1 X69.641 Y181.916 E10.37522
G1 X69.342 Y181.23 E10.40011
G1 X69.118 Y180.516 E10.425
G1 X68.971 Y179.783 E10.44987
G1 X68.899 Y178.779 E10.48335
G1 X68.899 Y110.811 E12.74397
G1 X68.939 Y110.064 E12.76885
G1 X68.943 Y109.839 E12.77634
G1 X68.719 Y109.125 E12.80122
G1 X68.572 Y108.392 E12.82609
G1 X68.5 Y107.388 E12.85957
G1 X68.5 Y40.622 E15.08021
G1 X68.54 Y39.875 E15.1051
G1 X68.659 Y39.137 E15.12996
G1 X68.857 Y38.415 E15.15486
G1 X69.111 Y37.767 E15.17801
G0 F1080 X69.13 Y37.719
G0 X69.477 Y37.056
G0 F6000 X69.875 Y37.169
G1 F1200 X70.289 Y36.572 E15.20217
G1 X70.833 Y35.955 E15.22953
G1 X70.95 Y35.838 E15.23503
G1 X71.491 Y35.354 E15.25918
G1 X72.082 Y34.931 E15.28335
G1 X72.716 Y34.577 E15.3075
G1 X73.385 Y34.294 E15.33166
G1 X74.081 Y34.086 E15.35582
G1 X74.796 Y33.956 E15.37999
G1 X75.614 Y33.905 E15.40725
G1 X78.433 Y33.904 E15.50101
G1 X78.691 Y33.811 E15.51014
G1 X78.95 Y33.727 E15.51919
G1 X79.652 Y33.541 E15.54335
G1 X80.37 Y33.434 E15.56749
G1 X80.986 Y33.405 E15.588
G1 X85 Y33.405 E15.72151
G1 X85.725 Y33.445 E15.74566
G1 X86.694 Y33.626 E15.77844
G1 X86.935 Y33.69 E15.78674
G1 X87.595 Y33.905 E15.80982
G1 X142.959 Y33.905 E17.65124
G1 X143.684 Y33.945 E17.67539
G1 X144.401 Y34.064 E17.69956
G1 X145.1 Y34.262 E17.72373
G1 X145.497 Y34.413 E17.73785
G1 X145.569 Y34.443 E17.74045
G1 X146.224 Y34.759 E17.76464
G1 X146.839 Y35.144 E17.78877
G1 X147.408 Y35.595 E17.81292
G1 X147.698 Y35.868 E17.82616
G1 X149.137 Y37.307 E17.89385
G1 X149.621 Y37.848 E17.91799
G1 X150.044 Y38.439 E17.94217
G1 X150.398 Y39.073 E17.96632
G1 X150.562 Y39.436 E17.97957
G1 X150.592 Y39.508 E17.98216
G1 X150.834 Y40.192 E18.00629
G1 X151 Y40.9 E18.03048
G1 X151.086 Y41.621 E18.05463
G1 X151.1 Y42.046 E18.06877
G1 X151.1 Y105.964 E20.19469
G1 X151.06 Y106.689 E20.21884
G1 X150.941 Y107.406 E20.24302
G1 X150.743 Y108.105 E20.26718
G1 X150.592 Y108.502 E20.28131
G1 X150.562 Y108.574 E20.2839
G1 X150.407 Y108.896 E20.29579
G1 X150.52 Y109.275 E20.30894
G1 X150.65 Y109.99 E20.33311
G1 X150.701 Y110.811 E20.36047
G1 X150.701 Y178.779 E22.6211
G1 X150.661 Y179.504 E22.64525
G1 X150.542 Y180.221 E22.66942
G1 X150.344 Y180.92 E22.69359
G1 X150.071 Y181.593 E22.71774
G1 X149.726 Y182.232 E22.74189
G1 X149.312 Y182.829 E22.76606
G1 X148.768 Y183.446 E22.79342
G1 X148.651 Y183.563 E22.79892
G1 X148.11 Y184.047 E22.82306
G1 X147.519 Y184.47 E22.84724
G1 X146.885 Y184.824 E22.87139
G1 X146.216 Y185.107 E22.89555
G1 X145.52 Y185.315 E22.91971
G1 X144.805 Y185.445 E22.94388
G1 X143.984 Y185.496 E22.97124
G1 X76.016 Y185.496 E25.23186
G1 X75.291 Y185.456 E25.25601
G1 X74.574 Y185.337 E25.28019
G1 X73.875 Y185.139 E25.30435
G1 X73.202 Y184.866 E25.32851
G1 X72.563 Y184.521 E25.35266
G1 X71.966 Y184.107 E25.37682
G1 X71.349 Y183.563 E25.40418
G1 X71.232 Y183.446 E25.40969
G1 X70.748 Y182.905 E25.43383
G1 X70.325 Y182.314 E25.458
G1 X69.971 Y181.68 E25.48215
G1 X69.688 Y181.011 E25.50631
G1 X69.48 Y180.315 E25.53047
G1 X69.35 Y179.6 E25.55464
G1 X69.299 Y178.779 E25.582
G1 X69.299 Y110.811 E27.84263
G1 X69.339 Y110.086 E27.86678
G1 X69.38 Y109.836 E27.87521
G1 X69.289 Y109.62 E27.883
G1 X69.081 Y108.924 E27.90716
G1 X68.951 Y108.209 E27.93133
G1 X68.9 Y107.388 E27.95869
G1 X68.9 Y40.622 E30.17934
G1 X68.94 Y39.897 E30.20349
G1 X69.059 Y39.18 E30.22766
G1 X69.257 Y38.481 E30.25183
G1 X69.503 Y37.876 E30.27355
G0 F1080 X69.53 Y37.808
G0 X69.875 Y37.169
G0 F6000 X70.274 Y37.287
G1 F1200 X70.685 Y36.716 E30.29695
G1 X71.116 Y36.238 E30.31835
G1 X71.233 Y36.121 E30.32386
G1 X71.758 Y35.652 E30.34727
G1 X72.333 Y35.246 E30.37068
G1 X72.951 Y34.908 E30.39411
G1 X73.602 Y34.641 E30.41751
G1 X74.28 Y34.451 E30.44093
G1 X74.975 Y34.338 E30.46435
G1 X75.614 Y34.305 E30.48563
G1 X78.544 Y34.304 E30.58309
G1 X78.814 Y34.191 E30.59282
G1 X79.073 Y34.107 E30.60188
G1 X79.754 Y33.929 E30.62529
G1 X80.451 Y33.828 E30.64871
G1 X80.986 Y33.805 E30.66652
G1 X85 Y33.805 E30.80003
G1 X85.703 Y33.845 E30.82345
G1 X86.591 Y34.013 E30.85351
G1 X86.832 Y34.077 E30.8618
G1 X87.501 Y34.296 E30.88522
G1 X87.521 Y34.305 E30.88594
G1 X142.959 Y34.305 E32.72982
G1 X143.662 Y34.345 E32.75324
G1 X144.356 Y34.464 E32.77666
G1 X145.344 Y34.782 E32.81118
G1 X145.416 Y34.812 E32.81377
G1 X146.049 Y35.119 E32.83717
G1 X146.644 Y35.496 E32.8606
G1 X147.415 Y36.151 E32.89425
G1 X148.854 Y37.59 E32.96194
G1 X149.323 Y38.115 E32.98535
G1 X149.729 Y38.69 E33.00876
G1 X150.193 Y39.589 E33.04241
G1 X150.223 Y39.661 E33.045
G1 X150.457 Y40.326 E33.06845
G1 X150.613 Y41.012 E33.09185
G1 X150.7 Y42.046 E33.12636
G1 X150.7 Y105.964 E35.25228
G1 X150.66 Y106.667 E35.2757
G1 X150.541 Y107.361 E35.29912
G1 X150.223 Y108.349 E35.33365
G1 X150.193 Y108.421 E35.33624
G1 X149.982 Y108.856 E35.35232
G1 X150.155 Y109.474 E35.37366
G1 X150.268 Y110.169 E35.39708
G1 X150.301 Y110.811 E35.41847
G1 X150.301 Y178.779 E37.67909
G1 X150.261 Y179.482 E37.70251
G1 X150.142 Y180.176 E37.72593
G1 X149.944 Y180.851 E37.74933
G1 X149.672 Y181.5 E37.77273
G1 X149.327 Y182.114 E37.79616
G1 X148.916 Y182.685 E37.81956
G1 X148.485 Y183.163 E37.84096
G1 X148.368 Y183.28 E37.84647
G1 X147.843 Y183.749 E37.86988
G1 X147.268 Y184.155 E37.89329
G1 X146.65 Y184.493 E37.91672
G1 X145.999 Y184.76 E37.94012
G1 X145.321 Y184.95 E37.96354
G1 X144.626 Y185.063 E37.98696
G1 X143.984 Y185.096 E38.00834
G1 X76.016 Y185.096 E40.26897
G1 X75.313 Y185.056 E40.29239
G1 X74.619 Y184.937 E40.31581
G1 X73.944 Y184.739 E40.3392
G1 X73.295 Y184.467 E40.36261
G1 X72.681 Y184.122 E40.38603
G1 X72.11 Y183.711 E40.40943
G1 X71.632 Y183.28 E40.43084
G1 X71.515 Y183.163 E40.43634
G1 X71.046 Y182.638 E40.45976
G1 X70.64 Y182.063 E40.48317
G1 X70.302 Y181.445 E40.5066
G1 X70.035 Y180.794 E40.53
G1 X69.845 Y180.116 E40.55342
G1 X69.732 Y179.421 E40.57684
G1 X69.699 Y178.779 E40.59822
G1 X69.699 Y110.811 E42.85884
G1 X69.739 Y110.108 E42.88226
G1 X69.794 Y109.788 E42.89306
G1 X69.636 Y109.403 E42.9069
G1 X69.446 Y108.725 E42.93032
G1 X69.333 Y108.03 E42.95374
G1 X69.3 Y107.388 E42.97512
G1 X69.3 Y40.622 E45.19577
G1 X69.34 Y39.919 E45.21919
G1 X69.459 Y39.225 E45.24261
G1 X69.657 Y38.55 E45.266
G1 X69.892 Y37.989 E45.28623
G0 F1080 X69.929 Y37.901
G0 X70.274 Y37.287
G0 F6000 X70.672 Y37.408
G1 F1200 X71.082 Y36.864 E45.30889
G1 X71.399 Y36.521 E45.32443
G1 X71.516 Y36.404 E45.32993
G1 X72.025 Y35.951 E45.35259
G1 X72.583 Y35.562 E45.37522
G1 X73.183 Y35.24 E45.39786
G1 X73.817 Y34.991 E45.42052
G1 X74.476 Y34.818 E45.44318
G1 X75.15 Y34.724 E45.46581
G1 X75.615 Y34.705 E45.48129
G1 X78.616 Y34.704 E45.58111
G1 X78.938 Y34.572 E45.59268
G1 X79.197 Y34.488 E45.60174
G1 X79.856 Y34.316 E45.62439
G1 X80.53 Y34.223 E45.64702
G1 X80.986 Y34.205 E45.6622
G1 X85 Y34.205 E45.79571
G1 X85.68 Y34.245 E45.81836
G1 X86.489 Y34.399 E45.84575
G1 X86.73 Y34.463 E45.85405
G1 X87.376 Y34.676 E45.87667
G1 X87.438 Y34.705 E45.87895
G1 X142.959 Y34.705 E47.72558
G1 X143.639 Y34.745 E47.74824
G1 X144.309 Y34.864 E47.77087
G1 X145.19 Y35.151 E47.80169
G1 X145.262 Y35.181 E47.80428
G1 X145.874 Y35.479 E47.82692
G1 X146.447 Y35.847 E47.84957
G1 X147.132 Y36.434 E47.87958
G1 X148.571 Y37.873 E47.94726
G1 X149.024 Y38.382 E47.96993
G1 X149.413 Y38.94 E47.99255
G1 X149.824 Y39.743 E48.02255
G1 X149.854 Y39.815 E48.02515
G1 X150.078 Y40.458 E48.04779
G1 X150.226 Y41.123 E48.07045
G1 X150.3 Y42.046 E48.10125
G1 X150.3 Y105.964 E50.22717
G1 X150.26 Y106.644 E50.24983
G1 X150.141 Y107.314 E50.27246
G1 X149.854 Y108.195 E50.30328
G1 X149.824 Y108.267 E50.30587
G1 X149.547 Y108.837 E50.32695
G1 X149.615 Y109.011 E50.33317
G1 X149.788 Y109.67 E50.35583
G1 X149.882 Y110.344 E50.37846
G1 X149.901 Y110.811 E50.39401
G1 X149.901 Y178.779 E52.65463
G1 X149.861 Y179.459 E52.67729
G1 X149.742 Y180.129 E52.69992
G1 X149.545 Y180.781 E52.72257
G1 X149.273 Y181.405 E52.74521
G1 X148.929 Y181.993 E52.76787
G1 X148.519 Y182.537 E52.79053
G1 X148.202 Y182.88 E52.80606
G1 X148.085 Y182.997 E52.81157
G1 X147.576 Y183.45 E52.83423
G1 X147.018 Y183.839 E52.85685
G1 X146.418 Y184.161 E52.8795
G1 X145.784 Y184.41 E52.90216
G1 X145.125 Y184.583 E52.92482
G1 X144.451 Y184.677 E52.94745
G1 X143.984 Y184.696 E52.963
G1 X76.016 Y184.696 E55.22362
G1 X75.336 Y184.656 E55.24628
G1 X74.666 Y184.537 E55.26891
G1 X74.014 Y184.34 E55.29157
G1 X73.39 Y184.068 E55.31421
G1 X72.802 Y183.724 E55.33686
G1 X72.258 Y183.314 E55.35952
G1 X71.915 Y182.997 E55.37505
G1 X71.798 Y182.88 E55.38056
G1 X71.345 Y182.371 E55.40322
G1 X70.956 Y181.813 E55.42584
G1 X70.634 Y181.213 E55.44849
G1 X70.385 Y180.579 E55.47115
G1 X70.212 Y179.92 E55.49381
G1 X70.118 Y179.246 E55.51644
G1 X70.099 Y178.779 E55.53199
G1 X70.099 Y110.811 E57.79261
G1 X70.139 Y110.131 E57.81527
G1 X70.207 Y109.75 E57.82814
G1 X69.986 Y109.188 E57.84823
G1 X69.813 Y108.529 E57.87089
G1 X69.719 Y107.855 E57.89352
G1 X69.7 Y107.388 E57.90907
G1 X69.7 Y40.622 E60.12971
G1 X69.74 Y39.942 E60.15237
G1 X69.859 Y39.272 E60.175
G1 X70.056 Y38.62 E60.19766
G1 X70.281 Y38.105 E60.21635
G0 F1080 X70.328 Y37.996
G0 X70.672 Y37.408
G0 F6000 X70.728 Y38.095
G1 F1200 X71.07 Y37.534 E60.2382
G1 X71.682 Y36.804 E60.26989
G1 X71.799 Y36.687 E60.27539
G1 X72.291 Y36.251 E60.29725
G1 X72.832 Y35.879 E60.31909
G1 X73.414 Y35.575 E60.34093
G1 X74.029 Y35.344 E60.36278
G1 X74.668 Y35.189 E60.38465
G1 X75.615 Y35.105 E60.41627
G1 X78.684 Y35.104 E60.51835
G1 X79.061 Y34.952 E60.53187
G1 X79.32 Y34.868 E60.54092
G1 X79.956 Y34.704 E60.56277
G1 X80.607 Y34.618 E60.58461
G1 X80.986 Y34.605 E60.59722
G1 X85 Y34.605 E60.73073
G1 X85.656 Y34.645 E60.75259
G1 X86.386 Y34.786 E60.77732
G1 X86.627 Y34.85 E60.78561
G1 X87.251 Y35.057 E60.80748
G1 X87.352 Y35.105 E60.81119
G1 X142.959 Y35.105 E62.66069
G1 X143.615 Y35.145 E62.68255
G1 X144.261 Y35.264 E62.7044
G1 X145.036 Y35.52 E62.73154
G1 X145.108 Y35.55 E62.73414
G1 X145.698 Y35.839 E62.75599
G1 X146.248 Y36.198 E62.77783
G1 X146.849 Y36.717 E62.80425
G1 X148.288 Y38.156 E62.87193
G1 X148.724 Y38.648 E62.8938
G1 X149.096 Y39.189 E62.91563
G1 X149.455 Y39.897 E62.94204
G1 X149.485 Y39.969 E62.94463
G1 X149.7 Y40.59 E62.96649
G1 X149.838 Y41.232 E62.98833
G1 X149.9 Y42.046 E63.01548
G1 X149.9 Y105.964 E65.1414
G1 X149.86 Y106.62 E65.16326
G1 X149.741 Y107.266 E65.18511
G1 X149.485 Y108.041 E65.21226
G1 X149.455 Y108.113 E65.21485
G1 X149.166 Y108.703 E65.2367
G1 X149.103 Y108.8 E65.24055
G1 X149.262 Y109.223 E65.25558
G1 X149.417 Y109.862 E65.27745
G1 X149.501 Y110.811 E65.30914
G1 X149.501 Y178.779 E67.56976
G1 X149.461 Y179.435 E67.59162
G1 X149.342 Y180.081 E67.61347
G1 X149.145 Y180.708 E67.63533
G1 X148.873 Y181.306 E67.65718
G1 X148.531 Y181.867 E67.67903
G1 X147.919 Y182.597 E67.71071
G1 X147.802 Y182.714 E67.71622
G1 X147.31 Y183.15 E67.73808
G1 X146.769 Y183.522 E67.75992
G1 X146.187 Y183.826 E67.78176
G1 X145.572 Y184.057 E67.80361
G1 X144.933 Y184.212 E67.82548
G1 X143.984 Y184.296 E67.85716
G1 X76.016 Y184.296 E70.11779
G1 X75.36 Y184.256 E70.13965
G1 X74.714 Y184.137 E70.1615
G1 X74.087 Y183.94 E70.18335
G1 X73.489 Y183.668 E70.20521
G1 X72.928 Y183.326 E70.22706
G1 X72.198 Y182.714 E70.25874
G1 X72.081 Y182.597 E70.26424
G1 X71.645 Y182.105 E70.28611
G1 X71.273 Y181.564 E70.30795
G1 X70.969 Y180.982 E70.32979
G1 X70.738 Y180.367 E70.35164
G1 X70.583 Y179.728 E70.37351
G1 X70.499 Y178.779 E70.40519
G1 X70.499 Y110.811 E72.66582
G1 X70.539 Y110.155 E72.68768
G1 X70.624 Y109.694 E72.70327
G1 X70.57 Y109.591 E72.70714
G1 X70.339 Y108.976 E72.72899
G1 X70.184 Y108.337 E72.75086
G1 X70.1 Y107.388 E72.78254
G1 X70.1 Y40.622 E75.00319
G1 X70.14 Y39.966 E75.02505
G1 X70.259 Y39.32 E75.0469
G1 X70.413 Y38.83 E75.06398
G0 F1080 X70.456 Y38.693
G0 X70.728 Y38.095
G0 F6000 X71.127 Y38.198
G1 F1200 X71.467 Y37.666 E75.08498
G1 X71.964 Y37.086 E75.11038
G1 X72.081 Y36.969 E75.11589
G1 X72.556 Y36.552 E75.13691
G1 X73.079 Y36.197 E75.15793
G1 X73.643 Y35.911 E75.17897
G1 X74.238 Y35.699 E75.19997
G1 X74.856 Y35.563 E75.22102
G1 X75.615 Y35.505 E75.24634
G1 X78.75 Y35.504 E75.35061
G1 X79.184 Y35.333 E75.36613
G1 X79.443 Y35.249 E75.37518
G1 X80.056 Y35.092 E75.39623
G1 X80.986 Y35.005 E75.42729
G1 X85 Y35.005 E75.5608
G1 X85.631 Y35.045 E75.58183
G1 X86.283 Y35.172 E75.60392
G1 X86.524 Y35.236 E75.61222
G1 X87.124 Y35.437 E75.63326
G1 X87.265 Y35.505 E75.63847
G1 X142.959 Y35.505 E77.49086
G1 X143.59 Y35.545 E77.51189
G1 X144.211 Y35.664 E77.53292
G1 X144.882 Y35.89 E77.55647
G1 X144.954 Y35.92 E77.55906
G1 X145.521 Y36.199 E77.58008
G1 X146.048 Y36.548 E77.6011
G1 X146.567 Y36.999 E77.62397
G1 X148.006 Y38.438 E77.69166
G1 X148.423 Y38.913 E77.71268
G1 X148.778 Y39.436 E77.73371
G1 X149.085 Y40.051 E77.75657
G1 X149.115 Y40.123 E77.75916
G1 X149.321 Y40.721 E77.7802
G1 X149.45 Y41.34 E77.80123
G1 X149.5 Y42.046 E77.82477
G1 X149.5 Y105.964 E79.95069
G1 X149.46 Y106.595 E79.97172
G1 X149.341 Y107.216 E79.99275
G1 X149.115 Y107.887 E80.0163
