;FLAVOR:Marlin
;TIME:12281
;Filament used: 6.11401m
;Layer height: 0.1
;Generated with Cura_SteamEngine 3.1.0
M190 S40
M104 S200
M109 S200
M82 ; absolute extrusion mode
G28 ;Home
G1 Z15.0 F6000 ;Move the platform down 15mm
G29 Z0.4 ;auto-level
G92 E0
G1 F200 E3
G92 E0
;LAYER_COUNT:249
;LAYER:0
M107
G0 F2400 X-3.752 Y37.663 Z0.3
;TYPE:SKIRT
G1 F1500 X-34.5 Y-15.577 E3.06731
G1 X-34.693 Y-15.99 E3.09005
G1 X-34.81 Y-16.43 E3.11277
G1 X-34.849 Y-16.884 E3.1355
G1 X-34.808 Y-17.338 E3.15824
G1 X-34.688 Y-17.777 E3.18095
G1 X-34.494 Y-18.189 E3.20367
G1 X-34.23 Y-18.561 E3.22643
G1 X-33.906 Y-18.881 E3.24914
G1 X-33.549 Y-19.129 E3.27083
G1 X0.209 Y-38.62 E5.21559
G1 X0.622 Y-38.812 E5.23831
G1 X1.062 Y-38.929 E5.26103
G1 X1.516 Y-38.968 E5.28376
G1 X1.97 Y-38.927 E5.3065
G1 X2.41 Y-38.807 E5.32926
G1 X2.822 Y-38.612 E5.352
G1 X3.193 Y-38.349 E5.37469
G1 X3.513 Y-38.024 E5.39744
G1 X3.761 Y-37.668 E5.41909
G1 X34.502 Y15.577 E8.48644
G1 X34.694 Y15.99 E8.50916
G1 X34.811 Y16.43 E8.53187
G1 X34.85 Y16.884 E8.55461
G1 X34.809 Y17.338 E8.57735
G1 X34.689 Y17.778 E8.6001
G1 X34.494 Y18.19 E8.62284
G1 X34.231 Y18.561 E8.64553
G1 X33.906 Y18.881 E8.66829
G1 X33.55 Y19.129 E8.68993
G1 X-.201 Y38.615 E10.63427
G1 X-.614 Y38.807 E10.65699
G1 X-1.054 Y38.924 E10.6797
G1 X-1.508 Y38.963 E10.70244
G1 X-1.962 Y38.922 E10.72518
G1 X-2.402 Y38.802 E10.74793
G1 X-2.814 Y38.607 E10.77067
G1 X-3.185 Y38.344 E10.79336
G1 X-3.505 Y38.019 E10.81612
G1 X-3.752 Y37.663 E10.83773
G0 F2400 X-3.406 Y37.463
G1 F1500 X-34.154 Y-15.777 E13.90504
G1 X-34.328 Y-16.158 E13.92594
G1 X-34.427 Y-16.565 E13.94684
G1 X-34.446 Y-16.984 E13.96776
G1 X-34.386 Y-17.398 E13.98863
G1 X-34.249 Y-17.794 E14.00954
G1 X-34.038 Y-18.157 E14.03048
G1 X-33.763 Y-18.473 E14.05138
G1 X-33.349 Y-18.782 E14.07716
G1 X0.409 Y-38.273 E16.02192
G1 X0.79 Y-38.447 E16.04281
G1 X1.197 Y-38.546 E16.06371
G1 X1.616 Y-38.565 E16.08464
G1 X2.031 Y-38.505 E16.10556
G1 X2.427 Y-38.368 E16.12646
G1 X2.789 Y-38.157 E16.14736
G1 X3.105 Y-37.882 E16.16826
G1 X3.414 Y-37.468 E16.19404
G1 X34.155 Y15.777 E19.26139
G1 X34.329 Y16.158 E19.28228
G1 X34.428 Y16.565 E19.30318
G1 X34.447 Y16.984 E19.32411
G1 X34.387 Y17.399 E19.34503
G1 X34.25 Y17.795 E19.36593
G1 X34.039 Y18.157 E19.38684
G1 X33.764 Y18.473 E19.40774
G1 X33.35 Y18.782 E19.43351
G1 X-.401 Y38.268 E21.37784
G1 X-.782 Y38.442 E21.39874
G1 X-1.19 Y38.541 E21.41968
G1 X-1.608 Y38.56 E21.44056
G1 X-2.023 Y38.5 E21.46148
G1 X-2.419 Y38.363 E21.48238
G1 X-2.781 Y38.152 E21.50329
G1 X-3.097 Y37.877 E21.52419
G1 X-3.406 Y37.463 E21.54996
G1 F2400 E17.04996
G0 F2400 X-2.398 Y36.102
G0 X-2.372 Y36.067
G0 X9.37 Y20.218
G0 X9.396 Y20.183
G0 X9.559 Y19.965
;TYPE:SUPPORT
G1 F2400 E21.54996
G1 F1500 X9.172 Y19.65 E21.57486
G1 X8.867 Y19.242 E21.60027
G1 X8.667 Y18.774 E21.62566
G1 X8.588 Y18.282 E21.65052
G1 X8.629 Y17.785 E21.6754
G1 X8.792 Y17.299 E21.70098
G1 X9.057 Y16.877 E21.72584
G1 X9.429 Y16.52 E21.75156
G1 X9.856 Y16.274 E21.77614
G1 X10.345 Y16.132 E21.80155
G1 X10.842 Y16.112 E21.82636
G1 X11.343 Y16.213 E21.85186
G1 X11.798 Y16.429 E21.87699
G1 X12.192 Y16.752 E21.90241
G1 X12.495 Y17.154 E21.92752
G1 X12.692 Y17.616 E21.95258
G1 X12.771 Y18.112 E21.97764
G1 X12.731 Y18.612 E22.00266
G1 X12.571 Y19.095 E22.02805
G1 X12.299 Y19.521 E22.05326
G1 X11.935 Y19.873 E22.07853
G1 X11.505 Y20.121 E22.10329
G1 X11.002 Y20.264 E22.12938
G1 X10.516 Y20.285 E22.15365
G1 X10.016 Y20.183 E22.17911
G1 X9.559 Y19.965 E22.20437
G0 F2400 X9.75 Y19.878
G1 F1500 X9.75 Y16.519 E22.37195
G0 F2400 X9.654 Y16.575
G1 F1500 X11.722 Y16.575 E22.47512
G0 F2400 X11.7 Y16.561
G1 F1500 X11.7 Y19.825 E22.63796
G0 F2400 X12.089 Y19.5
G1 F1500 X9.258 Y19.5 E22.7792
G0 F2400 X8.787 Y18.525
G1 F1500 X12.576 Y18.525 E22.96824
G0 F2400 X12.49 Y17.55
G1 F1500 X8.877 Y17.55 E23.14849
G0 F2400 X8.775 Y17.965
G1 F1500 X8.775 Y18.439 E23.17214
G0 F2400 X10.725 Y20.116
G1 F1500 X10.725 Y16.277 E23.36367
G1 F2400 E18.86367
G0 F2400 X10.245 Y15.876
G0 X10.211 Y15.848
G0 X-15.401 Y-5.478
G0 X-15.434 Y-5.506
G0 X-15.648 Y-5.683
G1 F2400 E23.36367
G1 F1500 X-16.011 Y-5.33 E23.38893
G1 X-16.444 Y-5.081 E23.41385
G1 X-16.933 Y-4.938 E23.43927
G1 X-17.432 Y-4.919 E23.46418
G1 X-17.931 Y-5.02 E23.48958
G1 X-18.384 Y-5.236 E23.51462
G1 X-18.775 Y-5.555 E23.53979
G1 X-19.081 Y-5.964 E23.56528
G1 X-19.275 Y-6.42 E23.59
G1 X-19.356 Y-6.935 E23.61601
G1 X-19.317 Y-7.419 E23.64024
G1 X-19.156 Y-7.904 E23.66573
G1 X-18.892 Y-8.32 E23.69031
G1 X-18.52 Y-8.681 E23.71617
G1 X-18.088 Y-8.931 E23.74107
G1 X-17.601 Y-9.072 E23.76637
G1 X-17.102 Y-9.092 E23.79128
G1 X-16.609 Y-8.992 E23.81638
G1 X-16.146 Y-8.773 E23.84193
G1 X-15.757 Y-8.457 E23.86694
G1 X-15.454 Y-8.054 E23.89209
G1 X-15.253 Y-7.581 E23.91773
G1 X-15.174 Y-7.092 E23.94244
G1 X-15.215 Y-6.593 E23.96742
G1 X-15.376 Y-6.11 E23.99282
G1 X-15.648 Y-5.683 E24.01808
G0 F2400 X-15.732 Y-5.85
G1 F1500 X-18.797 Y-5.85 E24.171
G0 F2400 X-18.525 Y-5.558
G1 F1500 X-18.525 Y-8.453 E24.31543
G0 F2400 X-18.036 Y-8.775
G1 F1500 X-16.527 Y-8.775 E24.39071
G0 F2400 X-16.575 Y-8.798
G1 F1500 X-16.575 Y-5.208 E24.56982
G0 F2400 X-17.55 Y-5.107
G1 F1500 X-17.55 Y-8.914 E24.75975
G0 F2400 X-19.021 Y-7.8
G1 F1500 X-15.519 Y-7.8 E24.93447
G0 F2400 X-15.6 Y-7.982
G1 F1500 X-15.6 Y-6.056 E25.03055
G0 F2400 X-15.357 Y-6.825
G1 F1500 X-19.177 Y-6.825 E25.22113
G1 F2400 E20.72113
G0 F2400 X-15.633 Y-8.707
G0 X-15.594 Y-8.728
G0 X0.47 Y-17.266
G0 X0.509 Y-17.287
G0 X0.749 Y-17.415
G1 F2400 E25.22113
G1 F1500 X0.555 Y-17.873 E25.24595
G1 X0.475 Y-18.369 E25.27101
G1 X0.517 Y-18.877 E25.29645
G1 X0.675 Y-19.352 E25.32142
G1 X0.946 Y-19.778 E25.34661
G1 X1.31 Y-20.13 E25.37187
G1 X1.746 Y-20.379 E25.39692
G1 X2.232 Y-20.521 E25.42218
G1 X2.736 Y-20.541 E25.44735
G1 X3.234 Y-20.438 E25.47272
G1 X3.683 Y-20.224 E25.49753
G1 X4.078 Y-19.902 E25.52296
G1 X4.377 Y-19.504 E25.54779
G1 X4.577 Y-19.034 E25.57328
G1 X4.658 Y-18.543 E25.5981
G1 X4.616 Y-18.037 E25.62343
G1 X4.457 Y-17.559 E25.64857
G1 X4.183 Y-17.124 E25.67421
G1 X3.83 Y-16.787 E25.69856
G1 X3.387 Y-16.529 E25.72414
G1 X2.9 Y-16.389 E25.74942
G1 X2.411 Y-16.369 E25.77384
G1 X1.894 Y-16.475 E25.80017
G1 X1.444 Y-16.689 E25.82503
G1 X1.06 Y-17.002 E25.84974
G1 X0.749 Y-17.415 E25.87554
G0 F2400 X0.864 Y-17.55
G1 F1500 X4.26 Y-17.55 E26.04496
G0 F2400 X3.9 Y-17.075
G1 F1500 X3.9 Y-19.84 E26.18291
G0 F2400 X4.18 Y-19.5
G1 F1500 X0.959 Y-19.5 E26.34361
G0 F2400 X0.975 Y-19.525
G1 F1500 X0.975 Y-17.381 E26.45057
G0 F2400 X0.648 Y-18.525
G1 F1500 X4.494 Y-18.525 E26.64245
G0 F2400 X2.925 Y-20.338
G1 F1500 X2.925 Y-16.562 E26.83083
G0 F2400 X2.969 Y-16.575
G1 F1500 X2.203 Y-16.575 E26.86905
G0 F2400 X1.95 Y-16.628
G1 F1500 X1.95 Y-20.272 E27.05085
G1 F2400 E22.55085
G0 F2400 X1.842 Y-20.654
G0 X1.484 Y-21.888
G0 X1.972 Y-22.111
G0 X1.988 Y-22.013
;TYPE:WALL-INNER
G1 F2400 E27.05085
G1 F1500 X1.153 Y-21.771 E27.09422
G1 X0.401 Y-21.337 E27.13754
G1 X-.226 Y-20.735 E27.1809
G1 X-.69 Y-19.999 E27.22431
G1 X-.965 Y-19.175 E27.26765
G1 X-1.035 Y-18.31 E27.31095
G1 X-.896 Y-17.453 E27.35426
G1 X-.556 Y-16.652 E27.39767
G1 X-0.032 Y-15.958 E27.44106
G1 X0.64 Y-15.409 E27.48435
G1 X1.424 Y-15.037 E27.52764
G1 X2.276 Y-14.862 E27.57104
G1 X3.144 Y-14.897 E27.61438
G1 X3.979 Y-15.139 E27.65775
G1 X4.731 Y-15.574 E27.70109
G1 X5.358 Y-16.175 E27.74442
G1 X5.823 Y-16.91 E27.78781
G1 X6.098 Y-17.735 E27.8312
G1 X6.168 Y-18.6 E27.8745
G1 X6.029 Y-19.458 E27.91786
G1 X5.687 Y-20.258 E27.96127
G1 X5.166 Y-20.951 E28.00452
G1 X4.494 Y-21.501 E28.04785
G1 X3.707 Y-21.874 E28.0913
G1 X2.856 Y-22.048 E28.13463
G1 X1.988 Y-22.013 E28.17797
G0 F2400 X1.972 Y-22.111
G0 X1.297 Y-21.866
G0 X-17.86 Y-10.662
G0 X-17.844 Y-10.564
G1 F1500 X-18.679 Y-10.322 E28.22134
G1 X-19.431 Y-9.887 E28.26469
G1 X-20.058 Y-9.285 E28.30805
G1 X-20.522 Y-8.551 E28.35137
G1 X-20.797 Y-7.727 E28.39471
G1 X-20.868 Y-6.861 E28.43806
G1 X-20.729 Y-6.003 E28.48143
G1 X-20.387 Y-5.204 E28.52479
G1 X-19.866 Y-4.508 E28.56816
G1 X-19.192 Y-3.959 E28.61153
G1 X-18.408 Y-3.587 E28.65482
G1 X-17.556 Y-3.412 E28.69822
G1 X-16.688 Y-3.447 E28.74156
G1 X-15.853 Y-3.69 E28.78494
G1 X-15.101 Y-4.124 E28.82826
G1 X-14.474 Y-4.726 E28.87163
G1 X-14.01 Y-5.46 E28.91495
G1 X-13.735 Y-6.284 E28.95829
G1 X-13.664 Y-7.15 E29.00164
G1 X-13.803 Y-8.008 E29.045
G1 X-14.145 Y-8.809 E29.08845
G1 X-14.666 Y-9.503 E29.13175
G1 X-15.34 Y-10.052 E29.17512
G1 X-16.124 Y-10.424 E29.21841
G1 X-16.976 Y-10.599 E29.26181
G1 X-17.844 Y-10.564 E29.30514
G0 F2400 X-17.86 Y-10.662
G0 X-16.973 Y-10.638
G0 X-16.112 Y-10.461
G0 X-15.319 Y-10.085
G0 X-14.934 Y-9.771
G0 X10.086 Y14.542
G0 X10.102 Y14.64
G1 F1500 X9.267 Y14.882 E29.34852
G1 X8.515 Y15.317 E29.39186
G1 X7.888 Y15.919 E29.43523
G1 X7.424 Y16.653 E29.47855
G1 X7.149 Y17.477 E29.52189
G1 X7.078 Y18.343 E29.56524
G1 X7.217 Y19.201 E29.6086
G1 X7.559 Y20.001 E29.65201
G1 X8.08 Y20.695 E29.6953
G1 X8.754 Y21.245 E29.7387
G1 X9.538 Y21.617 E29.782
G1 X10.391 Y21.791 E29.82543
G1 X11.258 Y21.756 E29.86872
G1 X12.093 Y21.514 E29.91209
G1 X12.845 Y21.079 E29.95543
G1 X13.472 Y20.477 E29.9988
G1 X13.936 Y19.743 E30.04212
G1 X14.211 Y18.918 E30.08551
G1 X14.281 Y18.053 E30.1288
G1 X14.142 Y17.195 E30.17217
G1 X13.802 Y16.396 E30.21549
G1 X13.279 Y15.701 E30.25888
G1 X12.606 Y15.152 E30.30221
G1 X11.822 Y14.78 E30.34551
G1 X10.97 Y14.605 E30.3889
G1 X10.102 Y14.64 E30.43224
G0 F2400 X10.086 Y14.542
G0 X9.252 Y14.846
G0 X8.491 Y15.286
G0 X7.858 Y15.894
G0 X7.478 Y16.494
G0 X-1.169 Y35.375
G0 X-1.12 Y35.461
G1 F1500 X-1.293 Y35.561 E30.44221
G1 X-1.393 Y35.388 E30.44865
G1 X-31.443 Y-16.661 E33.44709
G1 X1.12 Y-35.461 E35.32298
G1 X1.293 Y-35.561 E35.33295
G1 X1.393 Y-35.388 E35.33938
G1 X31.443 Y16.661 E38.33782
G1 X-1.12 Y35.461 E40.21371
G0 F2400 X-1.266 Y36.007
;TYPE:WALL-OUTER
G1 F1500 X-1.439 Y36.107 E40.22368
G1 X-1.539 Y35.934 E40.23012
G1 X-31.989 Y-16.807 E43.26844
G1 X1.266 Y-36.007 E45.1842
G1 X1.439 Y-36.107 E45.19417
G1 X1.539 Y-35.934 E45.20061
G1 X31.989 Y16.807 E48.23893
G1 X-1.266 Y36.007 E50.15469
G0 F2400 X-1.439 Y36.107
G0 X-1.268 Y35.465
G0 X7.388 Y16.636
G0 X7.858 Y15.894
G0 X8.491 Y15.286
G0 X9.106 Y14.93
G0 X10.146 Y14.538
G0 X10.167 Y15.038
G1 F1500 X9.425 Y15.253 E50.19323
G1 X8.757 Y15.639 E50.23172
G1 X8.2 Y16.174 E50.27026
G1 X7.788 Y16.826 E50.30873
G1 X7.544 Y17.558 E50.34723
G1 X7.481 Y18.327 E50.38572
G1 X7.604 Y19.089 E50.42423
G1 X7.908 Y19.799 E50.46276
G1 X8.371 Y20.416 E50.50125
G1 X8.969 Y20.904 E50.53976
G1 X9.666 Y21.235 E50.57825
G1 X10.423 Y21.389 E50.61679
G1 X11.193 Y21.358 E50.65524
G1 X11.935 Y21.143 E50.69378
G1 X12.603 Y20.757 E50.73227
G1 X13.16 Y20.222 E50.7708
G1 X13.572 Y19.57 E50.80928
G1 X13.816 Y18.838 E50.84778
G1 X13.878 Y18.069 E50.88627
G1 X13.755 Y17.307 E50.92477
G1 X13.453 Y16.597 E50.96327
G1 X12.989 Y15.98 E51.00178
G1 X12.391 Y15.493 E51.04026
G1 X11.694 Y15.162 E51.07875
G1 X10.937 Y15.007 E51.11731
G1 X10.167 Y15.038 E51.15575
G0 F2400 X9.975 Y15.093
G0 X9.837 Y14.613
G0 X6.207 Y-18.601
G0 X6.067 Y-19.469
G0 X5.721 Y-20.278
G0 X5.194 Y-20.978
G0 X4.515 Y-21.534
G0 X3.719 Y-21.911
G0 X3.023 Y-22.053
G0 X2.032 Y-22.115
G0 X2.053 Y-21.615
G1 F1500 X1.311 Y-21.4 E51.19429
G1 X0.643 Y-21.015 E51.23276
G1 X0.086 Y-20.48 E51.27129
G1 X-.326 Y-19.827 E51.30981
G1 X-.57 Y-19.095 E51.34831
G1 X-.632 Y-18.326 E51.3868
G1 X-.509 Y-17.565 E51.42525
G1 X-.207 Y-16.854 E51.46379
G1 X0.258 Y-16.237 E51.50234
G1 X0.855 Y-15.75 E51.54078
G1 X1.552 Y-15.419 E51.57927
G1 X2.309 Y-15.264 E51.61782
G1 X3.079 Y-15.295 E51.65627
G1 X3.821 Y-15.51 E51.69481
G1 X4.489 Y-15.896 E51.7333
G1 X5.046 Y-16.43 E51.7718
G1 X5.459 Y-17.083 E51.81034
G1 X5.703 Y-17.815 E51.84884
G1 X5.765 Y-18.584 E51.88733
G1 X5.642 Y-19.346 E51.92584
G1 X5.338 Y-20.056 E51.96437
G1 X4.875 Y-20.672 E52.00282
G1 X4.278 Y-21.161 E52.04132
G1 X3.58 Y-21.492 E52.07986
G1 X2.824 Y-21.646 E52.11835
G1 X2.053 Y-21.615 E52.15684
G0 F2400 X1.861 Y-21.56
G0 X1.723 Y-22.04
G0 X1.25 Y-21.852
G0 X-17.8 Y-10.666
G0 X-17.779 Y-10.166
G1 F1500 X-18.521 Y-9.951 E52.19539
G1 X-19.189 Y-9.565 E52.23388
G1 X-19.746 Y-9.03 E52.27241
G1 X-20.158 Y-8.378 E52.31089
G1 X-20.402 Y-7.646 E52.34938
G1 X-20.465 Y-6.877 E52.38788
G1 X-20.342 Y-6.115 E52.42638
G1 X-20.038 Y-5.405 E52.46492
G1 X-19.575 Y-4.787 E52.50344
G1 X-18.977 Y-4.3 E52.54192
G1 X-18.28 Y-3.969 E52.58041
G1 X-17.523 Y-3.814 E52.61896
G1 X-16.753 Y-3.845 E52.65741
G1 X-16.011 Y-4.061 E52.69597
G1 X-15.343 Y-4.446 E52.73443
G1 X-14.786 Y-4.981 E52.77296
G1 X-14.374 Y-5.633 E52.81144
G1 X-14.13 Y-6.365 E52.84994
G1 X-14.067 Y-7.134 E52.88843
G1 X-14.19 Y-7.896 E52.92694
G1 X-14.494 Y-8.607 E52.96552
G1 X-14.957 Y-9.224 E53.004
G1 X-15.555 Y-9.711 E53.04248
G1 X-16.252 Y-10.042 E53.08097
G1 X-17.009 Y-10.197 E53.11952
G1 X-17.779 Y-10.166 E53.15797
G0 F2400 X-17.971 Y-10.111
G0 X-18.109 Y-10.591
G0 X-17.907 Y-10.952
;TYPE:SKIN
G1 F1500 X-18.833 Y-10.683 E53.20608
G1 X-19.667 Y-10.201 E53.25414
G1 X-20.362 Y-9.533 E53.30223
G1 X-20.877 Y-8.719 E53.35028
G1 X-21.181 Y-7.805 E53.39834
G1 X-21.26 Y-6.846 E53.44635
G1 X-21.107 Y-5.894 E53.49445
G1 X-20.727 Y-5.007 E53.54259
G1 X-20.149 Y-4.235 E53.59071
G1 X-19.402 Y-3.627 E53.63876
G1 X-18.533 Y-3.215 E53.68674
G1 X-17.588 Y-3.02 E53.73488
G1 X-16.625 Y-3.059 E53.78296
G1 X-15.699 Y-3.329 E53.83109
G1 X-14.865 Y-3.81 E53.87912
G1 X-14.17 Y-4.478 E53.92721
G1 X-13.655 Y-5.292 E53.97527
G1 X-13.351 Y-6.206 E54.02332
G1 X-13.272 Y-7.165 E54.07133
G1 X-13.425 Y-8.117 E54.11944
G1 X-13.805 Y-9.006 E54.16767
G1 X-14.383 Y-9.776 E54.2157
G1 X-15.13 Y-10.384 E54.26376
G1 X-15.999 Y-10.796 E54.31174
G1 X-16.944 Y-10.991 E54.35988
G1 X-17.907 Y-10.952 E54.40796
G0 F2400 X-30.91 Y-16.518
G1 F1500 X1.15 Y-35.028 E56.25488
G1 X30.91 Y16.518 E59.22436
G1 X-1.15 Y35.028 E61.07128
G1 X-30.91 Y-16.518 E64.04075
G0 F2400 X-1.274 Y-17.344
G1 F1500 X-.896 Y-16.455 E64.08895
G1 X-.315 Y-15.685 E64.13707
G1 X0.43 Y-15.077 E64.18505
G1 X1.299 Y-14.665 E64.23303
G1 X2.244 Y-14.47 E64.28117
G1 X3.207 Y-14.509 E64.32925
G1 X4.133 Y-14.778 E64.37736
G1 X4.967 Y-15.26 E64.42542
G1 X5.662 Y-15.926 E64.47344
G1 X6.178 Y-16.742 E64.52161
G1 X6.483 Y-17.657 E64.56973
G1 X6.56 Y-18.616 E64.61772
G1 X6.407 Y-19.567 E64.66578
G1 X6.027 Y-20.455 E64.71397
G1 X5.449 Y-21.222 E64.76188
G1 X4.704 Y-21.833 E64.80995
G1 X3.832 Y-22.247 E64.85811
G1 X2.887 Y-22.44 E64.90623
G1 X1.925 Y-22.401 E64.95426
G1 X0.999 Y-22.132 E65.00237
G1 X0.165 Y-21.651 E65.0504
G1 X-.53 Y-20.983 E65.0985
G1 X-1.045 Y-20.167 E65.14664
G1 X-1.35 Y-19.253 E65.19471
G1 X-1.427 Y-18.294 E65.24271
G1 X-1.274 Y-17.344 E65.29071
G0 F2400 X7.584 Y15.671
G1 F1500 X7.069 Y16.485 E65.33877
G1 X6.765 Y17.399 E65.38683
G1 X6.686 Y18.358 E65.43483
G1 X6.839 Y19.31 E65.48294
G1 X7.219 Y20.198 E65.53113
G1 X7.797 Y20.968 E65.57916
G1 X8.544 Y21.577 E65.62724
G1 X9.413 Y21.99 E65.67525
G1 X10.36 Y22.183 E65.72346
G1 X11.321 Y22.144 E65.77145
G1 X12.247 Y21.875 E65.81956
G1 X13.081 Y21.393 E65.86761
G1 X13.776 Y20.725 E65.91571
G1 X14.291 Y19.911 E65.96376
G1 X14.596 Y18.996 E66.01188
G1 X14.673 Y18.037 E66.05988
G1 X14.52 Y17.086 E66.10794
G1 X14.142 Y16.199 E66.15604
G1 X13.562 Y15.428 E66.20417
G1 X12.816 Y14.82 E66.25219
G1 X11.947 Y14.408 E66.30017
G1 X11.002 Y14.213 E66.34831
G1 X10.039 Y14.252 E66.39639
G1 X9.113 Y14.521 E66.4445
G1 X8.279 Y15.003 E66.49256
G1 X7.584 Y15.671 E66.54065
G0 F2400 X-.939 Y34.698
G1 F1500 X-1.395 Y34.243 E66.57279
G0 F2400 X-.581 Y34.491
G1 F1500 X-2.167 Y32.904 E66.68472
G1 X-2.237 Y32.834
G0 F2400 X-2.94 Y31.565
G1 F1500 X-.222 Y34.284 E66.87653
G1 X-.152 Y34.354
G0 F2400 X0.135 Y34.076
G1 F1500 X-3.713 Y30.227 E67.14806
G1 X-3.783 Y30.157
G0 F2400 X-4.486 Y28.888
G1 F1500 X0.494 Y33.869 E67.49946
G1 X0.564 Y33.939
G0 F2400 X0.853 Y33.663
G1 F1500 X-5.258 Y27.551 E67.93066
G1 X-5.328 Y27.481
G0 F2400 X-6.031 Y26.212
G1 F1500 X1.211 Y33.456 E68.44169
G1 X1.281 Y33.526
G0 F2400 X1.57 Y33.248
G1 F1500 X-6.804 Y24.873 E69.03256
G1 X-6.874 Y24.803
G0 F2400 X-7.577 Y23.535
G1 F1500 X1.928 Y33.041 E69.70322
G1 X1.998 Y33.111
G0 F2400 X2.287 Y32.834
