;FLAVOR:Marlin
;TIME:5491
;Filament used: 2.84289m
;Layer height: 0.1
;Generated with Cura_SteamEngine 3.1.0
M190 S40
M104 S200
M109 S200
M82 ; absolute extrusion mode
G28 ;Home
G1 Z15.0 F6000 ;Move the platform down 15mm
G29 Z0.4 ;auto-level
G92 E0
G1 F200 E3
G92 E0
;LAYER_COUNT:49
;LAYER:0
M107
G0 F2400 X-9.864 Y-31.407 Z0.3
;TYPE:SKIRT
G1 F1500 X-4.557 Y-32.909 E0.27517
G1 X2.265 Y-35.324 E0.63621
G1 X2.461 Y-35.385 E0.64646
G1 X10.121 Y-37.434 E1.04205
G1 X10.57 Y-37.512 E1.06479
G1 X11.026 Y-37.512 E1.08754
G1 X11.474 Y-37.431 E1.11025
G1 X12.086 Y-37.177 E1.14331
G1 X12.365 Y-37.017 E1.15935
G1 X12.739 Y-36.757 E1.18208
G1 X13.062 Y-36.435 E1.20483
G1 X13.324 Y-36.062 E1.22757
G1 X13.583 Y-35.435 E1.26142
G1 X29.479 Y23.896 E4.32585
G1 X29.558 Y24.345 E4.3486
G1 X29.558 Y24.801 E4.37135
G1 X29.477 Y25.249 E4.39406
G1 X29.221 Y25.866 E4.42739
G1 X29.061 Y26.144 E4.44339
G1 X28.8 Y26.517 E4.4661
G1 X28.478 Y26.84 E4.48886
G1 X28.105 Y27.101 E4.51157
G1 X27.481 Y27.358 E4.54524
G1 X-10.122 Y37.432 E6.48741
G1 X-10.571 Y37.511 E6.51016
G1 X-11.027 Y37.511 E6.53291
G1 X-11.475 Y37.43 E6.55562
G1 X-12.09 Y37.175 E6.58884
G1 X-12.365 Y37.017 E6.60466
G1 X-12.739 Y36.757 E6.62739
G1 X-13.061 Y36.435 E6.6501
G1 X-13.323 Y36.061 E6.67289
G1 X-13.581 Y35.436 E6.70662
G1 X-29.479 Y-23.896 E9.77113
G1 X-29.558 Y-24.345 E9.79387
G1 X-29.558 Y-24.8 E9.81657
G1 X-29.478 Y-25.249 E9.83932
G1 X-29.221 Y-25.866 E9.87267
G1 X-29.061 Y-26.144 E9.88867
G1 X-28.8 Y-26.517 E9.91139
G1 X-28.478 Y-26.84 E9.93414
G1 X-28.105 Y-27.101 E9.95685
G1 X-27.485 Y-27.357 E9.99032
G1 X-20.532 Y-29.233 E10.34961
G1 X-20.344 Y-29.277 E10.35924
G1 X-12.534 Y-30.773 E10.75597
G1 X-9.864 Y-31.407 E10.89288
G0 F2400 X-9.781 Y-31.015
G1 F1500 X-4.436 Y-32.527 E11.17001
G1 X2.399 Y-34.947 E11.53175
G1 X2.565 Y-34.998 E11.54041
G1 X10.225 Y-37.047 E11.93601
G1 X10.638 Y-37.117 E11.9569
G1 X11.057 Y-37.106 E11.97782
G1 X11.466 Y-37.017 E11.9987
G1 X11.887 Y-36.83 E12.02168
G1 X12.166 Y-36.67 E12.03773
G1 X12.508 Y-36.428 E12.05863
G1 X12.798 Y-36.126 E12.07952
G1 X13.026 Y-35.774 E12.10044
G1 X13.197 Y-35.331 E12.12413
G1 X29.093 Y24 E15.18856
G1 X29.162 Y24.413 E15.20945
G1 X29.152 Y24.832 E15.23036
G1 X29.063 Y25.241 E15.25125
G1 X28.875 Y25.666 E15.27443
G1 X28.715 Y25.944 E15.29043
G1 X28.472 Y26.286 E15.31137
G1 X28.169 Y26.575 E15.33226
G1 X27.817 Y26.802 E15.35315
G1 X27.377 Y26.972 E15.37669
G1 X-10.226 Y37.046 E17.31886
G1 X-10.639 Y37.115 E17.33975
G1 X-11.058 Y37.105 E17.36066
G1 X-11.467 Y37.016 E17.38155
G1 X-11.891 Y36.829 E17.40467
G1 X-12.166 Y36.671 E17.42049
G1 X-12.508 Y36.428 E17.44142
G1 X-12.797 Y36.125 E17.46231
G1 X-13.024 Y35.773 E17.48321
G1 X-13.195 Y35.332 E17.5068
G1 X-29.093 Y-24 E20.57131
G1 X-29.162 Y-24.413 E20.5922
G1 X-29.152 Y-24.832 E20.61311
G1 X-29.063 Y-25.241 E20.63399
G1 X-28.875 Y-25.666 E20.65718
G1 X-28.715 Y-25.944 E20.67318
G1 X-28.472 Y-26.286 E20.69411
G1 X-28.169 Y-26.575 E20.715
G1 X-27.817 Y-26.802 E20.7359
G1 X-27.381 Y-26.971 E20.75923
G1 X-20.428 Y-28.847 E21.11852
G1 X-20.269 Y-28.884 E21.12666
G1 X-12.431 Y-30.385 E21.52481
G1 X-9.781 Y-31.015 E21.6607
G0 F2400 X-19.036 Y-26.613
;TYPE:SUPPORT
G1 F1500 X-16.505 Y-17.164 E22.14873
G1 X-16.732 Y-17.103 E22.16046
G1 X-16.746 Y-17.109 E22.16122
G1 X-19.726 Y-16.303 E22.31524
G1 X-21.484 Y-15.844 E22.40588
G1 X-21.905 Y-15.524 E22.43226
G1 X-21.941 Y-15.001 E22.45842
G1 X-21.312 Y-12.694 E22.57772
G1 X-9.424 Y31.671 E24.86918
G1 X-9.161 Y31.823 E24.88434
G1 X-8.687 Y31.887 E24.9082
G1 X23.72 Y23.201 E26.58206
G1 X23.872 Y22.938 E26.59721
G1 X23.936 Y22.464 E26.62108
G1 X12.662 Y-19.59 E28.79324
G1 X12.671 Y-19.613 E28.79448
G1 X12.134 Y-21.564 E28.89543
G1 X11.485 Y-23.984 E29.02043
G1 X11.326 Y-24.193 E29.03353
G1 X10.898 Y-24.42 E29.0577
G1 X10.642 Y-24.439 E29.07051
G1 X5.714 Y-23.117 E29.32506
G1 X3.179 Y-32.568 E29.81324
G1 X3.262 Y-32.711 E29.82149
G1 X10.764 Y-34.72 E30.20896
G1 X10.908 Y-34.636 E30.21727
G1 X26.765 Y24.542 E33.27383
G1 X26.681 Y24.686 E33.28215
G1 X-10.764 Y34.72 E35.21619
G1 X-10.908 Y34.636 E35.22451
G1 X-26.765 Y-24.542 E38.28107
G1 X-26.681 Y-24.686 E38.28938
G1 X-19.18 Y-26.697 E38.67683
G1 X-19.036 Y-26.613 E38.68514
G0 F2400 X-19.125 Y-26.325
G1 F1500 X-19.949 Y-26.325 E38.72625
G0 F2400 X-19.5 Y-26.446
G1 F1500 X-19.5 Y-16.529 E39.22101
G0 F2400 X-19.331 Y-16.575
G1 F1500 X-24.464 Y-16.575 E39.4771
G0 F2400 X-24.375 Y-16.246
G1 F1500 X-24.375 Y-25.139 E39.92077
G0 F2400 X-23.584 Y-25.35
G1 F1500 X-18.864 Y-25.35 E40.15625
G0 F2400 X-18.603 Y-24.375
G1 F1500 X-26.554 Y-24.375 E40.55293
G0 F2400 X-26.325 Y-24.616
G1 F1500 X-26.325 Y-23.524 E40.60741
G0 F2400 X-26.292 Y-23.4
G1 F1500 X-18.341 Y-23.4 E41.00409
G0 F2400 X-18.525 Y-24.083
G1 F1500 X-18.525 Y-16.793 E41.36779
G0 F2400 X-17.55 Y-17.056
G1 F1500 X-17.55 Y-20.446 E41.53692
G0 F2400 X-17.557 Y-20.475
G1 F1500 X-25.509 Y-20.475 E41.93364
G0 F2400 X-25.35 Y-19.885
G1 F1500 X-25.35 Y-24.877 E42.18269
G0 F2400 X-23.4 Y-25.4
G1 F1500 X-23.4 Y-12.607 E42.82094
G0 F2400 X-23.419 Y-12.675
G1 F1500 X-21.472 Y-12.675 E42.91808
G0 F2400 X-21.45 Y-12.592
G1 F1500 X-21.45 Y-5.329 E43.28043
G0 F2400 X-21.329 Y-4.875
G1 F1500 X-19.381 Y-4.875 E43.37762
G0 F2400 X-19.5 Y-5.315
G1 F1500 X-19.5 Y1.948 E43.73997
G0 F2400 X-19.5 Y1.949
G1 F1500 X-17.552 Y1.949 E43.83715
G0 F2400 X-17.55 Y1.962
G1 F1500 X-17.55 Y9.226 E44.19956
G0 F2400 X-17.671 Y8.774
G1 F1500 X-15.723 Y8.774 E44.29674
G0 F2400 X-15.6 Y9.238
G1 F1500 X-15.6 Y16.504 E44.65924
G0 F2400 X-15.581 Y16.575
G1 F1500 X-13.633 Y16.575 E44.75643
G0 F2400 X-13.65 Y16.515
G1 F1500 X-13.65 Y23.781 E45.11893
G0 F2400 X-13.752 Y23.4
G1 F1500 X-11.804 Y23.4 E45.21612
G0 F2400 X-11.7 Y23.792
G1 F1500 X-11.7 Y31.059 E45.57867
G0 F2400 X-11.662 Y31.2
G1 F1500 X-9.713 Y31.2 E45.67591
G0 F2400 X-9.75 Y31.068
G1 F1500 X-9.75 Y34.282 E45.83625
G0 F2400 X-9.166 Y34.125
G1 F1500 X-10.878 Y34.125 E45.92167
G0 F2400 X-10.725 Y34.543
G1 F1500 X-10.725 Y27.43 E46.27654
G0 F2400 X-10.758 Y27.3
G1 F1500 X-12.707 Y27.3 E46.37377
G0 F2400 X-12.675 Y27.42
G1 F1500 X-12.675 Y20.153 E46.73632
G0 F2400 X-12.588 Y20.475
G1 F1500 X-14.536 Y20.475 E46.83351
G0 F2400 X-14.625 Y20.143
G1 F1500 X-14.625 Y12.877 E47.19601
G0 F2400 X-14.678 Y12.675
G1 F1500 X-16.626 Y12.674 E47.2932
G0 F2400 X-16.575 Y12.865
G1 F1500 X-16.575 Y5.6 E47.65565
G0 F2400 X-16.507 Y5.849
G1 F1500 X-18.455 Y5.849 E47.75284
G0 F2400 X-18.525 Y5.587
G1 F1500 X-18.525 Y-1.677 E48.11524
G0 F2400 X-18.598 Y-1.95
G1 F1500 X-20.545 Y-1.95 E48.21237
G0 F2400 X-20.475 Y-1.69
G1 F1500 X-20.475 Y-8.953 E48.57473
G0 F2400 X-20.427 Y-8.775
G1 F1500 X-22.374 Y-8.775 E48.67186
G0 F2400 X-22.425 Y-8.968
G1 F1500 X-22.425 Y-25.662 E49.50473
G0 F2400 X-21.45 Y-25.923
G1 F1500 X-21.45 Y-16.017 E49.99894
G0 F2400 X-22.06 Y-15.6
G1 F1500 X-24.202 Y-15.6 E50.10581
G0 F2400 X-23.941 Y-14.625
G1 F1500 X-22.003 Y-14.625 E50.2025
G0 F2400 X-21.738 Y-13.65
G1 F1500 X-23.68 Y-13.65 E50.29938
G0 F2400 X-23.157 Y-11.7
G1 F1500 X-21.211 Y-11.7 E50.39647
G0 F2400 X-20.949 Y-10.725
G1 F1500 X-22.896 Y-10.725 E50.4936
G0 F2400 X-22.635 Y-9.75
G1 F1500 X-20.688 Y-9.75 E50.59074
G0 F2400 X-20.165 Y-7.8
G1 F1500 X-22.112 Y-7.8 E50.68788
G0 F2400 X-21.851 Y-6.825
G1 F1500 X-19.904 Y-6.825 E50.78501
G0 F2400 X-19.643 Y-5.85
G1 F1500 X-21.59 Y-5.85 E50.88215
G0 F2400 X-21.067 Y-3.9
G1 F1500 X-19.12 Y-3.9 E50.97929
G0 F2400 X-18.859 Y-2.925
G1 F1500 X-20.806 Y-2.925 E51.07642
G0 F2400 X-20.284 Y-.975
G1 F1500 X-18.336 Y-.975 E51.17361
G0 F2400 X-18.075 Y0.00
G1 F1500 X-20.022 Y0.00 E51.27074
G0 F2400 X-19.761 Y0.974
G1 F1500 X-17.814 Y0.974 E51.36788
G0 F2400 X-17.291 Y2.924
G1 F1500 X-19.238 Y2.924 E51.46502
G0 F2400 X-18.977 Y3.899
G1 F1500 X-17.03 Y3.899 E51.56215
G0 F2400 X-16.768 Y4.874
G1 F1500 X-18.716 Y4.874 E51.65934
G0 F2400 X-18.193 Y6.824
G1 F1500 X-16.246 Y6.824 E51.75648
G0 F2400 X-15.984 Y7.799
G1 F1500 X-17.932 Y7.799 E51.85366
G0 F2400 X-17.41 Y9.749
G1 F1500 X-15.462 Y9.749 E51.95085
G0 F2400 X-15.201 Y10.724
G1 F1500 X-17.148 Y10.724 E52.04798
G0 F2400 X-16.887 Y11.699
G1 F1500 X-14.939 Y11.699 E52.14517
G0 F2400 X-14.417 Y13.65
G1 F1500 X-16.365 Y13.649 E52.24236
G0 F2400 X-16.103 Y14.624
G1 F1500 X-14.155 Y14.625 E52.33954
G0 F2400 X-13.894 Y15.6
G1 F1500 X-15.842 Y15.599 E52.43673
G0 F2400 X-15.32 Y17.55
G1 F1500 X-13.371 Y17.55 E52.53396
G0 F2400 X-13.11 Y18.525
G1 F1500 X-15.058 Y18.525 E52.63115
G0 F2400 X-14.797 Y19.5
G1 F1500 X-12.849 Y19.5 E52.72834
G0 F2400 X-12.326 Y21.45
G1 F1500 X-14.275 Y21.45 E52.82557
G0 F2400 X-14.013 Y22.425
G1 F1500 X-12.065 Y22.425 E52.92276
G0 F2400 X-11.542 Y24.375
G1 F1500 X-13.491 Y24.375 E53.01999
G0 F2400 X-13.23 Y25.35
G1 F1500 X-11.281 Y25.35 E53.11723
G0 F2400 X-11.02 Y26.325
G1 F1500 X-12.968 Y26.325 E53.21442
G0 F2400 X-12.446 Y28.275
G1 F1500 X-10.497 Y28.275 E53.31165
G0 F2400 X-10.236 Y29.25
G1 F1500 X-12.184 Y29.25 E53.40884
G0 F2400 X-11.923 Y30.225
G1 F1500 X-9.974 Y30.225 E53.50607
G0 F2400 X-8.775 Y32.037
G1 F1500 X-8.775 Y34.021 E53.60506
G0 F2400 X-7.8 Y33.759
G1 F1500 X-7.8 Y31.815 E53.70204
G0 F2400 X-6.825 Y31.553
G1 F1500 X-6.825 Y33.498 E53.79908
G0 F2400 X-5.85 Y33.237
G1 F1500 X-5.85 Y31.292 E53.89612
G0 F2400 X-5.504 Y31.2
G1 F1500 X1.749 Y31.2 E54.25797
G0 F2400 X1.95 Y31.147
G1 F1500 X1.95 Y29.201 E54.35506
G0 F2400 X1.77 Y29.25
G1 F1500 X9.026 Y29.25 E54.71706
G0 F2400 X8.775 Y29.318
G1 F1500 X8.775 Y27.372 E54.81415
G0 F2400 X9.044 Y27.3
G1 F1500 X16.304 Y27.3 E55.17635
G0 F2400 X16.575 Y27.228
G1 F1500 X16.575 Y25.281 E55.27348
G0 F2400 X16.319 Y25.35
G1 F1500 X23.582 Y25.35 E55.63584
G0 F2400 X23.4 Y25.399
G1 F1500 X23.4 Y23.451 E55.73302
G0 F2400 X23.594 Y23.4
G1 F1500 X26.292 Y23.4 E55.86763
G0 F2400 X26.325 Y23.524
G1 F1500 X26.325 Y24.616 E55.92211
G0 F2400 X26.554 Y24.375
G1 F1500 X19.957 Y24.375 E56.25123
G0 F2400 X19.5 Y24.497
G1 F1500 X19.5 Y26.444 E56.34837
G0 F2400 X19.943 Y26.325
G1 F1500 X12.682 Y26.325 E56.71062
G0 F2400 X12.675 Y26.326
G1 F1500 X12.675 Y28.273 E56.80776
G0 F2400 X12.665 Y28.275
G1 F1500 X5.407 Y28.275 E57.16986
G0 F2400 X5.85 Y28.156
G1 F1500 X5.85 Y30.102 E57.26695
G0 F2400 X5.388 Y30.225
G1 F1500 X-1.866 Y30.225 E57.62885
G0 F2400 X-1.95 Y30.247
G1 F1500 X-1.95 Y32.192 E57.72589
G0 F2400 X-1.889 Y32.175
G1 F1500 X-11.401 Y32.175 E58.20044
G0 F2400 X-11.139 Y33.15
G1 F1500 X-5.528 Y33.15 E58.48038
G0 F2400 X-4.875 Y32.976
G1 F1500 X-4.875 Y31.031 E58.57741
G0 F2400 X-3.9 Y30.769
G1 F1500 X-3.9 Y32.714 E58.67445
G0 F2400 X-2.925 Y32.453
G1 F1500 X-2.925 Y30.508 E58.77149
G0 F2400 X-.975 Y29.985
G1 F1500 X-.975 Y31.931 E58.86857
G0 F2400 X0.00 Y31.669
G1 F1500 X0.00 Y29.724 E58.96561
G0 F2400 X0.975 Y29.463
G1 F1500 X0.975 Y31.408 E59.06265
G0 F2400 X2.925 Y30.886
G1 F1500 X2.925 Y28.94 E59.15973
G0 F2400 X3.9 Y28.678
G1 F1500 X3.9 Y30.624 E59.25682
G0 F2400 X4.875 Y30.363
G1 F1500 X4.875 Y28.417 E59.3539
G0 F2400 X6.825 Y27.894
G1 F1500 X6.825 Y29.841 E59.45104
G0 F2400 X7.8 Y29.579
G1 F1500 X7.8 Y27.633 E59.54813
G0 F2400 X9.75 Y27.11
G1 F1500 X9.75 Y29.057 E59.64526
G0 F2400 X10.725 Y28.796
G1 F1500 X10.725 Y26.849 E59.7424
G0 F2400 X11.7 Y26.588
G1 F1500 X11.7 Y28.534 E59.83949
G0 F2400 X13.65 Y28.012
G1 F1500 X13.65 Y26.065 E59.93662
G0 F2400 X14.625 Y25.804
G1 F1500 X14.625 Y27.751 E60.03376
G0 F2400 X15.6 Y27.489
G1 F1500 X15.6 Y25.542 E60.13089
G0 F2400 X17.55 Y25.02
G1 F1500 X17.55 Y26.967 E60.22803
G0 F2400 X18.525 Y26.706
G1 F1500 X18.525 Y24.758 E60.32522
G0 F2400 X20.475 Y24.235
G1 F1500 X20.475 Y26.183 E60.4224
G0 F2400 X21.45 Y25.922
G1 F1500 X21.45 Y23.974 E60.51959
G0 F2400 X22.425 Y23.713
G1 F1500 X22.425 Y25.661 E60.61678
G0 F2400 X24.375 Y25.138
G1 F1500 X24.375 Y16.246 E61.0604
G0 F2400 X24.464 Y16.575
G1 F1500 X22.523 Y16.575 E61.15724
G0 F2400 X22.425 Y16.208
G1 F1500 X22.425 Y8.968 E61.51844
G0 F2400 X22.374 Y8.775
G1 F1500 X20.431 Y8.775 E61.61538
G0 F2400 X20.475 Y8.935
G1 F1500 X20.475 Y1.69 E61.97683
G0 F2400 X20.545 Y1.95
G1 F1500 X18.601 Y1.95 E62.07382
G0 F2400 X18.525 Y1.661
G1 F1500 X18.525 Y-5.587 E62.43542
G0 F2400 X18.455 Y-5.849
G1 F1500 X16.51 Y-5.849 E62.53246
G0 F2400 X16.575 Y-5.612
G1 F1500 X16.575 Y-12.865 E62.89431
G0 F2400 X16.626 Y-12.674
G1 F1500 X14.68 Y-12.675 E62.9914
G0 F2400 X14.625 Y-12.886
G1 F1500 X14.625 Y-20.143 E63.35345
G0 F2400 X14.536 Y-20.475
G1 F1500 X12.598 Y-20.475 E63.45014
G0 F2400 X12.675 Y-20.2
G1 F1500 X12.675 Y-27.42 E63.81035
G0 F2400 X12.707 Y-27.3
G1 F1500 X4.756 Y-27.3 E64.20702
G0 F2400 X4.875 Y-26.863
G1 F1500 X4.875 Y-32.977 E64.51205
G0 F2400 X5.522 Y-33.15
G1 F1500 X11.139 Y-33.15 E64.79229
G0 F2400 X10.878 Y-34.125
G1 F1500 X9.165 Y-34.125 E64.87775
G0 F2400 X8.775 Y-34.021
G1 F1500 X8.775 Y-24.103 E65.37256
G0 F2400 X9.75 Y-24.364
G1 F1500 X9.75 Y-34.282 E65.86737
G0 F2400 X10.725 Y-34.543
G1 F1500 X10.725 Y-24.593 E66.36378
G0 F2400 X11.323 Y-24.375
G1 F1500 X13.491 Y-24.375 E66.47194
G0 F2400 X13.65 Y-23.781
G1 F1500 X13.65 Y-16.523 E66.83404
G0 F2400 X13.634 Y-16.575
G1 F1500 X15.581 Y-16.575 E66.93118
G0 F2400 X15.6 Y-16.504
G1 F1500 X15.6 Y-9.249 E67.29313
G0 F2400 X15.726 Y-8.774
G1 F1500 X17.671 Y-8.774 E67.39017
G0 F2400 X17.55 Y-9.226
G1 F1500 X17.55 Y-1.976 E67.75187
G0 F2400 X17.556 Y-1.949
G1 F1500 X19.5 Y-1.949 E67.84886
G0 F2400 X19.5 Y-1.948
G1 F1500 X19.5 Y5.298 E68.21036
G0 F2400 X19.386 Y4.875
G1 F1500 X21.329 Y4.875 E68.3073
G0 F2400 X21.45 Y5.329
G1 F1500 X21.45 Y12.572 E68.66866
G0 F2400 X21.477 Y12.675
G1 F1500 X23.419 Y12.675 E68.76554
G0 F2400 X23.4 Y12.607
G1 F1500 X23.4 Y19.845 E69.12665
G0 F2400 X23.307 Y19.5
G1 F1500 X25.247 Y19.5 E69.22343
G0 F2400 X25.35 Y19.885
G1 F1500 X25.35 Y24.877 E69.47249
G0 F2400 X26.031 Y22.425
G1 F1500 X24.091 Y22.425 E69.56927
G0 F2400 X23.83 Y21.45
G1 F1500 X25.77 Y21.45 E69.66606
G0 F2400 X25.509 Y20.475
G1 F1500 X23.568 Y20.475 E69.7629
G0 F2400 X23.045 Y18.525
G1 F1500 X24.986 Y18.525 E69.85973
G0 F2400 X24.725 Y17.55
G1 F1500 X22.784 Y17.55 E69.95657
G0 F2400 X22.261 Y15.6
G1 F1500 X24.202 Y15.6 E70.05341
G0 F2400 X23.941 Y14.625
G1 F1500 X22 Y14.625 E70.15024
G0 F2400 X21.738 Y13.65
G1 F1500 X23.68 Y13.65 E70.24713
G0 F2400 X23.157 Y11.7
G1 F1500 X21.215 Y11.7 E70.34402
G0 F2400 X20.954 Y10.725
G1 F1500 X22.896 Y10.725 E70.4409
G0 F2400 X22.635 Y9.75
G1 F1500 X20.693 Y9.75 E70.53779
G0 F2400 X20.17 Y7.8
G1 F1500 X22.112 Y7.8 E70.63468
G0 F2400 X21.851 Y6.825
G1 F1500 X19.908 Y6.825 E70.73161
G0 F2400 X19.647 Y5.85
G1 F1500 X21.59 Y5.85 E70.82855
G0 F2400 X21.067 Y3.9
G1 F1500 X19.124 Y3.9 E70.92549
G0 F2400 X18.863 Y2.925
G1 F1500 X20.806 Y2.925 E71.02242
G0 F2400 X20.284 Y0.975
G1 F1500 X18.34 Y0.975 E71.11941
G0 F2400 X18.078 Y0.00
G1 F1500 X20.022 Y0.00 E71.2164
G0 F2400 X19.761 Y-.974
G1 F1500 X17.817 Y-.974 E71.31338
G0 F2400 X17.294 Y-2.924
G1 F1500 X19.238 Y-2.924 E71.41037
G0 F2400 X18.977 Y-3.899
G1 F1500 X17.033 Y-3.899 E71.50736
G0 F2400 X16.771 Y-4.874
G1 F1500 X18.716 Y-4.874 E71.60439
G0 F2400 X18.193 Y-6.824
G1 F1500 X16.249 Y-6.824 E71.70138
G0 F2400 X15.987 Y-7.799
G1 F1500 X17.932 Y-7.799 E71.79842
G0 F2400 X17.41 Y-9.749
G1 F1500 X15.464 Y-9.749 E71.8955
G0 F2400 X15.203 Y-10.724
G1 F1500 X17.148 Y-10.724 E71.99254
G0 F2400 X16.887 Y-11.699
G1 F1500 X14.942 Y-11.699 E72.08958
G0 F2400 X14.419 Y-13.65
G1 F1500 X16.365 Y-13.649 E72.18666
G0 F2400 X16.103 Y-14.624
G1 F1500 X14.157 Y-14.625 E72.28375
G0 F2400 X13.896 Y-15.6
G1 F1500 X15.842 Y-15.599 E72.38084
G0 F2400 X15.32 Y-17.55
G1 F1500 X13.373 Y-17.55 E72.47797
G0 F2400 X13.112 Y-18.525
G1 F1500 X15.058 Y-18.525 E72.57506
G0 F2400 X14.797 Y-19.5
G1 F1500 X12.85 Y-19.5 E72.67219
G0 F2400 X12.329 Y-21.45
G1 F1500 X14.275 Y-21.45 E72.76928
G0 F2400 X14.013 Y-22.425
G1 F1500 X12.067 Y-22.425 E72.86637
G0 F2400 X11.806 Y-23.4
G1 F1500 X13.752 Y-23.4 E72.96345
G0 F2400 X13.23 Y-25.35
G1 F1500 X5.279 Y-25.35 E73.36013
G0 F2400 X5.018 Y-26.325
G1 F1500 X12.968 Y-26.325 E73.75676
G0 F2400 X12.446 Y-28.275
G1 F1500 X4.495 Y-28.275 E74.15343
G0 F2400 X4.233 Y-29.25
G1 F1500 X12.184 Y-29.25 E74.55011
G0 F2400 X11.923 Y-30.225
G1 F1500 X3.972 Y-30.225 E74.94679
