;FLAVOR:Marlin
;TIME:8106
;Filament used: 4.33893m
;Layer height: 0.1
;Generated with Cura_SteamEngine 3.4.1
M190 S40
M104 S200
M109 S200
M82 ;absolute extrusion mode
G28 ;Home
G1 Z15.0 F6000 ;Move the platform down 15mm
G29 Z0.4 ;auto-level
G92 E0
G1 F200 E3
G92 E0
G92 E0
G1 F2400 E-4.5
;LAYER_COUNT:79
;LAYER:0
M107
M204 S5000
M205 X30 Y30
G0 F3600 X28.691 Y-33.74 Z0.3
M204 S3000
M205 X20 Y20
;TYPE:SKIRT
G1 F2400 E0
G1 F1500 X28.691 Y33.741 E3.36664
G1 X28.651 Y34.245 E3.39186
G1 X28.532 Y34.736 E3.41707
G1 X28.338 Y35.203 E3.4423
G1 X28.072 Y35.633 E3.46752
G1 X27.742 Y36.016 E3.49275
G1 X27.355 Y36.342 E3.51799
G1 X26.922 Y36.603 E3.54322
G1 X26.454 Y36.793 E3.56841
G1 X25.961 Y36.906 E3.59365
G1 X25.491 Y36.941 E3.61716
G1 X-25.491 Y36.941 E6.16066
G1 X-25.995 Y36.901 E6.18589
G1 X-26.486 Y36.782 E6.21109
G1 X-26.953 Y36.588 E6.23632
G1 X-27.383 Y36.322 E6.26155
G1 X-27.766 Y35.992 E6.28677
G1 X-28.092 Y35.605 E6.31202
G1 X-28.353 Y35.172 E6.33724
G1 X-28.543 Y34.704 E6.36244
G1 X-28.656 Y34.211 E6.38767
G1 X-28.691 Y33.741 E6.41119
G1 X-28.691 Y-33.741 E9.77788
G1 X-28.651 Y-34.245 E9.8031
G1 X-28.532 Y-34.736 E9.8283
G1 X-28.338 Y-35.203 E9.85353
G1 X-28.072 Y-35.633 E9.87876
G1 X-27.742 Y-36.016 E9.90398
G1 X-27.355 Y-36.342 E9.92923
G1 X-26.922 Y-36.603 E9.95445
G1 X-26.454 Y-36.793 E9.97965
G1 X-25.961 Y-36.906 E10.00488
G1 X-25.491 Y-36.941 E10.0284
G1 X25.491 Y-36.94 E12.5719
G1 X25.995 Y-36.9 E12.59712
G1 X26.486 Y-36.781 E12.62233
G1 X26.953 Y-36.586 E12.64758
G1 X27.383 Y-36.321 E12.67278
G1 X27.766 Y-35.99 E12.69803
G1 X28.092 Y-35.604 E12.72324
G1 X28.353 Y-35.171 E12.74846
G1 X28.543 Y-34.703 E12.77366
G1 X28.656 Y-34.21 E12.79889
G1 X28.691 Y-33.74 E12.82241
M204 S5000
M205 X30 Y30
G1 F2400 E8.32241
G0 F3600 X26.165 Y-33.136
G0 X24.886 Y-33.136
G0 X24.83 Y33.08
G0 X24.9 Y33.15
M204 S3000
M205 X20 Y20
;TYPE:WALL-INNER
G1 F2400 E12.82241
G1 F1500 X-24.9 Y33.15 E15.30694
G1 X-24.9 Y-33.15 E18.61466
G1 X24.9 Y-33.15 E21.09919
G1 X24.9 Y33.15 E24.40691
M204 S5000
M205 X30 Y30
G0 F3600 X25.3 Y33.55
M204 S3000
M205 X20 Y20
;TYPE:WALL-OUTER
G1 F1500 X-25.3 Y33.55 E26.93136
G1 X-25.3 Y-33.55 E30.27899
G1 X25.3 Y-33.55 E32.80343
G1 X25.3 Y33.55 E36.15107
M204 S5000
M205 X30 Y30
G0 F3600 X25.1 Y33.55
G0 X24.83 Y33.08
G0 X24.51 Y32.76
M204 S3000
M205 X20 Y20
;TYPE:SKIN
G1 F1500 X-24.51 Y32.76 E38.59668
G1 X-24.51 Y-32.76 E41.86549
G1 X24.51 Y-32.76 E44.31111
G1 X24.51 Y32.76 E47.57991
M204 S5000
M205 X30 Y30
G0 F3600 X-23.989 Y32.579
M204 S3000
M205 X20 Y20
G1 F1500 X-24.33 Y32.238 E47.60397
M204 S5000
M205 X30 Y30
G0 F3600 X-24.33 Y31.672
M204 S3000
M205 X20 Y20
G1 F1500 X-23.423 Y32.579 E47.66797
G1 X-23.353 Y32.649
M204 S5000
M205 X30 Y30
G0 F3600 X-22.857 Y32.579
M204 S3000
M205 X20 Y20
G1 F1500 X-24.33 Y31.107 E47.77186
G1 X-24.4 Y31.037
M204 S5000
M205 X30 Y30
G0 F3600 X-24.33 Y30.541
M204 S3000
M205 X20 Y20
G1 F1500 X-22.292 Y32.579 E47.91565
G1 X-22.222 Y32.649
M204 S5000
M205 X30 Y30
G0 F3600 X-21.726 Y32.579
M204 S3000
M205 X20 Y20
G1 F1500 X-24.33 Y29.975 E48.09938
G1 X-24.4 Y29.905
M204 S5000
M205 X30 Y30
G0 F3600 X-24.33 Y29.409
M204 S3000
M205 X20 Y20
G1 F1500 X-21.16 Y32.579 E48.32304
G1 X-21.09 Y32.649
M204 S5000
M205 X30 Y30
G0 F3600 X-20.595 Y32.579
M204 S3000
M205 X20 Y20
G1 F1500 X-24.33 Y28.844 E48.58656
G1 X-24.4 Y28.774
M204 S5000
M205 X30 Y30
G0 F3600 X-24.33 Y28.278
M204 S3000
M205 X20 Y20
G1 F1500 X-20.029 Y32.579 E48.89002
G1 X-19.959 Y32.649
M204 S5000
M205 X30 Y30
G0 F3600 X-19.463 Y32.579
M204 S3000
M205 X20 Y20
G1 F1500 X-24.33 Y27.712 E49.23341
G1 X-24.4 Y27.642
M204 S5000
M205 X30 Y30
G0 F3600 X-24.33 Y27.147
M204 S3000
M205 X20 Y20
G1 F1500 X-18.898 Y32.579 E49.61667
G1 X-18.828 Y32.649
M204 S5000
M205 X30 Y30
G0 F3600 X-18.332 Y32.579
M204 S3000
M205 X20 Y20
G1 F1500 X-24.33 Y26.581 E50.03986
G1 X-24.4 Y26.511
M204 S5000
M205 X30 Y30
G0 F3600 X-24.33 Y26.015
M204 S3000
M205 X20 Y20
G1 F1500 X-17.766 Y32.579 E50.50299
G1 X-17.696 Y32.649
M204 S5000
M205 X30 Y30
G0 F3600 X-17.201 Y32.579
M204 S3000
M205 X20 Y20
G1 F1500 X-24.33 Y25.45 E51.00598
G1 X-24.4 Y25.38
M204 S5000
M205 X30 Y30
G0 F3600 X-24.33 Y24.884
M204 S3000
M205 X20 Y20
G1 F1500 X-16.635 Y32.579 E51.5489
G1 X-16.565 Y32.649
M204 S5000
M205 X30 Y30
G0 F3600 X-16.069 Y32.579
M204 S3000
M205 X20 Y20
G1 F1500 X-24.33 Y24.318 E52.13176
G1 X-24.4 Y24.248
M204 S5000
M205 X30 Y30
G0 F3600 X-24.33 Y23.753
M204 S3000
M205 X20 Y20
G1 F1500 X-15.504 Y32.579 E52.75448
G1 X-15.434 Y32.649
M204 S5000
M205 X30 Y30
G0 F3600 X-14.938 Y32.579
M204 S3000
M205 X20 Y20
G1 F1500 X-24.33 Y23.187 E53.41714
G1 X-24.4 Y23.117
M204 S5000
M205 X30 Y30
G0 F3600 X-24.33 Y22.621
M204 S3000
M205 X20 Y20
G1 F1500 X-14.372 Y32.579 E54.11973
G1 X-14.302 Y32.649
M204 S5000
M205 X30 Y30
G0 F3600 X-13.806 Y32.579
M204 S3000
M205 X20 Y20
G1 F1500 X-24.33 Y22.056 E54.86222
G1 X-24.4 Y21.986
M204 S5000
M205 X30 Y30
G0 F3600 X-24.33 Y21.49
M204 S3000
M205 X20 Y20
G1 F1500 X-13.241 Y32.579 E55.64461
G1 X-13.171 Y32.649
M204 S5000
M205 X30 Y30
G0 F3600 X-12.675 Y32.579
M204 S3000
M205 X20 Y20
G1 F1500 X-24.33 Y20.924 E56.46693
G1 X-24.4 Y20.854
M204 S5000
M205 X30 Y30
G0 F3600 X-24.33 Y20.359
M204 S3000
M205 X20 Y20
G1 F1500 X-12.109 Y32.579 E57.32915
G1 X-12.039 Y32.649
M204 S5000
M205 X30 Y30
G0 F3600 X-11.544 Y32.579
M204 S3000
M205 X20 Y20
G1 F1500 X-24.33 Y19.793 E58.23127
G1 X-24.4 Y19.723
M204 S5000
M205 X30 Y30
G0 F3600 X-24.33 Y19.227
M204 S3000
M205 X20 Y20
G1 F1500 X-10.978 Y32.579 E59.17333
G1 X-10.908 Y32.649
M204 S5000
M205 X30 Y30
G0 F3600 X-10.412 Y32.579
M204 S3000
M205 X20 Y20
G1 F1500 X-24.33 Y18.661 E60.15532
G1 X-24.4 Y18.591
M204 S5000
M205 X30 Y30
G0 F3600 X-24.33 Y18.096
M204 S3000
M205 X20 Y20
G1 F1500 X-9.847 Y32.579 E61.17717
G1 X-9.777 Y32.649
M204 S5000
M205 X30 Y30
G0 F3600 X-9.281 Y32.579
M204 S3000
M205 X20 Y20
G1 F1500 X-24.33 Y17.53 E62.23896
G1 X-24.4 Y17.46
M204 S5000
M205 X30 Y30
G0 F3600 X-24.33 Y16.964
M204 S3000
M205 X20 Y20
G1 F1500 X-8.715 Y32.579 E63.34069
G1 X-8.645 Y32.649
M204 S5000
M205 X30 Y30
G0 F3600 X-8.15 Y32.579
M204 S3000
M205 X20 Y20
G1 F1500 X-24.33 Y16.399 E64.48227
G1 X-24.4 Y16.329
M204 S5000
M205 X30 Y30
G0 F3600 X-24.33 Y15.833
M204 S3000
M205 X20 Y20
G1 F1500 X-7.584 Y32.579 E65.66379
G1 X-7.514 Y32.649
M204 S5000
M205 X30 Y30
G0 F3600 X-7.018 Y32.579
M204 S3000
M205 X20 Y20
G1 F1500 X-24.33 Y15.267 E66.88525
G1 X-24.4 Y15.197
M204 S5000
M205 X30 Y30
G0 F3600 X-24.33 Y14.702
M204 S3000
M205 X20 Y20
G1 F1500 X-6.453 Y32.579 E68.14657
G1 X-6.383 Y32.649
M204 S5000
M205 X30 Y30
G0 F3600 X-5.887 Y32.579
M204 S3000
M205 X20 Y20
G1 F1500 X-24.33 Y14.136 E69.44782
G1 X-24.4 Y14.066
M204 S5000
M205 X30 Y30
G0 F3600 X-24.33 Y13.57
M204 S3000
M205 X20 Y20
G1 F1500 X-5.321 Y32.579 E70.78901
G1 X-5.251 Y32.649
M204 S5000
M205 X30 Y30
G0 F3600 X-4.756 Y32.579
M204 S3000
M205 X20 Y20
G1 F1500 X-24.33 Y13.005 E72.17006
G1 X-24.4 Y12.935
M204 S5000
M205 X30 Y30
G0 F3600 X-24.33 Y12.439
M204 S3000
M205 X20 Y20
G1 F1500 X-4.19 Y32.579 E73.59104
G1 X-4.12 Y32.649
M204 S5000
M205 X30 Y30
G0 F3600 X-3.624 Y32.579
M204 S3000
M205 X20 Y20
G1 F1500 X-24.33 Y11.873 E75.05196
G1 X-24.4 Y11.803
M204 S5000
M205 X30 Y30
G0 F3600 X-24.33 Y11.308
M204 S3000
M205 X20 Y20
G1 F1500 X-3.058 Y32.579 E76.55278
G1 X-2.988 Y32.649
M204 S5000
M205 X30 Y30
G0 F3600 X-2.493 Y32.579
M204 S3000
M205 X20 Y20
G1 F1500 X-24.33 Y10.742 E78.0935
G1 X-24.4 Y10.672
M204 S5000
M205 X30 Y30
G0 F3600 X-24.33 Y10.176
M204 S3000
M205 X20 Y20
G1 F1500 X-1.927 Y32.579 E79.67415
G1 X-1.857 Y32.649
M204 S5000
M205 X30 Y30
G0 F3600 X-1.361 Y32.579
M204 S3000
M205 X20 Y20
G1 F1500 X-24.33 Y9.61 E81.29474
G1 X-24.4 Y9.54
M204 S5000
M205 X30 Y30
G0 F3600 X-24.33 Y9.045
M204 S3000
M205 X20 Y20
G1 F1500 X-.796 Y32.579 E82.95519
G1 X-.726 Y32.649
M204 S5000
M205 X30 Y30
G0 F3600 X-.23 Y32.579
M204 S3000
M205 X20 Y20
G1 F1500 X-24.33 Y8.479 E84.65558
G1 X-24.4 Y8.409
M204 S5000
M205 X30 Y30
G0 F3600 X-24.33 Y7.913
M204 S3000
M205 X20 Y20
G1 F1500 X0.335 Y32.579 E86.39586
G1 X0.405 Y32.649
M204 S5000
M205 X30 Y30
G0 F3600 X0.9 Y32.579
M204 S3000
M205 X20 Y20
G1 F1500 X-24.33 Y7.348 E88.17601
G1 X-24.4 Y7.278
M204 S5000
M205 X30 Y30
G0 F3600 X-24.33 Y6.782
M204 S3000
M205 X20 Y20
G1 F1500 X1.466 Y32.579 E89.99609
G1 X1.536 Y32.649
M204 S5000
M205 X30 Y30
G0 F3600 X2.032 Y32.579
M204 S3000
M205 X20 Y20
G1 F1500 X-24.33 Y6.216 E91.85611
G1 X-24.4 Y6.146
M204 S5000
M205 X30 Y30
G0 F3600 X-24.33 Y5.651
M204 S3000
M205 X20 Y20
G1 F1500 X2.597 Y32.579 E93.75599
G1 X2.667 Y32.649
M204 S5000
M205 X30 Y30
G0 F3600 X3.163 Y32.579
M204 S3000
M205 X20 Y20
G1 F1500 X-24.33 Y5.085 E95.6958
G1 X-24.4 Y5.015
M204 S5000
M205 X30 Y30
G0 F3600 X-24.33 Y4.519
M204 S3000
M205 X20 Y20
G1 F1500 X3.729 Y32.579 E97.67555
G1 X3.799 Y32.649
M204 S5000
M205 X30 Y30
G0 F3600 X4.294 Y32.579
M204 S3000
M205 X20 Y20
G1 F1500 X-24.33 Y3.954 E99.69517
G1 X-24.4 Y3.884
M204 S5000
M205 X30 Y30
G0 F3600 X-24.33 Y3.388
M204 S3000
M205 X20 Y20
G1 F1500 X4.86 Y32.579 E101.75471
G1 X4.93 Y32.649
M204 S5000
M205 X30 Y30
G0 F3600 X5.426 Y32.579
M204 S3000
M205 X20 Y20
G1 F1500 X-24.33 Y2.822 E103.8542
G1 X-24.4 Y2.752
M204 S5000
M205 X30 Y30
G0 F3600 X-24.33 Y2.257
M204 S3000
M205 X20 Y20
G1 F1500 X5.992 Y32.579 E105.99358
G1 X6.062 Y32.649
M204 S5000
M205 X30 Y30
G0 F3600 X6.557 Y32.579
M204 S3000
M205 X20 Y20
G1 F1500 X-24.33 Y1.691 E108.17286
G1 X-24.4 Y1.621
M204 S5000
M205 X30 Y30
G0 F3600 X-24.33 Y1.125
M204 S3000
M205 X20 Y20
G1 F1500 X7.123 Y32.579 E110.39207
G1 X7.193 Y32.649
M204 S5000
M205 X30 Y30
G0 F3600 X7.689 Y32.579
M204 S3000
M205 X20 Y20
G1 F1500 X-24.33 Y0.56 E112.65118
G1 X-24.4 Y0.49
M204 S5000
M205 X30 Y30
G0 F3600 X-24.33 Y-0.005
M204 S3000
M205 X20 Y20
G1 F1500 X8.254 Y32.579 E114.95016
G1 X8.324 Y32.649
M204 S5000
M205 X30 Y30
G0 F3600 X8.82 Y32.579
M204 S3000
M205 X20 Y20
G1 F1500 X-24.33 Y-.571 E117.28907
G1 X-24.4 Y-.641
M204 S5000
M205 X30 Y30
G0 F3600 X-24.33 Y-1.137
M204 S3000
M205 X20 Y20
G1 F1500 X9.386 Y32.579 E119.66792
G1 X9.456 Y32.649
M204 S5000
M205 X30 Y30
G0 F3600 X9.951 Y32.579
M204 S3000
M205 X20 Y20
G1 F1500 X-24.33 Y-1.702 E122.08663
G1 X-24.4 Y-1.772
M204 S5000
M205 X30 Y30
G0 F3600 X-24.33 Y-2.268
M204 S3000
M205 X20 Y20
G1 F1500 X10.517 Y32.579 E124.54527
G1 X10.587 Y32.649
M204 S5000
M205 X30 Y30
G0 F3600 X11.083 Y32.579
M204 S3000
M205 X20 Y20
G1 F1500 X-24.33 Y-2.834 E127.04385
G1 X-24.4 Y-2.904
M204 S5000
M205 X30 Y30
G0 F3600 X-24.33 Y-3.399
M204 S3000
M205 X20 Y20
G1 F1500 X11.648 Y32.579 E129.58229
G1 X11.718 Y32.649
M204 S5000
M205 X30 Y30
G0 F3600 X12.214 Y32.579
M204 S3000
M205 X20 Y20
G1 F1500 X-24.33 Y-3.965 E132.16067
G1 X-24.4 Y-4.035
M204 S5000
M205 X30 Y30
G0 F3600 X-24.33 Y-4.531
M204 S3000
M205 X20 Y20
G1 F1500 X12.78 Y32.579 E134.77898
G1 X12.85 Y32.649
M204 S5000
M205 X30 Y30
G0 F3600 X13.345 Y32.579
M204 S3000
M205 X20 Y20
G1 F1500 X-24.33 Y-5.096 E137.43716
G1 X-24.4 Y-5.166
M204 S5000
M205 X30 Y30
G0 F3600 X-24.33 Y-5.662
M204 S3000
M205 X20 Y20
G1 F1500 X13.911 Y32.579 E140.13526
G1 X13.981 Y32.649
M204 S5000
M205 X30 Y30
G0 F3600 X14.477 Y32.579
M204 S3000
M205 X20 Y20
G1 F1500 X-24.33 Y-6.228 E142.87331
G1 X-24.4 Y-6.298
M204 S5000
M205 X30 Y30
G0 F3600 X-24.33 Y-6.793
M204 S3000
M205 X20 Y20
G1 F1500 X15.042 Y32.579 E145.65122
G1 X15.112 Y32.649
M204 S5000
M205 X30 Y30
G0 F3600 X15.608 Y32.579
M204 S3000
M205 X20 Y20
G1 F1500 X-24.33 Y-7.359 E148.46906
G1 X-24.4 Y-7.429
M204 S5000
M205 X30 Y30
G0 F3600 X-24.33 Y-7.925
M204 S3000
M205 X20 Y20
G1 F1500 X16.174 Y32.579 E151.32683
G1 X16.244 Y32.649
M204 S5000
M205 X30 Y30
G0 F3600 X16.74 Y32.579
M204 S3000
M205 X20 Y20
G1 F1500 X-24.33 Y-8.49 E154.22451
G1 X-24.4 Y-8.56
M204 S5000
M205 X30 Y30
G0 F3600 X-24.33 Y-9.056
M204 S3000
M205 X20 Y20
G1 F1500 X17.305 Y32.579 E157.16208
G1 X17.375 Y32.649
M204 S5000
M205 X30 Y30
G0 F3600 X17.871 Y32.579
M204 S3000
M205 X20 Y20
G1 F1500 X-24.33 Y-9.622 E160.13959
G1 X-24.4 Y-9.692
M204 S5000
M205 X30 Y30
G0 F3600 X-24.33 Y-10.187
M204 S3000
M205 X20 Y20
G1 F1500 X18.437 Y32.579 E163.157
G1 X18.507 Y32.649
M204 S5000
M205 X30 Y30
G0 F3600 X19.002 Y32.579
M204 S3000
M205 X20 Y20
G1 F1500 X-24.33 Y-10.753 E166.21431
G1 X-24.4 Y-10.823
M204 S5000
M205 X30 Y30
G0 F3600 X-24.33 Y-11.319
M204 S3000
M205 X20 Y20
G1 F1500 X19.568 Y32.579 E169.31155
G1 X19.638 Y32.649
M204 S5000
M205 X30 Y30
G0 F3600 X20.134 Y32.579
M204 S3000
M205 X20 Y20
G1 F1500 X-24.33 Y-11.885 E172.44872
G1 X-24.4 Y-11.955
M204 S5000
M205 X30 Y30
G0 F3600 X-24.33 Y-12.45
M204 S3000
M205 X20 Y20
G1 F1500 X20.699 Y32.579 E175.62576
G1 X20.769 Y32.649
M204 S5000
M205 X30 Y30
G0 F3600 X21.265 Y32.579
M204 S3000
M205 X20 Y20
G1 F1500 X-24.33 Y-13.016 E178.84273
G1 X-24.4 Y-13.086
M204 S5000
M205 X30 Y30
G0 F3600 X-24.33 Y-13.582
M204 S3000
M205 X20 Y20
G1 F1500 X21.831 Y32.579 E182.09964
G1 X21.901 Y32.649
M204 S5000
M205 X30 Y30
G0 F3600 X22.396 Y32.579
M204 S3000
M205 X20 Y20
G1 F1500 X-24.33 Y-14.147 E185.39641
G1 X-24.4 Y-14.217
M204 S5000
M205 X30 Y30
G0 F3600 X-24.33 Y-14.713
M204 S3000
M205 X20 Y20
G1 F1500 X22.962 Y32.579 E188.73312
G1 X23.032 Y32.649
M204 S5000
M205 X30 Y30
G0 F3600 X23.528 Y32.579
M204 S3000
M205 X20 Y20
G1 F1500 X-24.33 Y-15.279 E192.10976
G1 X-24.4 Y-15.349
M204 S5000
M205 X30 Y30
G0 F3600 X-24.33 Y-15.844
M204 S3000
M205 X20 Y20
G1 F1500 X24.093 Y32.579 E195.52626
G1 X24.163 Y32.649
M204 S5000
M205 X30 Y30
G0 F3600 X24.33 Y32.249
M204 S3000
M205 X20 Y20
G1 F1500 X-24.33 Y-16.41 E198.95945
G1 X-24.4 Y-16.48
M204 S5000
M205 X30 Y30
G0 F3600 X-24.33 Y-16.976
M204 S3000
M205 X20 Y20
G1 F1500 X24.33 Y31.684 E202.39268
G1 X24.4 Y31.754
M204 S5000
M205 X30 Y30
G0 F3600 X24.33 Y31.118
M204 S3000
M205 X20 Y20
G1 F1500 X-24.33 Y-17.541 E205.82587
G1 X-24.4 Y-17.611
M204 S5000
M205 X30 Y30
G0 F3600 X-24.33 Y-18.107
M204 S3000
M205 X20 Y20
G1 F1500 X24.33 Y30.552 E209.25906
G1 X24.4 Y30.622
M204 S5000
M205 X30 Y30
G0 F3600 X24.33 Y29.986
M204 S3000
M205 X20 Y20
G1 F1500 X-24.33 Y-18.673 E212.69225
G1 X-24.4 Y-18.743
M204 S5000
M205 X30 Y30
G0 F3600 X-24.33 Y-19.238
M204 S3000
M205 X20 Y20
G1 F1500 X24.33 Y29.421 E216.12544
G1 X24.4 Y29.491
M204 S5000
M205 X30 Y30
G0 F3600 X24.33 Y28.855
M204 S3000
M205 X20 Y20
G1 F1500 X-24.33 Y-19.804 E219.55863
G1 X-24.4 Y-19.874
M204 S5000
M205 X30 Y30
G0 F3600 X-24.33 Y-20.37
M204 S3000
M205 X20 Y20
G1 F1500 X24.33 Y28.289 E222.99182
G1 X24.4 Y28.359
M204 S5000
M205 X30 Y30
G0 F3600 X24.33 Y27.724
M204 S3000
M205 X20 Y20
G1 F1500 X-24.33 Y-20.936 E226.42505
G1 X-24.4 Y-21.006
M204 S5000
M205 X30 Y30
G0 F3600 X-24.33 Y-21.501
M204 S3000
M205 X20 Y20
G1 F1500 X24.33 Y27.158 E229.85824
G1 X24.4 Y27.228
M204 S5000
M205 X30 Y30
G0 F3600 X24.33 Y26.592
M204 S3000
M205 X20 Y20
G1 F1500 X-24.33 Y-22.067 E233.29143
G1 X-24.4 Y-22.137
M204 S5000
M205 X30 Y30
G0 F3600 X-24.33 Y-22.633
M204 S3000
M205 X20 Y20
G1 F1500 X24.33 Y26.027 E236.72466
G1 X24.4 Y26.097
M204 S5000
M205 X30 Y30
G0 F3600 X24.33 Y25.461
M204 S3000
M205 X20 Y20
G1 F1500 X-24.33 Y-23.198 E240.15785
G1 X-24.4 Y-23.268
M204 S5000
M205 X30 Y30
G0 F3600 X-24.33 Y-23.764
M204 S3000
M205 X20 Y20
G1 F1500 X24.33 Y24.895 E243.59104
G1 X24.4 Y24.965
M204 S5000
M205 X30 Y30
G0 F3600 X24.33 Y24.33
M204 S3000
M205 X20 Y20
G1 F1500 X-24.33 Y-24.33 E247.02426
