;FLAVOR:Marlin
;TIME:11062
;Filament used: 5.97322m
;Layer height: 0.1
;Generated with Cura_SteamEngine 3.4.1
M190 S40
M104 S200
M109 S200
M82 ;absolute extrusion mode
G28 ;Home
G1 Z15.0 F6000 ;Move the platform down 15mm
G29 Z0.4 ;auto-level
G92 E0
G1 F200 E3
G92 E0
G92 E0
G1 F2400 E-4.5
;LAYER_COUNT:79
;LAYER:0
M107
M204 S5000
M205 X30 Y30
G0 F3600 X-15.811 Y-29.695 Z0.3
M204 S3000
M205 X20 Y20
;TYPE:SKIRT
G1 F2400 E0
G1 F1500 X-10.827 Y-31.951 E0.27294
G1 X-4.503 Y-35.314 E0.63028
G1 X-4.04 Y-35.516 E0.65549
G1 X-3.55 Y-35.642 E0.68073
G1 X-3.001 Y-35.689 E0.70822
G1 X38.991 Y-35.69 E2.80321
G1 X39.495 Y-35.65 E2.82843
G1 X39.986 Y-35.531 E2.85363
G1 X40.453 Y-35.337 E2.87886
G1 X40.883 Y-35.071 E2.90409
G1 X41.266 Y-34.741 E2.92931
G1 X41.592 Y-34.354 E2.95456
G1 X41.853 Y-33.921 E2.97978
G1 X42.043 Y-33.453 E3.00498
G1 X42.156 Y-32.96 E3.03021
G1 X42.191 Y-32.49 E3.05373
G1 X42.191 Y32.491 E6.29564
G1 X42.151 Y32.995 E6.32087
G1 X42.032 Y33.486 E6.34607
G1 X41.838 Y33.953 E6.3713
G1 X41.572 Y34.383 E6.39653
G1 X41.242 Y34.766 E6.42175
G1 X40.855 Y35.092 E6.44699
G1 X40.422 Y35.353 E6.47222
G1 X39.954 Y35.543 E6.49742
G1 X39.461 Y35.656 E6.52265
G1 X38.991 Y35.691 E6.54616
G1 X-38.991 Y35.691 E10.4367
G1 X-39.495 Y35.651 E10.46192
G1 X-39.986 Y35.532 E10.48713
G1 X-40.453 Y35.338 E10.51236
G1 X-40.883 Y35.072 E10.53758
G1 X-41.266 Y34.742 E10.56281
G1 X-41.592 Y34.355 E10.58805
G1 X-41.853 Y33.922 E10.61328
G1 X-42.043 Y33.454 E10.63847
G1 X-42.156 Y32.961 E10.66371
G1 X-42.191 Y32.491 E10.68722
G1 X-42.19 Y-19.992 E13.30561
G1 X-42.15 Y-20.496 E13.33083
G1 X-42.031 Y-20.987 E13.35604
G1 X-41.836 Y-21.454 E13.38129
G1 X-41.571 Y-21.884 E13.40649
G1 X-41.24 Y-22.267 E13.43174
G1 X-40.854 Y-22.593 E13.45695
G1 X-40.421 Y-22.854 E13.48217
G1 X-39.953 Y-23.044 E13.50737
G1 X-39.533 Y-23.146 E13.52893
G1 X-34.097 Y-24.083 E13.80414
G1 X-28.774 Y-25.312 E14.07669
G1 X-26.154 Y-26.035 E14.21229
G1 X-20.911 Y-27.726 E14.48713
G1 X-15.811 Y-29.695 E14.75987
M204 S5000
M205 X30 Y30
G1 F2400 E10.25987
G0 F3600 X-17.898 Y-20.629
G0 X-17.907 Y-20.585
G0 X-20.361 Y-9.926
G0 X-20.37 Y-9.882
G0 X-20.434 Y-9.617
M204 S3000
M205 X20 Y20
;TYPE:SUPPORT
G1 F2400 E14.75987
G1 F1500 X-19.914 Y-9.401 E14.78797
G1 X-19.452 Y-9.048 E14.81697
G1 X-19.099 Y-8.586 E14.84598
G1 X-18.883 Y-8.066 E14.87407
G1 X-18.809 Y-7.5 E14.90255
G1 X-18.883 Y-6.934 E14.93103
G1 X-19.099 Y-6.414 E14.95912
G1 X-19.452 Y-5.952 E14.98813
G1 X-19.914 Y-5.599 E15.01714
G1 X-20.434 Y-5.383 E15.04523
G1 X-21 Y-5.309 E15.07371
G1 X-21.566 Y-5.383 E15.10218
G1 X-22.086 Y-5.599 E15.13028
G1 X-22.548 Y-5.952 E15.15928
G1 X-22.901 Y-6.414 E15.18829
G1 X-23.117 Y-6.934 E15.21638
G1 X-23.191 Y-7.5 E15.24486
G1 X-23.117 Y-8.066 E15.27334
G1 X-22.901 Y-8.586 E15.30143
G1 X-22.548 Y-9.048 E15.33044
G1 X-22.086 Y-9.401 E15.35945
G1 X-21.566 Y-9.617 E15.38754
G1 X-21 Y-9.691 E15.41602
G1 X-20.434 Y-9.617 E15.44449
M204 S5000
M205 X30 Y30
G0 F3600 X-21.328 Y-9.488
M204 S3000
M205 X20 Y20
G1 F1500 X-21.328 Y-5.513 E15.64281
M204 S5000
M205 X30 Y30
G0 F3600 X-22.964 Y-7.998
M204 S3000
M205 X20 Y20
G1 F1500 X-19.035 Y-7.998 E15.83883
M204 S5000
M205 X30 Y30
G1 F2400 E11.33883
G0 F3600 X-21 Y-9.93
G0 X-21 Y-11.205
G0 X-22.902 Y-10.796
G0 X-22.853 Y-10.71
M204 S3000
M205 X20 Y20
;TYPE:WALL-INNER
G1 F2400 E15.83883
G1 F1500 X-23.62 Y-10.12 E15.8871
G1 X-24.21 Y-9.353 E15.93538
G1 X-24.579 Y-8.458 E15.98368
G1 X-24.705 Y-7.5 E16.03188
G1 X-24.579 Y-6.542 E16.08009
G1 X-24.21 Y-5.647 E16.12839
G1 X-23.62 Y-4.88 E16.17667
G1 X-22.853 Y-4.29 E16.22494
G1 X-21.958 Y-3.921 E16.27324
G1 X-21 Y-3.795 E16.32145
G1 X-20.042 Y-3.921 E16.36965
G1 X-19.147 Y-4.29 E16.41795
G1 X-18.38 Y-4.88 E16.46623
G1 X-17.79 Y-5.647 E16.51451
G1 X-17.421 Y-6.542 E16.56281
G1 X-17.295 Y-7.5 E16.61101
G1 X-17.421 Y-8.458 E16.65922
G1 X-17.79 Y-9.353 E16.70752
G1 X-18.38 Y-10.12 E16.75579
G1 X-19.147 Y-10.71 E16.80407
G1 X-20.042 Y-11.079 E16.85237
G1 X-21 Y-11.205 E16.90057
G1 X-21.958 Y-11.079 E16.94878
G1 X-22.853 Y-10.71 E16.99708
M204 S5000
M205 X30 Y30
G0 F3600 X-22.902 Y-10.796
G0 X-2.33 Y-19.33
G0 X-2.4 Y-19.4
M204 S3000
M205 X20 Y20
G1 F1500 X-2.4 Y-31.9 E17.62071
G1 X38.4 Y-31.9 E19.65623
G1 X38.4 Y31.9 E22.83922
G1 X-38.4 Y31.9 E26.67079
G1 X-38.4 Y-19.4 E29.23016
G1 X-2.4 Y-19.4 E31.0262
M204 S5000
M205 X30 Y30
G0 F3600 X-2.8 Y-19.8
M204 S3000
M205 X20 Y20
;TYPE:WALL-OUTER
G1 F1500 X-2.8 Y-32.3 E31.64983
G1 X38.8 Y-32.3 E33.72526
G1 X38.8 Y32.3 E36.94817
G1 X-38.8 Y32.3 E40.81965
G1 X-38.8 Y-19.8 E43.41893
G1 X-2.8 Y-19.8 E45.21498
M204 S5000
M205 X30 Y30
G0 F3600 X-2.8 Y-20
G0 X-2.3 Y-20
G0 X-2.372 Y-19.372
G0 X-22.956 Y-10.757
G0 X-22.651 Y-10.36
M204 S3000
M205 X20 Y20
G1 F1500 X-23.335 Y-9.835 E45.258
G1 X-23.86 Y-9.151 E45.30101
G1 X-24.189 Y-8.354 E45.34403
G1 X-24.302 Y-7.5 E45.38701
G1 X-24.189 Y-6.646 E45.42999
G1 X-23.86 Y-5.849 E45.473
G1 X-23.335 Y-5.165 E45.51602
G1 X-22.651 Y-4.64 E45.55904
G1 X-21.854 Y-4.311 E45.60206
G1 X-21 Y-4.198 E45.64503
G1 X-20.146 Y-4.311 E45.68801
G1 X-19.349 Y-4.64 E45.73103
G1 X-18.665 Y-5.165 E45.77405
G1 X-18.14 Y-5.849 E45.81706
G1 X-17.811 Y-6.646 E45.86008
G1 X-17.698 Y-7.5 E45.90306
G1 X-17.811 Y-8.354 E45.94604
G1 X-18.14 Y-9.151 E45.98905
G1 X-18.665 Y-9.835 E46.03207
G1 X-19.349 Y-10.36 E46.07509
G1 X-20.146 Y-10.689 E46.11811
G1 X-21 Y-10.802 E46.16108
G1 X-21.854 Y-10.689 E46.20406
G1 X-22.651 Y-10.36 E46.24708
M204 S5000
M205 X30 Y30
G0 F3600 X-22.809 Y-10.239
G0 X-23.113 Y-10.636
G0 X-23.05 Y-11.051
M204 S3000
M205 X20 Y20
;TYPE:SKIN
G1 F1500 X-23.898 Y-10.398 E46.30048
G1 X-24.551 Y-9.55 E46.35387
G1 X-24.959 Y-8.559 E46.40734
G1 X-25.099 Y-7.5 E46.46063
G1 X-24.959 Y-6.441 E46.51393
G1 X-24.551 Y-5.45 E46.56739
G1 X-23.898 Y-4.602 E46.62079
G1 X-23.05 Y-3.949 E46.67419
G1 X-22.059 Y-3.541 E46.72766
G1 X-21 Y-3.401 E46.78095
G1 X-19.941 Y-3.541 E46.83424
G1 X-18.95 Y-3.949 E46.88771
G1 X-18.102 Y-4.602 E46.94111
G1 X-17.449 Y-5.45 E46.9945
G1 X-17.041 Y-6.441 E47.04797
G1 X-16.901 Y-7.5 E47.10126
G1 X-17.041 Y-8.559 E47.15456
G1 X-17.449 Y-9.55 E47.20803
G1 X-18.102 Y-10.398 E47.26142
G1 X-18.95 Y-11.051 E47.31482
G1 X-19.941 Y-11.459 E47.36829
G1 X-21 Y-11.599 E47.42158
G1 X-22.059 Y-11.459 E47.47487
G1 X-23.05 Y-11.051 E47.52834
M204 S5000
M205 X30 Y30
G0 F3600 X-38.01 Y-19.01
M204 S3000
M205 X20 Y20
G1 F1500 X-2.01 Y-19.01 E49.32439
G1 X-2.01 Y-31.51 E49.94802
G1 X38.01 Y-31.51 E51.94462
G1 X38.01 Y31.51 E55.0887
G1 X-38.01 Y31.51 E58.88135
G1 X-38.01 Y-19.01 E61.40181
M204 S5000
M205 X30 Y30
G0 F3600 X-37.829 Y31.184
M204 S3000
M205 X20 Y20
G1 F1500 X-37.683 Y31.329 E61.41207
M204 S5000
M205 X30 Y30
G0 F3600 X-37.118 Y31.329
M204 S3000
M205 X20 Y20
G1 F1500 X-37.829 Y30.618 E61.46224
G1 X-37.899 Y30.548
M204 S5000
M205 X30 Y30
G0 F3600 X-37.829 Y30.052
M204 S3000
M205 X20 Y20
G1 F1500 X-36.552 Y31.329 E61.55234
G1 X-36.482 Y31.399
M204 S5000
M205 X30 Y30
G0 F3600 X-35.986 Y31.329
M204 S3000
M205 X20 Y20
G1 F1500 X-37.829 Y29.487 E61.68234
G1 X-37.899 Y29.417
M204 S5000
M205 X30 Y30
G0 F3600 X-37.829 Y28.921
M204 S3000
M205 X20 Y20
G1 F1500 X-35.421 Y31.329 E61.85223
G1 X-35.351 Y31.399
M204 S5000
M205 X30 Y30
G0 F3600 X-34.855 Y31.329
M204 S3000
M205 X20 Y20
G1 F1500 X-37.829 Y28.355 E62.06207
G1 X-37.899 Y28.285
M204 S5000
M205 X30 Y30
G0 F3600 X-37.829 Y27.79
M204 S3000
M205 X20 Y20
G1 F1500 X-34.289 Y31.329 E62.3118
G1 X-34.219 Y31.399
M204 S5000
M205 X30 Y30
G0 F3600 X-33.724 Y31.329
M204 S3000
M205 X20 Y20
G1 F1500 X-37.829 Y27.224 E62.60143
G1 X-37.899 Y27.154
M204 S5000
M205 X30 Y30
G0 F3600 X-37.829 Y26.658
M204 S3000
M205 X20 Y20
G1 F1500 X-33.158 Y31.329 E62.93099
G1 X-33.088 Y31.399
M204 S5000
M205 X30 Y30
G0 F3600 X-32.592 Y31.329
M204 S3000
M205 X20 Y20
G1 F1500 X-37.829 Y26.092 E63.30049
G1 X-37.899 Y26.022
M204 S5000
M205 X30 Y30
G0 F3600 X-37.829 Y25.527
M204 S3000
M205 X20 Y20
G1 F1500 X-32.026 Y31.329 E63.70989
G1 X-31.956 Y31.399
M204 S5000
M205 X30 Y30
G0 F3600 X-31.461 Y31.329
M204 S3000
M205 X20 Y20
G1 F1500 X-37.829 Y24.961 E64.15918
G1 X-37.899 Y24.891
M204 S5000
M205 X30 Y30
G0 F3600 X-37.829 Y24.395
M204 S3000
M205 X20 Y20
G1 F1500 X-30.895 Y31.329 E64.64841
G1 X-30.825 Y31.399
M204 S5000
M205 X30 Y30
G0 F3600 X-30.329 Y31.329
M204 S3000
M205 X20 Y20
G1 F1500 X-37.829 Y23.83 E65.17755
G1 X-37.899 Y23.76
M204 S5000
M205 X30 Y30
G0 F3600 X-37.829 Y23.264
M204 S3000
M205 X20 Y20
G1 F1500 X-29.764 Y31.329 E65.74657
G1 X-29.694 Y31.399
M204 S5000
M205 X30 Y30
G0 F3600 X-29.198 Y31.329
M204 S3000
M205 X20 Y20
G1 F1500 X-37.829 Y22.698 E66.35554
G1 X-37.899 Y22.628
M204 S5000
M205 X30 Y30
G0 F3600 X-37.829 Y22.133
M204 S3000
M205 X20 Y20
G1 F1500 X-28.632 Y31.329 E67.0044
G1 X-28.562 Y31.399
M204 S5000
M205 X30 Y30
G0 F3600 X-28.067 Y31.329
M204 S3000
M205 X20 Y20
G1 F1500 X-37.829 Y21.567 E67.69316
G1 X-37.899 Y21.497
M204 S5000
M205 X30 Y30
G0 F3600 X-37.829 Y21.001
M204 S3000
M205 X20 Y20
G1 F1500 X-27.501 Y31.329 E68.42186
G1 X-27.431 Y31.399
M204 S5000
M205 X30 Y30
G0 F3600 X-26.935 Y31.329
M204 S3000
M205 X20 Y20
G1 F1500 X-37.829 Y20.436 E69.19045
G1 X-37.899 Y20.366
M204 S5000
M205 X30 Y30
G0 F3600 X-37.829 Y19.87
M204 S3000
M205 X20 Y20
G1 F1500 X-26.37 Y31.329 E69.99895
G1 X-26.3 Y31.399
M204 S5000
M205 X30 Y30
G0 F3600 X-25.804 Y31.329
M204 S3000
M205 X20 Y20
G1 F1500 X-37.829 Y19.304 E70.84738
G1 X-37.899 Y19.234
M204 S5000
M205 X30 Y30
G0 F3600 X-37.829 Y18.739
M204 S3000
M205 X20 Y20
G1 F1500 X-25.238 Y31.329 E71.7357
G1 X-25.168 Y31.399
M204 S5000
M205 X30 Y30
G0 F3600 X-24.673 Y31.329
M204 S3000
M205 X20 Y20
G1 F1500 X-37.829 Y18.173 E72.66393
G1 X-37.899 Y18.103
M204 S5000
M205 X30 Y30
G0 F3600 X-37.829 Y17.607
M204 S3000
M205 X20 Y20
G1 F1500 X-24.107 Y31.329 E73.63209
G1 X-24.037 Y31.399
M204 S5000
M205 X30 Y30
G0 F3600 X-23.541 Y31.329
M204 S3000
M205 X20 Y20
G1 F1500 X-37.829 Y17.041 E74.64019
G1 X-37.899 Y16.971
M204 S5000
M205 X30 Y30
G0 F3600 X-37.829 Y16.476
M204 S3000
M205 X20 Y20
G1 F1500 X-22.976 Y31.329 E75.68815
G1 X-22.906 Y31.399
M204 S5000
M205 X30 Y30
G0 F3600 X-22.41 Y31.329
M204 S3000
M205 X20 Y20
G1 F1500 X-37.829 Y15.91 E76.77604
G1 X-37.899 Y15.84
M204 S5000
M205 X30 Y30
G0 F3600 X-37.829 Y15.344
M204 S3000
M205 X20 Y20
G1 F1500 X-21.844 Y31.329 E77.90387
G1 X-21.774 Y31.399
M204 S5000
M205 X30 Y30
G0 F3600 X-21.278 Y31.329
M204 S3000
M205 X20 Y20
G1 F1500 X-37.829 Y14.779 E79.0716
G1 X-37.899 Y14.709
M204 S5000
M205 X30 Y30
G0 F3600 X-37.829 Y14.213
M204 S3000
M205 X20 Y20
G1 F1500 X-20.713 Y31.329 E80.27922
G1 X-20.643 Y31.399
M204 S5000
M205 X30 Y30
G0 F3600 X-20.147 Y31.329
M204 S3000
M205 X20 Y20
G1 F1500 X-37.829 Y13.647 E81.52678
G1 X-37.899 Y13.577
M204 S5000
M205 X30 Y30
G0 F3600 X-37.829 Y13.082
M204 S3000
M205 X20 Y20
G1 F1500 X-19.581 Y31.329 E82.81424
G1 X-19.511 Y31.399
M204 S5000
M205 X30 Y30
G0 F3600 X-19.016 Y31.329
M204 S3000
M205 X20 Y20
G1 F1500 X-37.829 Y12.516 E84.1416
G1 X-37.899 Y12.446
M204 S5000
M205 X30 Y30
G0 F3600 X-37.829 Y11.95
M204 S3000
M205 X20 Y20
G1 F1500 X-18.45 Y31.329 E85.5089
G1 X-18.38 Y31.399
M204 S5000
M205 X30 Y30
G0 F3600 X-17.884 Y31.329
M204 S3000
M205 X20 Y20
G1 F1500 X-37.829 Y11.385 E86.91609
G1 X-37.899 Y11.315
M204 S5000
M205 X30 Y30
G0 F3600 X-37.829 Y10.819
M204 S3000
M205 X20 Y20
G1 F1500 X-17.319 Y31.329 E88.36318
G1 X-17.249 Y31.399
M204 S5000
M205 X30 Y30
G0 F3600 X-16.753 Y31.329
M204 S3000
M205 X20 Y20
G1 F1500 X-37.829 Y10.253 E89.8502
G1 X-37.899 Y10.183
M204 S5000
M205 X30 Y30
G0 F3600 X-37.829 Y9.688
M204 S3000
M205 X20 Y20
G1 F1500 X-16.187 Y31.329 E91.37713
G1 X-16.117 Y31.399
M204 S5000
M205 X30 Y30
G0 F3600 X-15.622 Y31.329
M204 S3000
M205 X20 Y20
G1 F1500 X-37.829 Y9.122 E92.94395
G1 X-37.899 Y9.052
M204 S5000
M205 X30 Y30
G0 F3600 X-37.829 Y8.556
M204 S3000
M205 X20 Y20
G1 F1500 X-15.056 Y31.329 E94.55071
G1 X-14.986 Y31.399
M204 S5000
M205 X30 Y30
G0 F3600 X-14.49 Y31.329
M204 S3000
M205 X20 Y20
G1 F1500 X-37.829 Y7.991 E96.19737
G1 X-37.899 Y7.921
M204 S5000
M205 X30 Y30
G0 F3600 X-37.829 Y7.425
M204 S3000
M205 X20 Y20
G1 F1500 X-13.925 Y31.329 E97.88392
G1 X-13.855 Y31.399
M204 S5000
M205 X30 Y30
G0 F3600 X-13.359 Y31.329
M204 S3000
M205 X20 Y20
G1 F1500 X-37.829 Y6.859 E99.61042
G1 X-37.899 Y6.789
M204 S5000
M205 X30 Y30
G0 F3600 X-37.829 Y6.293
M204 S3000
M205 X20 Y20
G1 F1500 X-12.793 Y31.329 E101.37684
G1 X-12.723 Y31.399
M204 S5000
M205 X30 Y30
G0 F3600 X-12.227 Y31.329
M204 S3000
M205 X20 Y20
G1 F1500 X-37.829 Y5.728 E103.18316
G1 X-37.899 Y5.658
M204 S5000
M205 X30 Y30
G0 F3600 X-37.829 Y5.162
M204 S3000
M205 X20 Y20
G1 F1500 X-11.662 Y31.329 E105.02939
G1 X-11.592 Y31.399
M204 S5000
M205 X30 Y30
G0 F3600 X-11.096 Y31.329
M204 S3000
M205 X20 Y20
G1 F1500 X-37.829 Y4.596 E106.91555
G1 X-37.899 Y4.526
M204 S5000
M205 X30 Y30
G0 F3600 X-37.829 Y4.031
M204 S3000
M205 X20 Y20
G1 F1500 X-10.53 Y31.329 E108.8416
G1 X-10.46 Y31.399
M204 S5000
M205 X30 Y30
G0 F3600 X-9.965 Y31.329
M204 S3000
M205 X20 Y20
G1 F1500 X-37.829 Y3.465 E110.80756
G1 X-37.899 Y3.395
M204 S5000
M205 X30 Y30
G0 F3600 X-37.829 Y2.899
M204 S3000
M205 X20 Y20
G1 F1500 X-9.399 Y31.329 E112.81345
G1 X-9.329 Y31.399
M204 S5000
M205 X30 Y30
G0 F3600 X-8.833 Y31.329
M204 S3000
M205 X20 Y20
G1 F1500 X-37.829 Y2.334 E114.85924
G1 X-37.899 Y2.264
M204 S5000
M205 X30 Y30
G0 F3600 X-37.829 Y1.768
M204 S3000
M205 X20 Y20
G1 F1500 X-8.268 Y31.329 E116.94492
G1 X-8.198 Y31.399
M204 S5000
M205 X30 Y30
G0 F3600 X-7.702 Y31.329
M204 S3000
M205 X20 Y20
G1 F1500 X-37.829 Y1.202 E119.07055
G1 X-37.899 Y1.132
M204 S5000
M205 X30 Y30
G0 F3600 X-37.829 Y0.637
M204 S3000
M205 X20 Y20
G1 F1500 X-7.136 Y31.329 E121.23607
G1 X-7.066 Y31.399
M204 S5000
M205 X30 Y30
G0 F3600 X-6.571 Y31.329
M204 S3000
M205 X20 Y20
G1 F1500 X-37.829 Y0.071 E123.44149
G1 X-37.899 Y0.001
M204 S5000
M205 X30 Y30
G0 F3600 X-37.829 Y-.494
M204 S3000
M205 X20 Y20
G1 F1500 X-6.005 Y31.329 E125.68681
G1 X-5.935 Y31.399
M204 S5000
M205 X30 Y30
G0 F3600 X-5.439 Y31.329
M204 S3000
M205 X20 Y20
G1 F1500 X-37.829 Y-1.059 E127.97203
G1 X-37.899 Y-1.129
M204 S5000
M205 X30 Y30
G0 F3600 X-37.829 Y-1.625
M204 S3000
M205 X20 Y20
G1 F1500 X-4.874 Y31.329 E130.29715
G1 X-4.804 Y31.399
M204 S5000
M205 X30 Y30
G0 F3600 X-4.308 Y31.329
M204 S3000
M205 X20 Y20
G1 F1500 X-37.829 Y-2.191 E132.6622
G1 X-37.899 Y-2.261
M204 S5000
M205 X30 Y30
G0 F3600 X-37.829 Y-2.757
M204 S3000
M205 X20 Y20
G1 F1500 X-3.742 Y31.329 E135.06719
G1 X-3.672 Y31.399
M204 S5000
M205 X30 Y30
G0 F3600 X-3.177 Y31.329
M204 S3000
M205 X20 Y20
G1 F1500 X-37.829 Y-3.322 E137.51204
G1 X-37.899 Y-3.392
M204 S5000
M205 X30 Y30
G0 F3600 X-37.829 Y-3.888
M204 S3000
M205 X20 Y20
G1 F1500 X-2.611 Y31.329 E139.99682
G1 X-2.541 Y31.399
M204 S5000
M205 X30 Y30
G0 F3600 X-2.045 Y31.329
M204 S3000
M205 X20 Y20
G1 F1500 X-37.829 Y-4.454 E142.52154
G1 X-37.899 Y-4.524
M204 S5000
M205 X30 Y30
G0 F3600 X-37.829 Y-5.019
M204 S3000
M205 X20 Y20
G1 F1500 X-1.479 Y31.329 E145.08616
G1 X-1.409 Y31.399
M204 S5000
M205 X30 Y30
G0 F3600 X-.914 Y31.329
M204 S3000
M205 X20 Y20
G1 F1500 X-37.829 Y-5.585 E147.69068
G1 X-37.899 Y-5.655
M204 S5000
M205 X30 Y30
G0 F3600 X-37.829 Y-6.151
M204 S3000
M205 X20 Y20
G1 F1500 X-.348 Y31.329 E150.33513
G1 X-.278 Y31.399
M204 S5000
M205 X30 Y30
G0 F3600 X0.217 Y31.329
M204 S3000
M205 X20 Y20
G1 F1500 X-37.829 Y-6.716 E153.01944
G1 X-37.899 Y-6.786
M204 S5000
M205 X30 Y30
