;FLAVOR:Marlin
;TIME:7629
;Filament used: 4.08386m
;Layer height: 0.1
;Generated with Cura_SteamEngine 3.4.1
M190 S40
M104 S200
M109 S200
M82 ;absolute extrusion mode
G28 ;Home
G1 Z15.0 F6000 ;Move the platform down 15mm
G29 Z0.4 ;auto-level
G92 E0
G1 F200 E3
G92 E0
G92 E0
G1 F2400 E-4.5
;LAYER_COUNT:79
;LAYER:0
M107
M204 S5000
M205 X30 Y30
G0 F3600 X-29.09 Y-19.996 Z0.3
M204 S3000
M205 X20 Y20
;TYPE:SKIRT
G1 F2400 E0
G1 F1500 X-29.05 Y-20.531 E0.02677
G1 X-28.931 Y-21.054 E0.05353
G1 X-28.736 Y-21.553 E0.08025
G1 X-28.316 Y-22.226 E0.11983
G1 X-24.37 Y-27.226 E0.43761
G1 X-21.232 Y-31.733 E0.7116
G1 X-19.535 Y-34.416 E0.86998
G1 X-19.216 Y-34.846 E0.89669
G1 X-18.836 Y-35.225 E0.92347
G1 X-18.404 Y-35.542 E0.9502
G1 X-17.929 Y-35.792 E0.97698
G1 X-17.423 Y-35.969 E1.00372
G1 X-16.896 Y-36.068 E1.03048
G1 X-16.493 Y-36.091 E1.05061
G1 X25.491 Y-36.09 E3.1452
G1 X26.026 Y-36.05 E3.17197
G1 X26.549 Y-35.931 E3.19873
G1 X27.048 Y-35.736 E3.22546
G1 X27.513 Y-35.468 E3.25223
G1 X27.933 Y-35.135 E3.27898
G1 X28.299 Y-34.743 E3.30573
G1 X28.602 Y-34.301 E3.33247
G1 X28.837 Y-33.818 E3.35927
G1 X28.997 Y-33.307 E3.38598
G1 X29.08 Y-32.777 E3.41274
G1 X29.091 Y-32.49 E3.42707
G1 X29.091 Y32.491 E6.66899
G1 X29.051 Y33.026 E6.69575
G1 X28.932 Y33.549 E6.72251
G1 X28.737 Y34.048 E6.74924
G1 X28.469 Y34.513 E6.77602
G1 X28.136 Y34.933 E6.80276
G1 X27.744 Y35.299 E6.82951
G1 X27.302 Y35.602 E6.85625
G1 X26.819 Y35.837 E6.88305
G1 X26.308 Y35.997 E6.90976
G1 X25.778 Y36.08 E6.93653
G1 X25.491 Y36.091 E6.95086
G1 X-25.491 Y36.091 E9.49436
G1 X-26.026 Y36.051 E9.52112
G1 X-26.549 Y35.932 E9.54788
G1 X-27.048 Y35.737 E9.57461
G1 X-27.513 Y35.469 E9.60139
G1 X-27.933 Y35.136 E9.62813
G1 X-28.299 Y34.744 E9.65488
G1 X-28.602 Y34.302 E9.68162
G1 X-28.837 Y33.819 E9.70842
G1 X-28.997 Y33.308 E9.73513
G1 X-29.08 Y32.778 E9.7619
G1 X-29.091 Y32.491 E9.77623
G1 X-29.09 Y-19.996 E12.39481
M204 S5000
M205 X30 Y30
G0 F3600 X-28.69 Y-19.996
M204 S3000
M205 X20 Y20
G1 F1500 X-28.65 Y-20.5 E12.42004
G1 X-28.531 Y-20.991 E12.44524
G1 X-28.336 Y-21.458 E12.47049
G1 X-28.002 Y-21.979 E12.50137
G1 X-24.035 Y-27.005 E12.82081
G1 X-20.909 Y-31.496 E13.0938
G1 X-19.197 Y-34.202 E13.25355
G1 X-18.894 Y-34.606 E13.27875
G1 X-18.531 Y-34.958 E13.30397
G1 X-18.117 Y-35.248 E13.32919
G1 X-17.662 Y-35.47 E13.35445
G1 X-17.179 Y-35.617 E13.37964
G1 X-16.493 Y-35.691 E13.41406
G1 X25.491 Y-35.69 E15.50865
G1 X25.995 Y-35.65 E15.53388
G1 X26.486 Y-35.531 E15.55908
G1 X26.953 Y-35.336 E15.58433
G1 X27.383 Y-35.071 E15.60953
G1 X27.766 Y-34.74 E15.63478
G1 X28.092 Y-34.354 E15.65999
G1 X28.353 Y-33.921 E15.68521
G1 X28.543 Y-33.453 E15.71041
G1 X28.656 Y-32.96 E15.73565
G1 X28.691 Y-32.49 E15.75916
G1 X28.691 Y32.491 E19.00108
G1 X28.651 Y32.995 E19.0263
G1 X28.532 Y33.486 E19.0515
G1 X28.338 Y33.953 E19.07673
G1 X28.072 Y34.383 E19.10196
G1 X27.742 Y34.766 E19.12718
G1 X27.355 Y35.092 E19.15243
G1 X26.922 Y35.353 E19.17765
G1 X26.454 Y35.543 E19.20285
G1 X25.961 Y35.656 E19.22808
G1 X25.491 Y35.691 E19.2516
G1 X-25.491 Y35.691 E21.7951
G1 X-25.995 Y35.651 E21.82032
G1 X-26.486 Y35.532 E21.84553
G1 X-26.953 Y35.338 E21.87076
G1 X-27.383 Y35.072 E21.89598
G1 X-27.766 Y34.742 E21.92121
G1 X-28.092 Y34.355 E21.94645
G1 X-28.353 Y33.922 E21.97167
G1 X-28.543 Y33.454 E21.99687
G1 X-28.656 Y32.961 E22.02211
G1 X-28.691 Y32.491 E22.04562
G1 X-28.69 Y-19.996 E24.66421
M204 S5000
M205 X30 Y30
G1 F2400 E20.16421
G0 F3600 X-26.165 Y-19.386
G0 X-24.886 Y-19.386
G0 X-15.83 Y-19.33
G0 X-15.9 Y-19.4
M204 S3000
M205 X20 Y20
;TYPE:WALL-INNER
G1 F2400 E24.66421
G1 F1500 X-15.9 Y-31.9 E25.28783
G1 X24.9 Y-31.9 E27.32335
G1 X24.9 Y31.9 E30.50635
G1 X-24.9 Y31.9 E32.99088
G1 X-24.9 Y-19.4 E35.55025
G1 X-15.9 Y-19.4 E35.99926
M204 S5000
M205 X30 Y30
G0 F3600 X-16.3 Y-19.8
M204 S3000
M205 X20 Y20
;TYPE:WALL-OUTER
G1 F1500 X-16.3 Y-32.3 E36.62289
G1 X25.3 Y-32.3 E38.69832
G1 X25.3 Y32.3 E41.92123
G1 X-25.3 Y32.3 E44.44567
G1 X-25.3 Y-19.8 E47.04495
G1 X-16.3 Y-19.8 E47.49396
M204 S5000
M205 X30 Y30
G0 F3600 X-16.3 Y-20
G0 X-15.8 Y-20
G0 X-15.51 Y-19.01
M204 S3000
M205 X20 Y20
;TYPE:SKIN
G1 F1500 X-15.51 Y-31.51 E48.11759
G1 X24.51 Y-31.51 E50.1142
G1 X24.51 Y31.51 E53.25828
G1 X-24.51 Y31.51 E55.7039
G1 X-24.51 Y-19.01 E58.22435
G1 X-15.51 Y-19.01 E58.67336
M204 S5000
M205 X30 Y30
G0 F3600 X24.108 Y-31.329
M204 S3000
M205 X20 Y20
G1 F1500 X24.33 Y-31.107 E58.68902
M204 S5000
M205 X30 Y30
G0 F3600 X24.33 Y-30.541
M204 S3000
M205 X20 Y20
G1 F1500 X23.542 Y-31.329 E58.74462
G1 X23.472 Y-31.399
M204 S5000
M205 X30 Y30
G0 F3600 X22.976 Y-31.329
M204 S3000
M205 X20 Y20
G1 F1500 X24.33 Y-29.975 E58.84015
G1 X24.4 Y-29.905
M204 S5000
M205 X30 Y30
G0 F3600 X24.33 Y-29.409
M204 S3000
M205 X20 Y20
G1 F1500 X22.411 Y-31.329 E58.97558
G1 X22.341 Y-31.399
M204 S5000
M205 X30 Y30
G0 F3600 X21.845 Y-31.329
M204 S3000
M205 X20 Y20
G1 F1500 X24.33 Y-28.844 E59.15091
G1 X24.4 Y-28.774
M204 S5000
M205 X30 Y30
G0 F3600 X24.33 Y-28.278
M204 S3000
M205 X20 Y20
G1 F1500 X21.279 Y-31.329 E59.36618
G1 X21.209 Y-31.399
M204 S5000
M205 X30 Y30
G0 F3600 X20.713 Y-31.329
M204 S3000
M205 X20 Y20
G1 F1500 X24.33 Y-27.712 E59.62138
G1 X24.4 Y-27.642
M204 S5000
M205 X30 Y30
G0 F3600 X24.33 Y-27.147
M204 S3000
M205 X20 Y20
G1 F1500 X20.148 Y-31.329 E59.91644
G1 X20.078 Y-31.399
M204 S5000
M205 X30 Y30
G0 F3600 X19.582 Y-31.329
M204 S3000
M205 X20 Y20
G1 F1500 X24.33 Y-26.581 E60.25144
G1 X24.4 Y-26.511
M204 S5000
M205 X30 Y30
G0 F3600 X24.33 Y-26.015
M204 S3000
M205 X20 Y20
G1 F1500 X19.016 Y-31.329 E60.62637
G1 X18.946 Y-31.399
M204 S5000
M205 X30 Y30
G0 F3600 X18.451 Y-31.329
M204 S3000
M205 X20 Y20
G1 F1500 X24.33 Y-25.45 E61.04116
G1 X24.4 Y-25.38
M204 S5000
M205 X30 Y30
G0 F3600 X24.33 Y-24.884
M204 S3000
M205 X20 Y20
G1 F1500 X17.885 Y-31.329 E61.49589
G1 X17.815 Y-31.399
M204 S5000
M205 X30 Y30
G0 F3600 X17.319 Y-31.329
M204 S3000
M205 X20 Y20
G1 F1500 X24.33 Y-24.318 E61.99056
G1 X24.4 Y-24.248
M204 S5000
M205 X30 Y30
G0 F3600 X24.33 Y-23.753
M204 S3000
M205 X20 Y20
G1 F1500 X16.754 Y-31.329 E62.52509
G1 X16.684 Y-31.399
M204 S5000
M205 X30 Y30
G0 F3600 X16.188 Y-31.329
M204 S3000
M205 X20 Y20
G1 F1500 X24.33 Y-23.187 E63.09955
G1 X24.4 Y-23.117
M204 S5000
M205 X30 Y30
G0 F3600 X24.33 Y-22.621
M204 S3000
M205 X20 Y20
G1 F1500 X15.622 Y-31.329 E63.71394
G1 X15.552 Y-31.399
M204 S5000
M205 X30 Y30
G0 F3600 X15.057 Y-31.329
M204 S3000
M205 X20 Y20
G1 F1500 X24.33 Y-22.056 E64.3682
G1 X24.4 Y-21.986
M204 S5000
M205 X30 Y30
G0 F3600 X24.33 Y-21.49
M204 S3000
M205 X20 Y20
G1 F1500 X14.491 Y-31.329 E65.0624
G1 X14.421 Y-31.399
M204 S5000
M205 X30 Y30
G0 F3600 X13.925 Y-31.329
M204 S3000
M205 X20 Y20
G1 F1500 X24.33 Y-20.924 E65.79653
G1 X24.4 Y-20.854
M204 S5000
M205 X30 Y30
G0 F3600 X24.33 Y-20.359
M204 S3000
M205 X20 Y20
G1 F1500 X13.36 Y-31.329 E66.57052
G1 X13.29 Y-31.399
M204 S5000
M205 X30 Y30
G0 F3600 X12.794 Y-31.329
M204 S3000
M205 X20 Y20
G1 F1500 X24.33 Y-19.793 E67.38445
G1 X24.4 Y-19.723
M204 S5000
M205 X30 Y30
G0 F3600 X24.33 Y-19.227
M204 S3000
M205 X20 Y20
G1 F1500 X12.228 Y-31.329 E68.23831
G1 X12.158 Y-31.399
M204 S5000
M205 X30 Y30
G0 F3600 X11.663 Y-31.329
M204 S3000
M205 X20 Y20
G1 F1500 X24.33 Y-18.661 E69.13207
G1 X24.4 Y-18.591
M204 S5000
M205 X30 Y30
G0 F3600 X24.33 Y-18.096
M204 S3000
M205 X20 Y20
G1 F1500 X11.097 Y-31.329 E70.06573
G1 X11.027 Y-31.399
M204 S5000
M205 X30 Y30
G0 F3600 X10.531 Y-31.329
M204 S3000
M205 X20 Y20
G1 F1500 X24.33 Y-17.53 E71.03932
G1 X24.4 Y-17.46
M204 S5000
M205 X30 Y30
G0 F3600 X24.33 Y-16.964
M204 S3000
M205 X20 Y20
G1 F1500 X9.965 Y-31.329 E72.05285
G1 X9.895 Y-31.399
M204 S5000
M205 X30 Y30
G0 F3600 X9.4 Y-31.329
M204 S3000
M205 X20 Y20
G1 F1500 X24.33 Y-16.399 E73.10624
G1 X24.4 Y-16.329
M204 S5000
M205 X30 Y30
G0 F3600 X24.33 Y-15.833
M204 S3000
M205 X20 Y20
G1 F1500 X8.834 Y-31.329 E74.19957
G1 X8.764 Y-31.399
M204 S5000
M205 X30 Y30
G0 F3600 X8.268 Y-31.329
M204 S3000
M205 X20 Y20
G1 F1500 X24.33 Y-15.267 E75.33283
G1 X24.4 Y-15.197
M204 S5000
M205 X30 Y30
G0 F3600 X24.33 Y-14.702
M204 S3000
M205 X20 Y20
G1 F1500 X7.703 Y-31.329 E76.50596
G1 X7.633 Y-31.399
M204 S5000
M205 X30 Y30
G0 F3600 X7.137 Y-31.329
M204 S3000
M205 X20 Y20
G1 F1500 X24.33 Y-14.136 E77.71901
G1 X24.4 Y-14.066
M204 S5000
M205 X30 Y30
G0 F3600 X24.33 Y-13.57
M204 S3000
M205 X20 Y20
G1 F1500 X6.571 Y-31.329 E78.97201
G1 X6.501 Y-31.399
M204 S5000
M205 X30 Y30
G0 F3600 X6.006 Y-31.329
M204 S3000
M205 X20 Y20
G1 F1500 X24.33 Y-13.005 E80.26487
G1 X24.4 Y-12.935
M204 S5000
M205 X30 Y30
G0 F3600 X24.33 Y-12.439
M204 S3000
M205 X20 Y20
G1 F1500 X5.44 Y-31.329 E81.59766
G1 X5.37 Y-31.399
M204 S5000
M205 X30 Y30
G0 F3600 X4.874 Y-31.329
M204 S3000
M205 X20 Y20
G1 F1500 X24.33 Y-11.873 E82.97038
G1 X24.4 Y-11.803
M204 S5000
M205 X30 Y30
G0 F3600 X24.33 Y-11.308
M204 S3000
M205 X20 Y20
G1 F1500 X4.309 Y-31.329 E84.38297
G1 X4.239 Y-31.399
M204 S5000
M205 X30 Y30
G0 F3600 X3.743 Y-31.329
M204 S3000
M205 X20 Y20
G1 F1500 X24.33 Y-10.742 E85.8355
G1 X24.4 Y-10.672
M204 S5000
M205 X30 Y30
G0 F3600 X24.33 Y-10.176
M204 S3000
M205 X20 Y20
G1 F1500 X3.177 Y-31.329 E87.32795
G1 X3.107 Y-31.399
M204 S5000
M205 X30 Y30
G0 F3600 X2.612 Y-31.329
M204 S3000
M205 X20 Y20
G1 F1500 X24.33 Y-9.61 E88.86031
G1 X24.4 Y-9.54
M204 S5000
M205 X30 Y30
G0 F3600 X24.33 Y-9.045
M204 S3000
M205 X20 Y20
G1 F1500 X2.046 Y-31.329 E90.43257
G1 X1.976 Y-31.399
M204 S5000
M205 X30 Y30
G0 F3600 X1.48 Y-31.329
M204 S3000
M205 X20 Y20
G1 F1500 X24.33 Y-8.479 E92.04476
G1 X24.4 Y-8.409
M204 S5000
M205 X30 Y30
G0 F3600 X24.33 Y-7.913
M204 S3000
M205 X20 Y20
G1 F1500 X0.914 Y-31.329 E93.69689
G1 X0.844 Y-31.399
M204 S5000
M205 X30 Y30
G0 F3600 X0.349 Y-31.329
M204 S3000
M205 X20 Y20
G1 F1500 X24.33 Y-7.348 E95.38887
G1 X24.4 Y-7.278
M204 S5000
M205 X30 Y30
G0 F3600 X24.33 Y-6.782
M204 S3000
M205 X20 Y20
G1 F1500 X-.216 Y-31.329 E97.12076
G1 X-.286 Y-31.399
M204 S5000
M205 X30 Y30
G0 F3600 X-.782 Y-31.329
M204 S3000
M205 X20 Y20
G1 F1500 X24.33 Y-6.216 E98.89258
G1 X24.4 Y-6.146
M204 S5000
M205 X30 Y30
G0 F3600 X24.33 Y-5.651
M204 S3000
M205 X20 Y20
G1 F1500 X-1.347 Y-31.329 E100.70427
G1 X-1.417 Y-31.399
M204 S5000
M205 X30 Y30
G0 F3600 X-1.913 Y-31.329
M204 S3000
M205 X20 Y20
G1 F1500 X24.33 Y-5.085 E102.55589
G1 X24.4 Y-5.015
M204 S5000
M205 X30 Y30
G0 F3600 X24.33 Y-4.519
M204 S3000
M205 X20 Y20
G1 F1500 X-2.479 Y-31.329 E104.44745
G1 X-2.549 Y-31.399
M204 S5000
M205 X30 Y30
G0 F3600 X-3.044 Y-31.329
M204 S3000
M205 X20 Y20
G1 F1500 X24.33 Y-3.954 E106.37887
G1 X24.4 Y-3.884
M204 S5000
M205 X30 Y30
G0 F3600 X24.33 Y-3.388
M204 S3000
M205 X20 Y20
G1 F1500 X-3.61 Y-31.329 E108.35022
G1 X-3.68 Y-31.399
M204 S5000
M205 X30 Y30
G0 F3600 X-4.176 Y-31.329
M204 S3000
M205 X20 Y20
G1 F1500 X24.33 Y-2.822 E110.36151
G1 X24.4 Y-2.752
M204 S5000
M205 X30 Y30
G0 F3600 X24.33 Y-2.257
M204 S3000
M205 X20 Y20
G1 F1500 X-4.741 Y-31.329 E112.41266
G1 X-4.811 Y-31.399
M204 S5000
M205 X30 Y30
G0 F3600 X-5.307 Y-31.329
M204 S3000
M205 X20 Y20
G1 F1500 X24.33 Y-1.691 E114.50374
G1 X24.4 Y-1.621
M204 S5000
M205 X30 Y30
G0 F3600 X24.33 Y-1.125
M204 S3000
M205 X20 Y20
G1 F1500 X-5.873 Y-31.329 E116.63476
G1 X-5.943 Y-31.399
M204 S5000
M205 X30 Y30
G0 F3600 X-6.438 Y-31.329
M204 S3000
M205 X20 Y20
G1 F1500 X24.33 Y-.56 E118.80565
G1 X24.4 Y-.49
M204 S5000
M205 X30 Y30
G0 F3600 X24.33 Y0.005
M204 S3000
M205 X20 Y20
G1 F1500 X-7.004 Y-31.329 E121.01643
G1 X-7.074 Y-31.399
M204 S5000
M205 X30 Y30
G0 F3600 X-7.57 Y-31.329
M204 S3000
M205 X20 Y20
G1 F1500 X24.33 Y0.571 E123.26715
G1 X24.4 Y0.641
M204 S5000
M205 X30 Y30
G0 F3600 X24.33 Y1.137
M204 S3000
M205 X20 Y20
G1 F1500 X-8.135 Y-31.329 E125.55776
G1 X-8.205 Y-31.399
M204 S5000
M205 X30 Y30
G0 F3600 X-8.701 Y-31.329
M204 S3000
M205 X20 Y20
G1 F1500 X24.33 Y1.702 E127.88828
G1 X24.4 Y1.772
M204 S5000
M205 X30 Y30
G0 F3600 X24.33 Y2.268
M204 S3000
M205 X20 Y20
G1 F1500 X-9.267 Y-31.329 E130.25873
G1 X-9.337 Y-31.399
M204 S5000
M205 X30 Y30
G0 F3600 X-9.833 Y-31.329
M204 S3000
M205 X20 Y20
G1 F1500 X24.33 Y2.834 E132.66911
G1 X24.4 Y2.904
M204 S5000
M205 X30 Y30
G0 F3600 X24.33 Y3.399
M204 S3000
M205 X20 Y20
G1 F1500 X-10.398 Y-31.329 E135.11936
G1 X-10.468 Y-31.399
M204 S5000
M205 X30 Y30
G0 F3600 X-10.964 Y-31.329
M204 S3000
M205 X20 Y20
G1 F1500 X24.33 Y3.965 E137.60954
G1 X24.4 Y4.035
M204 S5000
M205 X30 Y30
G0 F3600 X24.33 Y4.531
M204 S3000
M205 X20 Y20
G1 F1500 X-11.53 Y-31.329 E140.13966
G1 X-11.6 Y-31.399
M204 S5000
M205 X30 Y30
G0 F3600 X-12.095 Y-31.329
M204 S3000
M205 X20 Y20
G1 F1500 X24.33 Y5.096 E142.70964
G1 X24.4 Y5.166
M204 S5000
M205 X30 Y30
G0 F3600 X24.33 Y5.662
M204 S3000
M205 X20 Y20
G1 F1500 X-12.661 Y-31.329 E145.31956
G1 X-12.731 Y-31.399
M204 S5000
M205 X30 Y30
G0 F3600 X-13.227 Y-31.329
M204 S3000
M205 X20 Y20
G1 F1500 X24.33 Y6.228 E147.9694
G1 X24.4 Y6.298
M204 S5000
M205 X30 Y30
G0 F3600 X24.33 Y6.793
M204 S3000
M205 X20 Y20
G1 F1500 X-13.792 Y-31.329 E150.65912
G1 X-13.862 Y-31.399
M204 S5000
M205 X30 Y30
G0 F3600 X-14.358 Y-31.329
M204 S3000
M205 X20 Y20
G1 F1500 X24.33 Y7.359 E153.38877
G1 X24.4 Y7.429
M204 S5000
M205 X30 Y30
G0 F3600 X24.33 Y7.925
M204 S3000
M205 X20 Y20
G1 F1500 X-14.924 Y-31.329 E156.15835
G1 X-14.994 Y-31.399
M204 S5000
M205 X30 Y30
G0 F3600 X-15.33 Y-31.169
M204 S3000
M205 X20 Y20
G1 F1500 X24.33 Y8.49 E158.95654
G1 X24.4 Y8.56
M204 S5000
M205 X30 Y30
G0 F3600 X24.33 Y9.056
M204 S3000
M205 X20 Y20
G1 F1500 X-15.33 Y-30.603 E161.75473
G1 X-15.4 Y-30.673
M204 S5000
M205 X30 Y30
G0 F3600 X-15.33 Y-30.037
M204 S3000
M205 X20 Y20
G1 F1500 X24.33 Y9.622 E164.55292
G1 X24.4 Y9.692
M204 S5000
M205 X30 Y30
G0 F3600 X24.33 Y10.187
M204 S3000
M205 X20 Y20
G1 F1500 X-15.33 Y-29.472 E167.35111
G1 X-15.4 Y-29.542
M204 S5000
M205 X30 Y30
G0 F3600 X-15.33 Y-28.906
M204 S3000
M205 X20 Y20
G1 F1500 X24.33 Y10.753 E170.14931
G1 X24.4 Y10.823
M204 S5000
M205 X30 Y30
G0 F3600 X24.33 Y11.319
M204 S3000
M205 X20 Y20
G1 F1500 X-15.33 Y-28.34 E172.9475
G1 X-15.4 Y-28.41
M204 S5000
M205 X30 Y30
G0 F3600 X-15.33 Y-27.775
M204 S3000
M205 X20 Y20
G1 F1500 X24.33 Y11.885 E175.74573
G1 X24.4 Y11.955
M204 S5000
M205 X30 Y30
G0 F3600 X24.33 Y12.45
M204 S3000
M205 X20 Y20
G1 F1500 X-15.33 Y-27.209 E178.54392
G1 X-15.4 Y-27.279
M204 S5000
M205 X30 Y30
G0 F3600 X-15.33 Y-26.643
M204 S3000
M205 X20 Y20
G1 F1500 X24.33 Y13.016 E181.34211
G1 X24.4 Y13.086
M204 S5000
M205 X30 Y30
G0 F3600 X24.33 Y13.582
M204 S3000
M205 X20 Y20
G1 F1500 X-15.33 Y-26.078 E184.14034
G1 X-15.4 Y-26.148
M204 S5000
M205 X30 Y30
G0 F3600 X-15.33 Y-25.512
M204 S3000
M205 X20 Y20
G1 F1500 X24.33 Y14.147 E186.93853
G1 X24.4 Y14.217
M204 S5000
M205 X30 Y30
G0 F3600 X24.33 Y14.713
M204 S3000
M205 X20 Y20
G1 F1500 X-15.33 Y-24.946 E189.73672
G1 X-15.4 Y-25.016
M204 S5000
M205 X30 Y30
G0 F3600 X-15.33 Y-24.381
M204 S3000
M205 X20 Y20
G1 F1500 X24.33 Y15.279 E192.53495
G1 X24.4 Y15.349
M204 S5000
M205 X30 Y30
G0 F3600 X24.33 Y15.844
M204 S3000
M205 X20 Y20
G1 F1500 X-15.33 Y-23.815 E195.33314
G1 X-15.4 Y-23.885
M204 S5000
M205 X30 Y30
G0 F3600 X-15.33 Y-23.249
M204 S3000
M205 X20 Y20
G1 F1500 X24.33 Y16.41 E198.13133
G1 X24.4 Y16.48
M204 S5000
M205 X30 Y30
G0 F3600 X24.33 Y16.976
M204 S3000
M205 X20 Y20
G1 F1500 X-15.33 Y-22.683 E200.92952
G1 X-15.4 Y-22.753
M204 S5000
M205 X30 Y30
G0 F3600 X-15.33 Y-22.118
M204 S3000
M205 X20 Y20
