;FLAVOR:Marlin
;TIME:12576
;Filament used: 6.76587m
;Layer height: 0.1
;Generated with Cura_SteamEngine 3.4.1
M190 S40
M104 S200
M109 S200
M82 ;absolute extrusion mode
G28 ;Home
G1 Z15.0 F6000 ;Move the platform down 15mm
G29 Z0.4 ;auto-level
G92 E0
G1 F200 E3
G92 E0
G92 E0
G1 F2400 E-4.5
;LAYER_COUNT:79
;LAYER:0
M107
M204 S5000
M205 X30 Y30
G0 F3600 X-19.452 Y-19.702 Z0.3
M204 S3000
M205 X20 Y20
;TYPE:SUPPORT
G1 F2400 E0
G1 F1500 X-19.914 Y-19.349 E0.02901
G1 X-20.434 Y-19.133 E0.0571
G1 X-21 Y-19.059 E0.08558
G1 X-21.566 Y-19.133 E0.11406
G1 X-22.086 Y-19.349 E0.14215
G1 X-22.548 Y-19.702 E0.17116
G1 X-22.901 Y-20.164 E0.20016
G1 X-23.117 Y-20.684 E0.22825
G1 X-23.191 Y-21.25 E0.25673
G1 X-23.117 Y-21.816 E0.28521
G1 X-22.901 Y-22.336 E0.3133
G1 X-22.548 Y-22.798 E0.34231
G1 X-22.086 Y-23.151 E0.37132
G1 X-21.566 Y-23.367 E0.39941
G1 X-21 Y-23.441 E0.42789
G1 X-20.434 Y-23.367 E0.45637
G1 X-19.914 Y-23.151 E0.48446
G1 X-19.452 Y-22.798 E0.51347
G1 X-19.099 Y-22.336 E0.54247
G1 X-18.883 Y-21.816 E0.57056
G1 X-18.809 Y-21.25 E0.59904
G1 X-18.883 Y-20.684 E0.62752
G1 X-19.099 Y-20.164 E0.65561
G1 X-19.452 Y-19.702 E0.68462
M204 S5000
M205 X30 Y30
G0 F3600 X-18.98 Y-21.328
M204 S3000
M205 X20 Y20
G1 F1500 X-23.019 Y-21.328 E0.88613
M204 S5000
M205 X30 Y30
G0 F3600 X-21.328 Y-23.238
M204 S3000
M205 X20 Y20
G1 F1500 X-21.328 Y-19.263 E1.08444
M204 S5000
M205 X30 Y30
G1 F2400 E-3.41556
G0 F3600 X-22.718 Y-22.968
G0 X-23.62 Y-23.87
G0 X-22.902 Y-24.546
G0 X-22.853 Y-24.46
M204 S3000
M205 X20 Y20
;TYPE:WALL-INNER
G1 F2400 E1.08444
G1 F1500 X-23.62 Y-23.87 E1.13272
G1 X-24.21 Y-23.103 E1.181
G1 X-24.579 Y-22.208 E1.22929
G1 X-24.705 Y-21.25 E1.2775
G1 X-24.579 Y-20.292 E1.32571
G1 X-24.21 Y-19.397 E1.374
G1 X-23.62 Y-18.63 E1.42228
G1 X-22.853 Y-18.04 E1.47056
G1 X-21.958 Y-17.671 E1.51886
G1 X-21 Y-17.545 E1.56706
G1 X-20.042 Y-17.671 E1.61527
G1 X-19.147 Y-18.04 E1.66357
G1 X-18.38 Y-18.63 E1.71184
G1 X-17.79 Y-19.397 E1.76012
G1 X-17.421 Y-20.292 E1.80842
G1 X-17.295 Y-21.25 E1.85663
G1 X-17.421 Y-22.208 E1.90483
G1 X-17.79 Y-23.103 E1.95313
G1 X-18.38 Y-23.87 E2.00141
G1 X-19.147 Y-24.46 E2.04969
G1 X-20.042 Y-24.829 E2.09798
G1 X-21 Y-24.955 E2.14619
G1 X-21.958 Y-24.829 E2.1944
G1 X-22.853 Y-24.46 E2.24269
M204 S5000
M205 X30 Y30
G0 F3600 X-22.902 Y-24.546
G0 X-21.968 Y-24.867
G0 X-21 Y-24.995
G0 X-20.032 Y-24.867
G0 X-19.128 Y-24.494
G0 X-18.5 Y-24.012
G0 X38.33 Y33.08
G0 X38.4 Y33.15
M204 S3000
M205 X20 Y20
G1 F1500 X-38.4 Y33.15 E6.07426
G1 X-38.4 Y-33.15 E9.38198
G1 X38.4 Y-33.15 E13.21355
G1 X38.4 Y33.15 E16.52127
M204 S5000
M205 X30 Y30
G0 F3600 X38.8 Y33.55
M204 S3000
M205 X20 Y20
;TYPE:WALL-OUTER
G1 F1500 X-38.8 Y33.55 E20.39275
G1 X-38.8 Y-33.55 E23.74038
G1 X38.8 Y-33.55 E27.61186
G1 X38.8 Y33.55 E30.95949
M204 S5000
M205 X30 Y30
G0 F3600 X38.6 Y33.55
G0 X38.33 Y33.08
G0 X-18.352 Y-23.898
G0 X-19.128 Y-24.494
G0 X-20.032 Y-24.867
G0 X-21 Y-24.995
G0 X-21.783 Y-24.892
G0 X-22.956 Y-24.507
G0 X-22.651 Y-24.11
M204 S3000
M205 X20 Y20
G1 F1500 X-23.335 Y-23.585 E31.00251
G1 X-23.86 Y-22.901 E31.04553
G1 X-24.189 Y-22.104 E31.08855
G1 X-24.302 Y-21.25 E31.13153
G1 X-24.189 Y-20.396 E31.1745
G1 X-23.86 Y-19.599 E31.21752
G1 X-23.335 Y-18.915 E31.26054
G1 X-22.651 Y-18.39 E31.30356
G1 X-21.854 Y-18.061 E31.34657
G1 X-21 Y-17.948 E31.38955
G1 X-20.146 Y-18.061 E31.43253
G1 X-19.349 Y-18.39 E31.47555
G1 X-18.665 Y-18.915 E31.51856
G1 X-18.14 Y-19.599 E31.56158
G1 X-17.811 Y-20.396 E31.6046
G1 X-17.698 Y-21.25 E31.64758
G1 X-17.811 Y-22.104 E31.69055
G1 X-18.14 Y-22.901 E31.73357
G1 X-18.665 Y-23.585 E31.77659
G1 X-19.349 Y-24.11 E31.81961
G1 X-20.146 Y-24.439 E31.86262
G1 X-21 Y-24.552 E31.9056
G1 X-21.854 Y-24.439 E31.94858
G1 X-22.651 Y-24.11 E31.9916
M204 S5000
M205 X30 Y30
G0 F3600 X-22.809 Y-23.989
G0 X-23.113 Y-24.386
G0 X-23.05 Y-24.801
M204 S3000
M205 X20 Y20
;TYPE:SKIN
G1 F1500 X-23.898 Y-24.148 E32.04499
G1 X-24.551 Y-23.3 E32.09839
G1 X-24.959 Y-22.309 E32.15186
G1 X-25.099 Y-21.25 E32.20515
G1 X-24.959 Y-20.191 E32.25844
G1 X-24.551 Y-19.2 E32.31191
G1 X-23.898 Y-18.352 E32.36531
G1 X-23.05 Y-17.699 E32.4187
G1 X-22.059 Y-17.291 E32.47217
G1 X-21 Y-17.151 E32.52547
G1 X-19.941 Y-17.291 E32.57876
G1 X-18.95 Y-17.699 E32.63223
G1 X-18.102 Y-18.352 E32.68562
G1 X-17.449 Y-19.2 E32.73902
G1 X-17.041 Y-20.191 E32.79249
G1 X-16.901 Y-21.25 E32.84578
G1 X-17.041 Y-22.309 E32.89907
G1 X-17.449 Y-23.3 E32.95254
G1 X-18.102 Y-24.148 E33.00594
G1 X-18.95 Y-24.801 E33.05934
G1 X-19.941 Y-25.209 E33.1128
G1 X-21 Y-25.349 E33.1661
G1 X-22.059 Y-25.209 E33.21939
G1 X-23.05 Y-24.801 E33.27286
M204 S5000
M205 X30 Y30
G0 F3600 X-38.01 Y-32.76
M204 S3000
M205 X20 Y20
G1 F1500 X38.01 Y-32.76 E37.06551
G1 X38.01 Y32.76 E40.33432
G1 X-38.01 Y32.76 E44.12697
G1 X-38.01 Y-32.76 E47.39578
M204 S5000
M205 X30 Y30
G0 F3600 X-37.829 Y32.315
M204 S3000
M205 X20 Y20
G1 F1500 X-37.565 Y32.579 E47.4144
M204 S5000
M205 X30 Y30
G0 F3600 X-36.999 Y32.579
M204 S3000
M205 X20 Y20
G1 F1500 X-37.829 Y31.749 E47.47296
G1 X-37.899 Y31.679
M204 S5000
M205 X30 Y30
G0 F3600 X-37.829 Y31.184
M204 S3000
M205 X20 Y20
G1 F1500 X-36.433 Y32.579 E47.57142
G1 X-36.363 Y32.649
M204 S5000
M205 X30 Y30
G0 F3600 X-35.867 Y32.579
M204 S3000
M205 X20 Y20
G1 F1500 X-37.829 Y30.618 E47.70982
G1 X-37.899 Y30.548
M204 S5000
M205 X30 Y30
G0 F3600 X-37.829 Y30.052
M204 S3000
M205 X20 Y20
G1 F1500 X-35.302 Y32.579 E47.88811
G1 X-35.232 Y32.649
M204 S5000
M205 X30 Y30
G0 F3600 X-34.736 Y32.579
M204 S3000
M205 X20 Y20
G1 F1500 X-37.829 Y29.487 E48.1063
G1 X-37.899 Y29.417
M204 S5000
M205 X30 Y30
G0 F3600 X-37.829 Y28.921
M204 S3000
M205 X20 Y20
G1 F1500 X-34.17 Y32.579 E48.36443
G1 X-34.1 Y32.649
M204 S5000
M205 X30 Y30
G0 F3600 X-33.605 Y32.579
M204 S3000
M205 X20 Y20
G1 F1500 X-37.829 Y28.355 E48.66246
G1 X-37.899 Y28.285
M204 S5000
M205 X30 Y30
G0 F3600 X-37.829 Y27.79
M204 S3000
M205 X20 Y20
G1 F1500 X-33.039 Y32.579 E49.00038
G1 X-32.969 Y32.649
M204 S5000
M205 X30 Y30
G0 F3600 X-32.473 Y32.579
M204 S3000
M205 X20 Y20
G1 F1500 X-37.829 Y27.224 E49.37824
G1 X-37.899 Y27.154
M204 S5000
M205 X30 Y30
G0 F3600 X-37.829 Y26.658
M204 S3000
M205 X20 Y20
G1 F1500 X-31.908 Y32.579 E49.796
G1 X-31.838 Y32.649
M204 S5000
M205 X30 Y30
G0 F3600 X-31.342 Y32.579
M204 S3000
M205 X20 Y20
G1 F1500 X-37.829 Y26.092 E50.25369
G1 X-37.899 Y26.022
M204 S5000
M205 X30 Y30
G0 F3600 X-37.829 Y25.527
M204 S3000
M205 X20 Y20
G1 F1500 X-30.776 Y32.579 E50.75128
G1 X-30.706 Y32.649
M204 S5000
M205 X30 Y30
G0 F3600 X-30.211 Y32.579
M204 S3000
M205 X20 Y20
G1 F1500 X-37.829 Y24.961 E51.28878
G1 X-37.899 Y24.891
M204 S5000
M205 X30 Y30
G0 F3600 X-37.829 Y24.395
M204 S3000
M205 X20 Y20
G1 F1500 X-29.645 Y32.579 E51.8662
G1 X-29.575 Y32.649
M204 S5000
M205 X30 Y30
G0 F3600 X-29.079 Y32.579
M204 S3000
M205 X20 Y20
G1 F1500 X-37.829 Y23.83 E52.48353
G1 X-37.899 Y23.76
M204 S5000
M205 X30 Y30
G0 F3600 X-37.829 Y23.264
M204 S3000
M205 X20 Y20
G1 F1500 X-28.514 Y32.579 E53.14075
G1 X-28.444 Y32.649
M204 S5000
M205 X30 Y30
G0 F3600 X-27.948 Y32.579
M204 S3000
M205 X20 Y20
G1 F1500 X-37.829 Y22.698 E53.83791
G1 X-37.899 Y22.628
M204 S5000
M205 X30 Y30
G0 F3600 X-37.829 Y22.133
M204 S3000
M205 X20 Y20
G1 F1500 X-27.382 Y32.579 E54.57496
G1 X-27.312 Y32.649
M204 S5000
M205 X30 Y30
G0 F3600 X-26.817 Y32.579
M204 S3000
M205 X20 Y20
G1 F1500 X-37.829 Y21.567 E55.35192
G1 X-37.899 Y21.497
M204 S5000
M205 X30 Y30
G0 F3600 X-37.829 Y21.001
M204 S3000
M205 X20 Y20
G1 F1500 X-26.251 Y32.579 E56.16881
G1 X-26.181 Y32.649
M204 S5000
M205 X30 Y30
G0 F3600 X-25.685 Y32.579
M204 S3000
M205 X20 Y20
G1 F1500 X-37.829 Y20.436 E57.0256
G1 X-37.899 Y20.366
M204 S5000
M205 X30 Y30
G0 F3600 X-37.829 Y19.87
M204 S3000
M205 X20 Y20
G1 F1500 X-25.119 Y32.579 E57.92232
G1 X-25.049 Y32.649
M204 S5000
M205 X30 Y30
G0 F3600 X-24.554 Y32.579
M204 S3000
M205 X20 Y20
G1 F1500 X-37.829 Y19.304 E58.85895
G1 X-37.899 Y19.234
M204 S5000
M205 X30 Y30
G0 F3600 X-37.829 Y18.739
M204 S3000
M205 X20 Y20
G1 F1500 X-23.988 Y32.579 E59.83547
G1 X-23.918 Y32.649
M204 S5000
M205 X30 Y30
G0 F3600 X-23.422 Y32.579
M204 S3000
M205 X20 Y20
G1 F1500 X-37.829 Y18.173 E60.85193
G1 X-37.899 Y18.103
M204 S5000
M205 X30 Y30
G0 F3600 X-37.829 Y17.607
M204 S3000
M205 X20 Y20
G1 F1500 X-22.857 Y32.579 E61.90828
G1 X-22.787 Y32.649
M204 S5000
M205 X30 Y30
G0 F3600 X-22.291 Y32.579
M204 S3000
M205 X20 Y20
G1 F1500 X-37.829 Y17.041 E63.00457
G1 X-37.899 Y16.971
M204 S5000
M205 X30 Y30
G0 F3600 X-37.829 Y16.476
M204 S3000
M205 X20 Y20
G1 F1500 X-21.725 Y32.579 E64.14076
G1 X-21.655 Y32.649
M204 S5000
M205 X30 Y30
G0 F3600 X-21.16 Y32.579
M204 S3000
M205 X20 Y20
G1 F1500 X-37.829 Y15.91 E65.31685
G1 X-37.899 Y15.84
M204 S5000
M205 X30 Y30
G0 F3600 X-37.829 Y15.344
M204 S3000
M205 X20 Y20
G1 F1500 X-20.594 Y32.579 E66.53287
G1 X-20.524 Y32.649
M204 S5000
M205 X30 Y30
G0 F3600 X-20.028 Y32.579
M204 S3000
M205 X20 Y20
G1 F1500 X-37.829 Y14.779 E67.78879
G1 X-37.899 Y14.709
M204 S5000
M205 X30 Y30
G0 F3600 X-37.829 Y14.213
M204 S3000
M205 X20 Y20
G1 F1500 X-19.463 Y32.579 E69.08461
G1 X-19.393 Y32.649
M204 S5000
M205 X30 Y30
G0 F3600 X-18.897 Y32.579
M204 S3000
M205 X20 Y20
G1 F1500 X-37.829 Y13.647 E70.42037
G1 X-37.899 Y13.577
M204 S5000
M205 X30 Y30
G0 F3600 X-37.829 Y13.082
M204 S3000
M205 X20 Y20
G1 F1500 X-18.331 Y32.579 E71.79602
G1 X-18.261 Y32.649
M204 S5000
M205 X30 Y30
G0 F3600 X-17.766 Y32.579
M204 S3000
M205 X20 Y20
G1 F1500 X-37.829 Y12.516 E73.21157
G1 X-37.899 Y12.446
M204 S5000
M205 X30 Y30
G0 F3600 X-37.829 Y11.95
M204 S3000
M205 X20 Y20
G1 F1500 X-17.2 Y32.579 E74.66706
G1 X-17.13 Y32.649
M204 S5000
M205 X30 Y30
G0 F3600 X-16.634 Y32.579
M204 S3000
M205 X20 Y20
G1 F1500 X-37.829 Y11.385 E76.16245
G1 X-37.899 Y11.315
M204 S5000
M205 X30 Y30
G0 F3600 X-37.829 Y10.819
M204 S3000
M205 X20 Y20
G1 F1500 X-16.069 Y32.579 E77.69773
G1 X-15.999 Y32.649
M204 S5000
M205 X30 Y30
G0 F3600 X-15.503 Y32.579
M204 S3000
M205 X20 Y20
G1 F1500 X-37.829 Y10.253 E79.27295
G1 X-37.899 Y10.183
M204 S5000
M205 X30 Y30
G0 F3600 X-37.829 Y9.688
M204 S3000
M205 X20 Y20
G1 F1500 X-14.937 Y32.579 E80.88807
G1 X-14.867 Y32.649
M204 S5000
M205 X30 Y30
G0 F3600 X-14.371 Y32.579
M204 S3000
M205 X20 Y20
G1 F1500 X-37.829 Y9.122 E82.54313
G1 X-37.899 Y9.052
M204 S5000
M205 X30 Y30
G0 F3600 X-37.829 Y8.556
M204 S3000
M205 X20 Y20
G1 F1500 X-13.806 Y32.579 E84.23808
G1 X-13.736 Y32.649
M204 S5000
M205 X30 Y30
G0 F3600 X-13.24 Y32.579
M204 S3000
M205 X20 Y20
G1 F1500 X-37.829 Y7.991 E85.97293
G1 X-37.899 Y7.921
M204 S5000
M205 X30 Y30
G0 F3600 X-37.829 Y7.425
M204 S3000
M205 X20 Y20
G1 F1500 X-12.674 Y32.579 E87.74771
G1 X-12.604 Y32.649
M204 S5000
M205 X30 Y30
G0 F3600 X-12.109 Y32.579
M204 S3000
M205 X20 Y20
G1 F1500 X-37.829 Y6.859 E89.5624
G1 X-37.899 Y6.789
M204 S5000
M205 X30 Y30
G0 F3600 X-37.829 Y6.293
M204 S3000
M205 X20 Y20
G1 F1500 X-11.543 Y32.579 E91.41702
G1 X-11.473 Y32.649
M204 S5000
M205 X30 Y30
G0 F3600 X-10.977 Y32.579
M204 S3000
M205 X20 Y20
G1 F1500 X-37.829 Y5.728 E93.31154
G1 X-37.899 Y5.658
M204 S5000
M205 X30 Y30
G0 F3600 X-37.829 Y5.162
M204 S3000
M205 X20 Y20
G1 F1500 X-10.412 Y32.579 E95.24595
G1 X-10.342 Y32.649
M204 S5000
M205 X30 Y30
G0 F3600 X-9.846 Y32.579
M204 S3000
M205 X20 Y20
G1 F1500 X-37.829 Y4.596 E97.22031
G1 X-37.899 Y4.526
M204 S5000
M205 X30 Y30
G0 F3600 X-37.829 Y4.031
M204 S3000
M205 X20 Y20
G1 F1500 X-9.28 Y32.579 E99.23456
G1 X-9.21 Y32.649
M204 S5000
M205 X30 Y30
G0 F3600 X-8.715 Y32.579
M204 S3000
M205 X20 Y20
G1 F1500 X-37.829 Y3.465 E101.28871
G1 X-37.899 Y3.395
M204 S5000
M205 X30 Y30
G0 F3600 X-37.829 Y2.899
M204 S3000
M205 X20 Y20
G1 F1500 X-8.149 Y32.579 E103.38279
G1 X-8.079 Y32.649
M204 S5000
M205 X30 Y30
G0 F3600 X-7.583 Y32.579
M204 S3000
M205 X20 Y20
G1 F1500 X-37.829 Y2.334 E105.51678
G1 X-37.899 Y2.264
M204 S5000
M205 X30 Y30
G0 F3600 X-37.829 Y1.768
M204 S3000
M205 X20 Y20
G1 F1500 X-7.018 Y32.579 E107.69066
G1 X-6.948 Y32.649
M204 S5000
M205 X30 Y30
G0 F3600 X-6.452 Y32.579
M204 S3000
M205 X20 Y20
G1 F1500 X-37.829 Y1.202 E109.90447
G1 X-37.899 Y1.132
M204 S5000
M205 X30 Y30
G0 F3600 X-37.829 Y0.637
M204 S3000
M205 X20 Y20
G1 F1500 X-5.886 Y32.579 E112.15819
G1 X-5.816 Y32.649
M204 S5000
M205 X30 Y30
G0 F3600 X-5.32 Y32.579
M204 S3000
M205 X20 Y20
G1 F1500 X-37.829 Y0.071 E114.45184
G1 X-37.899 Y0.001
M204 S5000
M205 X30 Y30
G0 F3600 X-37.829 Y-.494
M204 S3000
M205 X20 Y20
G1 F1500 X-4.755 Y32.579 E116.78535
G1 X-4.685 Y32.649
M204 S5000
M205 X30 Y30
G0 F3600 X-4.189 Y32.579
M204 S3000
M205 X20 Y20
G1 F1500 X-37.829 Y-1.059 E119.15877
G1 X-37.899 Y-1.129
M204 S5000
M205 X30 Y30
G0 F3600 X-37.829 Y-1.625
M204 S3000
M205 X20 Y20
G1 F1500 X-3.623 Y32.579 E121.57212
G1 X-3.553 Y32.649
M204 S5000
M205 X30 Y30
G0 F3600 X-3.058 Y32.579
M204 S3000
M205 X20 Y20
G1 F1500 X-37.829 Y-2.191 E124.02536
G1 X-37.899 Y-2.261
M204 S5000
M205 X30 Y30
G0 F3600 X-37.829 Y-2.757
M204 S3000
M205 X20 Y20
G1 F1500 X-2.492 Y32.579 E126.51854
G1 X-2.422 Y32.649
M204 S5000
M205 X30 Y30
G0 F3600 X-1.926 Y32.579
M204 S3000
M205 X20 Y20
G1 F1500 X-37.829 Y-3.322 E129.05162
G1 X-37.899 Y-3.392
M204 S5000
M205 X30 Y30
G0 F3600 X-37.829 Y-3.888
M204 S3000
M205 X20 Y20
G1 F1500 X-1.361 Y32.579 E131.6246
G1 X-1.291 Y32.649
M204 S5000
M205 X30 Y30
G0 F3600 X-.795 Y32.579
M204 S3000
M205 X20 Y20
G1 F1500 X-37.829 Y-4.454 E134.23752
G1 X-37.899 Y-4.524
M204 S5000
M205 X30 Y30
G0 F3600 X-37.829 Y-5.019
M204 S3000
M205 X20 Y20
G1 F1500 X-.229 Y32.579 E136.89033
G1 X-.159 Y32.649
M204 S5000
M205 X30 Y30
G0 F3600 X0.335 Y32.579
M204 S3000
M205 X20 Y20
G1 F1500 X-37.829 Y-5.585 E139.583
G1 X-37.899 Y-5.655
M204 S5000
M205 X30 Y30
G0 F3600 X-37.829 Y-6.151
M204 S3000
M205 X20 Y20
G1 F1500 X0.901 Y32.579 E142.31561
G1 X0.971 Y32.649
M204 S5000
M205 X30 Y30
G0 F3600 X1.467 Y32.579
M204 S3000
M205 X20 Y20
G1 F1500 X-37.829 Y-6.716 E145.08812
G1 X-37.899 Y-6.786
M204 S5000
M205 X30 Y30
G0 F3600 X-37.829 Y-7.282
M204 S3000
M205 X20 Y20
G1 F1500 X2.032 Y32.579 E147.90053
G1 X2.102 Y32.649
M204 S5000
M205 X30 Y30
G0 F3600 X2.598 Y32.579
M204 S3000
M205 X20 Y20
G1 F1500 X-37.829 Y-7.848 E150.75288
G1 X-37.899 Y-7.918
M204 S5000
M205 X30 Y30
G0 F3600 X-37.829 Y-8.413
M204 S3000
M205 X20 Y20
G1 F1500 X3.164 Y32.579 E153.64512
G1 X3.234 Y32.649
M204 S5000
M205 X30 Y30
G0 F3600 X3.729 Y32.579
M204 S3000
M205 X20 Y20
G1 F1500 X-37.829 Y-8.979 E156.57726
G1 X-37.899 Y-9.049
M204 S5000
M205 X30 Y30
G0 F3600 X-37.829 Y-9.545
M204 S3000
M205 X20 Y20
G1 F1500 X4.295 Y32.579 E159.54934
G1 X4.365 Y32.649
M204 S5000
M205 X30 Y30
G0 F3600 X4.861 Y32.579
M204 S3000
M205 X20 Y20
G1 F1500 X-37.829 Y-10.11 E162.56131
G1 X-37.899 Y-10.18
M204 S5000
M205 X30 Y30
G0 F3600 X-37.829 Y-10.676
M204 S3000
M205 X20 Y20
G1 F1500 X5.427 Y32.579 E165.61322
G1 X5.497 Y32.649
M204 S5000
M205 X30 Y30
G0 F3600 X5.992 Y32.579
M204 S3000
M205 X20 Y20
G1 F1500 X-37.829 Y-11.242 E168.70503
G1 X-37.899 Y-11.312
M204 S5000
M205 X30 Y30
G0 F3600 X-37.829 Y-11.807
M204 S3000
M205 X20 Y20
G1 F1500 X6.558 Y32.579 E171.83674
G1 X6.628 Y32.649
M204 S5000
M205 X30 Y30
G0 F3600 X7.124 Y32.579
M204 S3000
M205 X20 Y20
G1 F1500 X-37.829 Y-12.373 E175.00838
G1 X-37.899 Y-12.443
M204 S5000
M205 X30 Y30
G0 F3600 X-37.829 Y-12.939
M204 S3000
M205 X20 Y20
G1 F1500 X7.689 Y32.579 E178.21992
G1 X7.759 Y32.649
M204 S5000
M205 X30 Y30
